; generated by Slic3r 0.9.2-dev on 2012-09-07 at 14:07:17

; layer_height = 0.3
; perimeters = 2
; solid_layers = 3
; fill_density = 0.25
; perimeter_speed = 30
; infill_speed = 48
; travel_speed = 250
; scale = 1
; nozzle_diameter = 0.5
; filament_diameter = 1.75
; extrusion_multiplier = 0.79
; single wall width = 0.50mm
; first layer single wall width = 0.50mm

M107
M190 S57 ; wait for bed temperature to be reached
M104 S200 ; set temperature
G28 X0 Y0
G1 X75 Y75 F12000
G28 Z0
G1 Z0.3 F200
G1 X15 Y20 F12000
M109 S200 ; wait for temperature to be reached
G90 ; use absolute coordinates
G21 ; set units to millimeters
G92 E0
M82 ; use absolute distances for extrusion
G1 Z0.300 F15000.000
G1 X47.711 Y41.131
G1 F3000.000 E1.60000
G1 X47.871 Y40.931
G1 X47.871 Y40.931 F1800.000
G1 X48.431 Y40.371 E1.63902
G1 X48.841 Y40.041 E1.66495
G1 X49.051 Y39.891 E1.67766
G1 X49.721 Y39.481 E1.71636
G1 X50.191 Y39.261 E1.74193
G1 X50.681 Y39.071 E1.76782
G1 X51.441 Y38.871 E1.80654
G1 X51.701 Y38.821 E1.81958
G1 X52.221 Y38.761 E1.84537
G1 X52.741 Y38.741 E1.87101
G1 X97.761 Y38.761 E4.08899
G1 X98.281 Y38.821 E4.11478
G1 X98.801 Y38.931 E4.14096
G1 X99.301 Y39.071 E4.16654
G1 X99.791 Y39.261 E4.19243
G1 X100.261 Y39.481 E4.21800
G1 X100.931 Y39.891 E4.25670
G1 X101.141 Y40.041 E4.26941
G1 X101.551 Y40.371 E4.29534
G1 X102.111 Y40.931 E4.33436
G1 X102.441 Y41.341 E4.36029
G1 X102.591 Y41.551 E4.37300
G1 X103.001 Y42.221 E4.41170
G1 X103.221 Y42.691 E4.43727
G1 X103.411 Y43.181 E4.46316
G1 X103.611 Y43.941 E4.50188
G1 X103.661 Y44.201 E4.51492
G1 X103.721 Y44.721 E4.54071
G1 X103.721 Y105.261 E7.52331
G1 X103.661 Y105.781 E7.54910
G1 X103.551 Y106.301 E7.57528
G1 X103.411 Y106.801 E7.60086
G1 X103.221 Y107.291 E7.62675
G1 X103.001 Y107.761 E7.65232
G1 X102.591 Y108.431 E7.69102
G1 X102.441 Y108.641 E7.70373
G1 X102.111 Y109.051 E7.72966
G1 X101.551 Y109.611 E7.76868
G1 X101.141 Y109.941 E7.79461
G1 X100.931 Y110.091 E7.80732
G1 X100.261 Y110.501 E7.84602
G1 X99.791 Y110.721 E7.87159
G1 X99.301 Y110.911 E7.89748
G1 X98.541 Y111.111 E7.93620
G1 X98.281 Y111.161 E7.94924
G1 X97.761 Y111.221 E7.97503
G1 X97.241 Y111.241 E8.00067
G1 X52.221 Y111.221 E10.21865
G1 X51.701 Y111.161 E10.24444
G1 X51.181 Y111.051 E10.27062
G1 X50.681 Y110.911 E10.29621
G1 X50.191 Y110.721 E10.32210
G1 X49.721 Y110.501 E10.34766
G1 X49.051 Y110.091 E10.38636
G1 X48.841 Y109.941 E10.39908
G1 X48.431 Y109.611 E10.42501
G1 X47.871 Y109.051 E10.46402
G1 X47.541 Y108.641 E10.48995
G1 X47.391 Y108.431 E10.50267
G1 X46.981 Y107.761 E10.54136
G1 X46.761 Y107.291 E10.56693
G1 X46.571 Y106.801 E10.59282
G1 X46.371 Y106.041 E10.63154
G1 X46.321 Y105.781 E10.64458
G1 X46.261 Y105.261 E10.67037
G1 X46.261 Y44.721 E13.65297
G1 X46.321 Y44.201 E13.67876
G1 X46.431 Y43.681 E13.70495
G1 X46.571 Y43.181 E13.73053
G1 X46.761 Y42.691 E13.75642
G1 X46.981 Y42.221 E13.78198
G1 X47.391 Y41.551 E13.82068
G1 X47.541 Y41.341 E13.83340
G1 X47.632 Y41.228 E13.84055
G1 F3000.000 E12.24055
G92 E0
G1 X63.869 Y76.949 F15000.000
G1 F3000.000 E1.60000
G1 X63.879 Y76.957
G1 X64.160 Y77.164 F720.000 E1.61667
G1 X64.322 Y77.255 E1.62367
G1 X65.540 Y77.907 E1.69035
G1 X65.540 Y77.552 E1.70781
G1 X66.187 Y77.599 E1.73976
G1 X66.350 Y77.490 E1.74943
G1 X66.500 Y77.479 E1.75683
G1 X66.500 Y77.390 E1.76122
G1 X66.827 Y77.172 E1.78056
G1 X67.197 Y76.926 E1.80246
G1 X67.382 Y76.713 E1.81543
G1 X67.559 Y76.495 E1.82925
G1 X67.620 Y76.405 E1.83462
G1 X67.717 Y76.248 E1.84371
G1 X67.791 Y76.108 E1.85149
G1 X67.827 Y76.031 E1.85570
G1 X67.966 Y75.719 E1.87253
G1 X67.991 Y75.542 E1.88134
G1 X68.069 Y75.287 E1.89447
G1 X68.032 Y74.752 E1.92089
G1 X67.966 Y74.281 E1.94432
G1 X67.797 Y73.916 E1.96412
G1 X67.854 Y73.860 E1.96804
G1 X67.548 Y73.486 E1.99182
G1 X67.472 Y73.372 E1.99858
G1 X67.382 Y73.287 E2.00403
G1 X67.239 Y73.142 E2.01406
G1 X67.082 Y73.007 E2.02424
G1 X66.828 Y72.828 E2.03958
G1 X66.661 Y72.717 E2.04941
G1 X66.215 Y72.421 E2.07578
G1 X66.052 Y72.508 E2.08489
G1 X65.932 Y72.492 E2.09088
G1 X65.789 Y72.472 E2.09798
G1 X65.282 Y72.400 E2.12319
G1 X65.050 Y72.497 E2.13488
G1 X64.906 Y72.526 E2.14071
G1 X64.731 Y72.575 E2.14683
G1 X64.565 Y72.633 E2.15253
G1 X64.394 Y72.700 E2.16051
G1 X64.198 Y72.815 E2.17170
G1 X63.911 Y73.012 E2.18674
G1 X63.771 Y73.132 E2.19582
G1 X63.543 Y73.371 E2.21208
G1 X63.414 Y73.544 E2.22274
G1 X63.332 Y73.666 E2.22998
G1 X63.231 Y73.849 E2.23739
G1 X63.096 Y73.849 E2.24403
G1 X62.987 Y74.615 E2.28215
G1 X62.663 Y74.615 E2.29810
G1 X63.015 Y75.600 E2.34966
G1 X63.097 Y75.833 E2.36155
G1 X63.443 Y76.496
G1 X64.005 Y76.394 F15000.000
G1 X64.107 Y76.497 F3000.000
G1 X64.107 Y76.497 F1560.000
G1 X64.229 Y76.601 E2.36946
G1 X64.300 Y76.654 E2.37382
G1 X64.379 Y76.709 E2.37855
G1 X64.545 Y76.807 E2.38322
G1 X64.631 Y76.850 E2.38656
G1 X65.040 Y77.070 E2.40911
G1 X65.040 Y76.990 E2.41305
G1 X65.166 Y77.017 E2.41939
G1 X65.279 Y77.033 E2.42503
G1 X65.532 Y77.051 E2.43752
G1 X65.593 Y77.043 E2.44053
G1 X65.678 Y77.037 E2.44472
G1 X66.000 Y77.014 E2.46048
G1 X66.141 Y76.973 E2.46747
G1 X66.187 Y76.998 E2.47008
G1 X66.502 Y76.788 E2.48872
G1 X66.569 Y76.743 E2.49271
G1 X66.697 Y76.658 E2.50025
G1 X66.832 Y76.551 E2.50867
G1 X66.881 Y76.505 E2.51199
G1 X67.011 Y76.377 E2.51957
G1 X67.150 Y76.206 E2.53043
G1 X67.247 Y76.061 E2.53901
G1 X67.343 Y75.885 E2.54892
G1 X67.366 Y75.836 E2.55156
G1 X67.481 Y75.576 E2.56559
G1 X67.501 Y75.437 E2.57249
G1 X67.563 Y75.222 E2.58351
G1 X67.535 Y74.803 E2.60422
G1 X67.481 Y74.424 E2.62307
G1 X67.398 Y74.244 E2.63286
G1 X67.343 Y74.115 E2.63975
G1 X67.224 Y73.903 E2.65174
G1 X67.176 Y73.831 E2.65422
G1 X67.011 Y73.623 E2.66727
G1 X66.903 Y73.513 E2.67484
G1 X66.832 Y73.449 E2.67816
G1 X66.664 Y73.320 E2.68860
G1 X66.570 Y73.257 E2.69417
G1 X66.439 Y73.170 E2.70186
G1 X66.188 Y73.003 E2.71676
G1 X65.847 Y72.985 E2.73166
G1 X65.782 Y72.976 E2.73485
G1 X65.593 Y72.957 E2.73905
G1 X65.421 Y72.957 E2.74752
G1 X65.279 Y72.967 E2.75453
G1 X65.166 Y72.983 E2.76016
G1 X65.028 Y73.011 E2.76431
G1 X64.889 Y73.049 E2.76856
G1 X64.754 Y73.096 E2.77266
G1 X64.611 Y73.152 E2.77946
G1 X64.463 Y73.239 E2.78792
G1 X64.229 Y73.399 E2.79933
G1 X64.107 Y73.503 E2.80724
G1 X63.929 Y73.690 E2.81995
G1 X63.824 Y73.830 E2.82858
G1 X63.761 Y73.924 E2.83415
G1 X63.677 Y74.077 E2.83989
G1 X63.628 Y74.178 E2.84253
G1 X63.561 Y74.349 E2.84857
G1 X63.483 Y74.674 E2.86475
G1 X63.457 Y75.115 E2.87385
G1 X63.372 Y75.115 E2.87805
G1 X63.503 Y75.482 E2.89725
G1 X63.562 Y75.648 E2.90562
G1 X63.776 Y76.098
G1 X63.684 Y76.782 F3000.000 E1.30562
G92 E0
G1 X53.251 Y103.999 F15000.000
G1 F3000.000 E1.60000
G1 X53.251 Y103.499
G1 X53.251 Y45.751 F720.000 E4.44505
G1 X96.749 Y45.751 E6.58804
G1 X96.749 Y104.249 E9.47004
G1 X54.376 Y104.249 E11.55761
G1 X53.626 Y104.249
G1 X52.751 Y104.499 F15000.000
G1 X52.751 Y103.999 F3000.000
G1 X52.751 Y45.251 F576.000 E14.45193
G1 X97.249 Y45.251 E16.64419
G1 X97.249 Y104.749 E19.57545
G1 X53.376 Y104.749 E21.73693
G1 X52.876 Y104.749
G1 X53.893 Y103.891 F15000.000
G1 X53.610 Y103.607 F3000.000
G1 X53.610 Y103.607 F2880.000
G1 X53.609 Y102.898 E21.77195
G1 X54.602 Y103.891 E21.84126
G1 X55.311 Y103.891 E21.87630
G1 X53.609 Y102.189 E21.99515
G1 X53.609 Y101.480 E22.03018
G1 X56.020 Y103.891 E22.19858
G1 X56.729 Y103.890 E22.23360
G1 X53.610 Y100.771 E22.45153
G1 X53.609 Y100.062 E22.48656
G1 X57.438 Y103.891 E22.75403
G1 X58.148 Y103.891 E22.78906
G1 X53.609 Y99.352 E23.10608
G1 X53.609 Y98.643 E23.14111
G1 X58.857 Y103.891 E23.50766
G1 X59.566 Y103.890 E23.54269
G1 X53.610 Y97.934 E23.95878
G1 X53.609 Y97.225 E23.99381
G1 X60.275 Y103.891 E24.45944
G1 X60.984 Y103.891 E24.49447
G1 X53.609 Y96.516 E25.00965
G1 X53.610 Y95.806 E25.04467
G1 X61.694 Y103.891 E25.60939
G1 X62.403 Y103.890 E25.64441
G1 X53.610 Y95.097 E26.25866
G1 X53.609 Y94.388 E26.29369
G1 X63.112 Y103.891 E26.95748
G1 X63.821 Y103.891 E26.99251
G1 X53.609 Y93.679 E27.70585
G1 X53.610 Y92.970 E27.74088
G1 X64.530 Y103.891 E28.50375
G1 X65.240 Y103.890 E28.53878
G1 X53.610 Y92.260 E29.35119
G1 X53.609 Y91.551 E29.38621
G1 X65.949 Y103.891 E30.24817
G1 X66.658 Y103.891 E30.28320
G1 X53.609 Y90.842 E31.19469
G1 X53.610 Y90.133 E31.22972
G1 X67.367 Y103.891 E32.19075
G1 X68.076 Y103.890 E32.22578
G1 X53.610 Y89.424 E33.23635
G1 X53.609 Y88.714 E33.27138
G1 X68.786 Y103.891 E34.33149
G1 X69.495 Y103.891 E34.36652
G1 X53.609 Y88.005 E35.47618
G1 X53.610 Y87.296 E35.51121
G1 X70.204 Y103.891 E36.67040
G1 X70.913 Y103.891 E36.70542
G1 X53.609 Y86.587 E37.91415
G1 X53.609 Y85.878 E37.94919
G1 X71.622 Y103.891 E39.20746
G1 X72.332 Y103.891 E39.24249
G1 X53.609 Y85.168 E40.55030
G1 X53.610 Y84.459 E40.58533
G1 X73.041 Y103.891 E41.94269
G1 X73.750 Y103.891 E41.97771
G1 X53.609 Y83.750 E43.38460
G1 X53.609 Y83.041 E43.41963
G1 X74.459 Y103.891 E44.87607
G1 X75.168 Y103.891 E44.91110
G1 X53.609 Y82.332 E46.41707
G1 X53.610 Y81.623 E46.45210
G1 X75.878 Y103.891 E48.00761
G1 X76.587 Y103.891 E48.04264
G1 X53.609 Y80.913 E49.64769
G1 X53.609 Y80.204 E49.68272
G1 X77.296 Y103.891 E51.33732
G1 X78.005 Y103.891 E51.37235
G1 X53.609 Y79.495 E53.07648
G1 X53.610 Y78.786 E53.11151
G1 X78.714 Y103.891 E54.86519
G1 X79.423 Y103.891 E54.90021
G1 X53.609 Y78.077 E56.70342
G1 X53.609 Y77.367 E56.73845
G1 X80.133 Y103.891 E58.59121
G1 X80.842 Y103.891 E58.62624
G1 X53.609 Y76.658 E60.52853
G1 X53.610 Y75.949 E60.56356
G1 X81.551 Y103.891 E62.51540
G1 X82.260 Y103.891 E62.55042
G1 X53.609 Y75.240 E64.55179
G1 X53.609 Y74.531 E64.58683
G1 X82.969 Y103.891 E66.63774
G1 X83.679 Y103.890 E66.67278
G1 X53.610 Y73.821 E68.77324
G1 X53.609 Y73.112 E68.80825
G1 X84.388 Y103.891 E70.95824
G1 X85.097 Y103.890 E70.99329
G1 X53.610 Y72.403 E73.19282
G1 X53.609 Y71.694 E73.22783
G1 X85.806 Y103.890 E75.47688
G1 X86.516 Y103.890 E75.51195
G1 X53.610 Y70.984 E77.81056
G1 X53.609 Y70.276 E77.84558
G1 X87.224 Y103.890 E80.19371
G1 X87.934 Y103.890 E80.22877
G1 X53.610 Y69.566 E82.62647
G1 X53.609 Y68.857 E82.66149
G1 X88.643 Y103.890 E85.10870
G1 X89.352 Y103.891 E85.14373
G1 X53.609 Y68.148 E87.64051
G1 X53.610 Y67.439 E87.67556
G1 X63.520 Y77.350 E88.36788
G1 X63.344 Y77.173 F15000.000
G1 X63.698 Y77.527 F3000.000
G1 X90.061 Y103.890 F1152.000 E90.20946
G1 X90.770 Y103.891 E90.24449
G1 X64.996 Y78.117 E92.04491
G1 X65.899 Y78.309 F15000.000
G1 X66.252 Y78.663 F3000.000
G1 X91.480 Y103.890 F1152.000 E93.80715
G1 X92.189 Y103.891 E93.84218
G1 X66.232 Y77.934 E95.65539
G1 X66.814 Y77.806 E95.68484
G1 X92.898 Y103.890 E97.50692
G1 X93.607 Y103.891 E97.54195
G1 X67.083 Y77.367 E99.39477
G1 X67.509 Y77.083 E99.42006
G1 X94.316 Y103.890 E101.29266
G1 X95.026 Y103.891 E101.32769
G1 X67.804 Y76.669 E103.22927
G1 X68.091 Y76.246 E103.25451
G1 X95.735 Y103.890 E105.18557
G1 X96.390 Y103.837 E105.21805
G1 X68.298 Y75.745 E107.18044
G1 X68.430 Y75.167 E107.20972
G1 X96.390 Y103.127 E109.16288
G1 X96.390 Y102.419 E109.19788
G1 X68.365 Y74.394 E111.15554
G1 X68.171 Y73.489 E111.20124
G1 X96.391 Y101.710 E113.17255
G1 X96.390 Y101.000 E113.20758
G1 X53.609 Y58.219 E116.19601
G1 X53.610 Y58.928 E116.23103
G1 X67.212 Y72.531 E117.18121
G1 X66.103 Y72.131 F15000.000
G1 X65.749 Y71.778 F3000.000
G1 X53.609 Y59.638 F1152.000 E118.02924
G1 X53.610 Y60.347 E118.06425
G1 X65.278 Y72.015 E118.87934
G1 X64.778 Y72.225 F15000.000
G1 X64.424 Y71.871 F3000.000
G1 X53.609 Y61.056 F1152.000 E119.63481
G1 X53.610 Y61.765 E119.66982
G1 X64.265 Y72.420 E120.41414
G1 X63.833 Y72.698 E120.43952
G1 X53.609 Y62.475 E121.15366
G1 X53.610 Y63.183 E121.18867
G1 X63.455 Y73.029 E121.87644
G1 X63.136 Y73.419 E121.90136
G1 X53.609 Y63.893 E122.56682
G1 X53.610 Y64.602 E122.60183
G1 X62.766 Y73.758 E123.24142
G1 X62.554 Y74.257 E123.26817
G1 X53.609 Y65.311 E123.89303
G1 X53.610 Y66.020 E123.92804
G1 X62.234 Y74.644 E124.53046
G1 X62.626 Y75.747 E124.58829
G1 X53.609 Y66.730 E125.21819
G1 F3000.000 E123.61819
G92 E0
G1 X53.610 Y57.510 F15000.000
G1 F3000.000 E1.60000
G1 X53.963 Y57.863
G1 X96.391 Y100.291 F1152.000 E4.56376
G1 X96.390 Y99.582 E4.59879
G1 X53.609 Y56.801 E7.58722
G1 X53.610 Y56.091 E7.62227
G1 X96.391 Y98.873 E10.61073
G1 X96.390 Y98.163 E10.64576
G1 X53.609 Y55.382 E13.63419
G1 X53.609 Y54.674 E13.66920
G1 X96.390 Y97.455 E16.65766
G1 X96.390 Y96.745 E16.69272
G1 X53.610 Y53.964 E19.68115
G1 X53.609 Y53.255 E19.71616
G1 X96.390 Y96.036 E22.70461
G1 X96.390 Y95.326 E22.73968
G1 X53.610 Y52.546 E25.72810
G1 X53.609 Y51.837 E25.76312
G1 X96.390 Y94.618 E28.75157
G1 X96.390 Y93.908 E28.78663
G1 X53.610 Y51.127 E31.77505
G1 X53.609 Y50.418 E31.81007
G1 X96.390 Y93.200 E34.79851
G1 X96.391 Y92.490 E34.83356
G1 X53.610 Y49.709 E37.82200
G1 X53.609 Y49.000 E37.85702
G1 X96.390 Y91.781 E40.84546
G1 X96.391 Y91.071 E40.88051
G1 X53.610 Y48.290 E43.86894
G1 X53.609 Y47.582 E43.90395
G1 X96.390 Y90.363 E46.89239
G1 X96.391 Y89.653 E46.92744
G1 X53.610 Y46.872 E49.91588
G1 X53.609 Y46.163 E49.95090
G1 X96.390 Y88.944 E52.93934
G1 X96.391 Y88.235 E52.97439
G1 X54.265 Y46.109 E55.91702
G1 X54.974 Y46.110 E55.95203
G1 X96.390 Y87.526 E58.84512
G1 X96.391 Y86.816 E58.88017
G1 X55.684 Y46.109 E61.72373
G1 X56.393 Y46.110 E61.75874
G1 X96.390 Y86.107 E64.55276
G1 X96.391 Y85.398 E64.58781
G1 X57.102 Y46.109 E67.33228
G1 X57.811 Y46.110 E67.36729
G1 X96.391 Y84.689 E70.06222
G1 X96.391 Y83.979 E70.09727
G1 X58.521 Y46.109 E72.74267
G1 X59.230 Y46.109 E72.77768
G1 X96.391 Y83.270 E75.37353
G1 X96.390 Y82.562 E75.40855
G1 X59.938 Y46.110 E77.95486
G1 X60.648 Y46.109 E77.98991
G1 X96.391 Y81.852 E80.48668
G1 X96.390 Y81.143 E80.52170
G1 X61.357 Y46.110 E82.96893
G1 X62.066 Y46.109 E83.00398
G1 X96.391 Y80.434 E85.40167
G1 X96.390 Y79.725 E85.43669
G1 X62.775 Y46.110 E87.78484
G1 X63.485 Y46.109 E87.81988
G1 X96.391 Y79.015 E90.11850
G1 X96.390 Y78.306 E90.15351
G1 X64.194 Y46.110 E92.40259
G1 X64.903 Y46.109 E92.43764
G1 X96.391 Y77.597 E94.63717
G1 X96.390 Y76.888 E94.67218
G1 X65.612 Y46.110 E96.82217
G1 X66.322 Y46.109 E96.85722
G1 X96.391 Y76.178 E98.95768
G1 X96.390 Y75.470 E98.99269
G1 X67.030 Y46.110 E101.04360
G1 X67.740 Y46.109 E101.07865
G1 X96.391 Y74.760 E103.08002
G1 X96.390 Y74.051 E103.11504
G1 X68.449 Y46.110 E105.06687
G1 X69.158 Y46.109 E105.10192
G1 X96.391 Y73.342 E107.00421
G1 X96.390 Y72.633 E107.03923
G1 X69.867 Y46.110 E108.89198
G1 X70.577 Y46.109 E108.92703
G1 X96.391 Y71.923 E110.73024
G1 X96.391 Y71.214 E110.76525
G1 X71.286 Y46.110 E112.51892
G1 X71.995 Y46.109 E112.55397
G1 X96.391 Y70.505 E114.25811
G1 X96.391 Y69.796 E114.29312
G1 X72.704 Y46.109 E115.94771
G1 X73.413 Y46.110 E115.98273
G1 X96.390 Y69.087 E117.58778
G1 X96.391 Y68.377 E117.62283
G1 X74.123 Y46.109 E119.17834
G1 X74.831 Y46.110 E119.21335
G1 X96.390 Y67.669 E120.71932
G1 X96.391 Y66.959 E120.75437
G1 X75.541 Y46.109 E122.21081
G1 X76.250 Y46.110 E122.24582
G1 X96.390 Y66.250 E123.65271
G1 X96.391 Y65.541 E123.68776
G1 X76.959 Y46.109 E125.04511
G1 X77.668 Y46.110 E125.08012
G1 X96.390 Y64.832 E126.38794
G1 X96.391 Y64.122 E126.42299
G1 X78.378 Y46.109 E127.68126
G1 X79.087 Y46.110 E127.71627
G1 X96.390 Y63.413 E128.92500
G1 X96.391 Y62.704 E128.96005
G1 X79.796 Y46.109 E130.11924
G1 X80.505 Y46.110 E130.15425
G1 X96.390 Y61.995 E131.26391
G1 X96.391 Y61.285 E131.29896
G1 X81.215 Y46.109 E132.35907
G1 X81.924 Y46.110 E132.39408
G1 X96.390 Y60.576 E133.40465
G1 X96.391 Y59.867 E133.43970
G1 X82.633 Y46.109 E134.40073
G1 X83.342 Y46.110 E134.43574
G1 X96.390 Y59.158 E135.34723
G1 X96.391 Y58.448 E135.38228
G1 X84.052 Y46.109 E136.24424
G1 X84.760 Y46.110 E136.27925
G1 X96.390 Y57.740 E137.09166
G1 X96.391 Y57.030 E137.12671
G1 X85.470 Y46.109 E137.88958
G1 X86.179 Y46.109 E137.92459
G1 X96.391 Y56.321 E138.63792
G1 X96.390 Y55.612 E138.67294
G1 X86.888 Y46.110 E139.33673
G1 X87.597 Y46.109 E139.37178
G1 X96.391 Y54.903 E139.98603
G1 X96.390 Y54.194 E140.02104
G1 X88.306 Y46.110 E140.58575
G1 X89.016 Y46.109 E140.62079
G1 X96.391 Y53.484 E141.13597
G1 X96.390 Y52.775 E141.17098
G1 X89.724 Y46.110 E141.63661
G1 X90.434 Y46.109 E141.67166
G1 X96.391 Y52.066 E142.08775
G1 X96.390 Y51.357 E142.12276
G1 X91.143 Y46.110 E142.48932
G1 X91.852 Y46.109 E142.52437
