; generated by Slic3r 0.9.2-dev on 2012-09-13 at 13:59:39

; layer_height = 0.3
; perimeters = 2
; solid_layers = 3
; fill_density = 0.25
; perimeter_speed = 30
; infill_speed = 48
; travel_speed = 250
; scale = 1
; nozzle_diameter = 0.5
; filament_diameter = 1.75
; extrusion_multiplier = 0.79
; single wall width = 0.50mm
; first layer single wall width = 0.50mm

M107
M190 S57 ; wait for bed temperature to be reached
M104 S200 ; set temperature
G28 X0 Y0
G1 X75 Y75 F12000
G28 Z0
G1 Z0.3 F200
G1 X15 Y20 F12000
M109 S200 ; wait for temperature to be reached
G90 ; use absolute coordinates
G21 ; set units to millimeters
G92 E0
M82 ; use absolute distances for extrusion
G1 Z0.300 F15000.000
G1 X43.410 Y47.740
G1 F3000.000 E1.60000
G1 X43.765 Y47.388
G1 X48.020 Y43.170 F720.000 E1.89517
G1 X49.190 Y42.170 E1.97100
G1 X50.000 Y41.570 E2.02066
G1 X51.300 Y40.770 E2.09586
G1 X52.200 Y40.310 E2.14566
G1 X53.610 Y39.720 E2.22096
G1 X54.630 Y39.390 E2.27378
G1 X56.120 Y39.040 E2.34918
G1 X57.060 Y38.890 E2.39608
G1 X59.150 Y38.740 E2.49931
G1 X115.260 Y38.760 E5.26366
G1 X115.780 Y38.820 E5.28945
G1 X116.300 Y38.930 E5.31563
G1 X116.800 Y39.070 E5.34121
G1 X117.290 Y39.260 E5.36710
G1 X117.760 Y39.480 E5.39267
G1 X118.430 Y39.890 E5.43137
G1 X118.640 Y40.040 E5.44408
G1 X119.050 Y40.370 E5.47001
G1 X119.610 Y40.930 E5.50903
G1 X119.940 Y41.340 E5.53496
G1 X120.090 Y41.550 E5.54767
G1 X120.500 Y42.220 E5.58637
G1 X120.720 Y42.690 E5.61194
G1 X120.910 Y43.180 E5.63783
G1 X121.110 Y43.940 E5.67655
G1 X121.160 Y44.200 E5.68959
G1 X121.220 Y44.720 E5.71538
G1 X121.220 Y105.260 E8.69798
G1 X121.160 Y105.780 E8.72377
G1 X121.050 Y106.300 E8.74995
G1 X120.910 Y106.800 E8.77553
G1 X120.720 Y107.290 E8.80143
G1 X120.500 Y107.760 E8.82699
G1 X120.090 Y108.430 E8.86569
G1 X119.940 Y108.640 E8.87841
G1 X119.610 Y109.050 E8.90433
G1 X119.050 Y109.610 E8.94335
G1 X118.640 Y109.940 E8.96928
G1 X118.430 Y110.090 E8.98200
G1 X117.760 Y110.500 E9.02069
G1 X117.290 Y110.720 E9.04626
G1 X116.800 Y110.910 E9.07215
G1 X116.040 Y111.110 E9.11087
G1 X115.780 Y111.160 E9.12391
G1 X115.260 Y111.220 E9.14970
G1 X114.740 Y111.240 E9.17534
G1 X58.650 Y111.220 E11.93870
G1 X57.110 Y111.100 E12.01480
G1 X56.120 Y110.950 E12.06413
G1 X54.630 Y110.600 E12.13954
G1 X53.610 Y110.270 E12.19236
G1 X52.200 Y109.680 E12.26766
G1 X51.300 Y109.220 E12.31745
G1 X50.000 Y108.420 E12.39266
G1 X49.190 Y107.820 E12.44232
G1 X47.640 Y106.480 E12.54326
G1 X33.510 Y92.350 E13.52775
G1 X32.170 Y90.800 E13.62869
G1 X31.570 Y89.990 E13.67835
G1 X30.770 Y88.690 E13.75355
G1 X30.310 Y87.790 E13.80335
G1 X29.720 Y86.380 E13.87865
G1 X29.390 Y85.360 E13.93147
G1 X29.040 Y83.870 E14.00687
G1 X28.890 Y82.930 E14.05377
G1 X28.740 Y80.840 E14.15700
G1 X28.760 Y68.600 E14.76003
G1 X28.890 Y67.060 E14.83617
G1 X29.040 Y66.120 E14.88306
G1 X29.390 Y64.630 E14.95847
G1 X29.720 Y63.610 E15.01128
G1 X30.310 Y62.200 E15.08659
G1 X30.770 Y61.300 E15.13638
G1 X31.570 Y60.000 E15.21158
G1 X32.170 Y59.190 E15.26125
G1 X33.510 Y57.650 E15.36182
G1 X43.322 Y47.828 E16.04577
G1 F3000.000 E14.44577
G92 E0
G1 X107.320 Y76.281 F15000.000
G1 F3000.000 E1.60000
G1 X107.392 Y76.384
G1 X107.392 Y76.384 F1800.000
G1 X107.657 Y76.649 E1.61849
G1 X107.965 Y76.865 E1.63698
G1 X108.305 Y77.023 E1.65548
G1 X108.668 Y77.121 E1.67397
G1 X109.041 Y77.153 E1.69246
G1 X109.415 Y77.120 E1.71095
G1 X109.778 Y77.023 E1.72944
G1 X110.118 Y76.865 E1.74793
G1 X110.425 Y76.649 E1.76642
G1 X110.691 Y76.384 E1.78491
G1 X110.906 Y76.077 E1.80341
G1 X111.065 Y75.736 E1.82190
G1 X111.162 Y75.374 E1.84039
G1 X111.195 Y75.000 E1.85888
G1 X111.162 Y74.626 E1.87737
G1 X111.065 Y74.264 E1.89586
G1 X110.906 Y73.923 E1.91435
G1 X110.691 Y73.616 E1.93284
G1 X110.425 Y73.351 E1.95133
G1 X110.118 Y73.135 E1.96983
G1 X109.778 Y72.977 E1.98832
G1 X109.415 Y72.880 E2.00681
G1 X109.041 Y72.847 E2.02530
G1 X108.668 Y72.879 E2.04379
G1 X108.305 Y72.977 E2.06228
G1 X107.965 Y73.135 E2.08077
G1 X107.657 Y73.351 E2.09927
G1 X107.392 Y73.616 E2.11776
G1 X107.177 Y73.923 E2.13625
G1 X107.018 Y74.264 E2.15474
G1 X106.921 Y74.626 E2.17323
G1 X106.888 Y75.000 E2.19172
G1 X107.018 Y75.737
G1 X107.595 Y75.791 F15000.000
G1 X107.611 Y75.826 F3000.000
G1 X107.776 Y76.061 F624.000 E2.20590
G1 X107.980 Y76.265 E2.22008
G1 X108.216 Y76.430 E2.23426
G1 X108.477 Y76.552 E2.24844
G1 X108.755 Y76.626 E2.26262
G1 X109.041 Y76.651 E2.27680
G1 X109.328 Y76.626 E2.29099
G1 X109.606 Y76.552 E2.30517
G1 X109.867 Y76.430 E2.31935
G1 X110.103 Y76.265 E2.33353
G1 X110.306 Y76.061 E2.34771
G1 X110.472 Y75.826 E2.36189
G1 X110.593 Y75.565 E2.37607
G1 X110.668 Y75.287 E2.39025
G1 X110.693 Y75.000 E2.40443
G1 X110.668 Y74.713 E2.41861
G1 X110.593 Y74.435 E2.43280
G1 X110.471 Y74.174 E2.44698
G1 X110.306 Y73.939 E2.46116
G1 X110.103 Y73.735 E2.47534
G1 X109.867 Y73.570 E2.48952
G1 X109.606 Y73.448 E2.50370
G1 X109.328 Y73.374 E2.51788
G1 X109.041 Y73.349 E2.53206
G1 X108.755 Y73.374 E2.54624
G1 X108.477 Y73.448 E2.56042
G1 X108.216 Y73.570 E2.57460
G1 X107.980 Y73.735 E2.58879
G1 X107.776 Y73.939 E2.60297
G1 X107.611 Y74.174 E2.61715
G1 X107.490 Y74.435 E2.63133
G1 X107.415 Y74.713 E2.64551
G1 X107.394 Y74.951 E2.65726
G1 X107.457 Y75.444
G1 X107.177 Y76.077 F3000.000 E1.05726
G92 E0
G1 X107.134 Y66.125 F15000.000
G1 F3000.000 E1.60000
G1 X107.391 Y66.383
G1 X107.391 Y66.383 F1800.000
G1 X107.658 Y66.649 E1.61856
G1 X107.965 Y66.865 E1.63706
G1 X108.347 Y67.042 E1.65779
G1 X108.347 Y67.214 E1.66622
G1 X109.040 Y67.153 E1.70052
G1 X109.928 Y67.230 E1.74436
G1 X109.928 Y66.983 E1.75657
G1 X110.356 Y66.868 E1.77839
G1 X110.356 Y66.718 E1.78577
G1 X110.691 Y66.384 E1.80907
G1 X110.906 Y66.076 E1.82756
G1 X111.084 Y65.695 E1.84830
G1 X111.255 Y65.695 E1.85673
G1 X111.194 Y65.000 E1.89111
G1 X111.162 Y64.626 E1.90958
G1 X111.068 Y64.277 E1.92740
G1 X111.151 Y64.077 E1.93808
G1 X110.691 Y63.617 E1.97011
G1 X110.425 Y63.351 E1.98863
G1 X110.117 Y63.135 E2.00719
G1 X109.779 Y62.977 E2.02554
G1 X109.415 Y62.880 E2.04410
G1 X109.041 Y62.847 E2.06259
G1 X108.668 Y62.880 E2.08108
G1 X108.280 Y62.984 E2.10086
G1 X107.965 Y63.136 E2.11807
G1 X107.658 Y63.351 E2.13656
G1 X106.972 Y64.036 E2.18430
G1 X106.899 Y64.881 E2.22609
G1 X106.987 Y65.620
G1 X107.576 Y65.748 F15000.000
G1 X107.612 Y65.826 F3000.000
G1 X107.612 Y65.826 F1560.000
G1 X107.684 Y65.929 E2.23231
G1 X107.777 Y66.061 E2.24014
G1 X107.980 Y66.265 E2.25432
G1 X108.216 Y66.430 E2.26850
G1 X108.477 Y66.551 E2.28268
G1 X108.755 Y66.626 E2.29685
G1 X108.847 Y66.634 E2.30139
G1 X109.041 Y66.651 E2.31101
G1 X109.428 Y66.685 E2.33015
G1 X109.428 Y66.599 E2.33438
G1 X109.606 Y66.552 E2.34341
G1 X109.856 Y66.484 E2.35620
G1 X110.103 Y66.265 E2.37102
G1 X110.306 Y66.061 E2.38519
G1 X110.471 Y65.826 E2.39937
G1 X110.593 Y65.565 E2.41355
G1 X110.667 Y65.287 E2.42773
G1 X110.675 Y65.195 E2.43227
G1 X110.692 Y65.000 E2.44190
G1 X110.667 Y64.713 E2.45608
G1 X110.593 Y64.435 E2.47026
G1 X110.523 Y64.286 E2.47839
G1 X110.561 Y64.194 E2.48329
G1 X110.306 Y63.939 E2.50105
G1 X110.138 Y63.771 E2.51277
G1 X109.866 Y63.569 E2.52702
G1 X109.608 Y63.449 E2.54105
G1 X109.328 Y63.374 E2.55531
G1 X109.041 Y63.349 E2.56948
G1 X108.755 Y63.374 E2.58366
G1 X108.464 Y63.452 E2.59850
G1 X108.216 Y63.570 E2.61203
G1 X107.980 Y63.735 E2.62621
G1 X107.705 Y64.011 E2.64541
G1 X107.612 Y64.175 E2.65449
G1 X107.490 Y64.435 E2.66866
G1 X107.416 Y64.713 E2.68285
G1 X107.406 Y64.816 E2.68794
G1 X107.399 Y64.903 E2.69225
G1 X107.445 Y65.398
G1 X106.957 Y65.949 F3000.000 E1.09225
G92 E0
G1 X61.571 Y55.041 F15000.000
G1 F3000.000 E1.60000
G1 X61.729 Y55.151
G1 X61.729 Y55.151 F1800.000
G1 X62.131 Y55.339 E1.62183
G1 X62.559 Y55.453 E1.64366
G1 X62.961 Y55.489 E1.66357
G1 X65.039 Y55.489 E1.76593
G1 X65.441 Y55.453 E1.78584
G1 X65.869 Y55.339 E1.80767
G1 X66.271 Y55.151 E1.82950
G1 X66.634 Y54.897 E1.85133
G1 X66.947 Y54.584 E1.87316
G1 X67.201 Y54.221 E1.89499
G1 X67.389 Y53.819 E1.91682
G1 X67.503 Y53.391 E1.93865
G1 X67.542 Y52.950 E1.96048
G1 X67.503 Y52.509 E1.98231
G1 X67.389 Y52.081 E2.00414
G1 X67.201 Y51.679 E2.02597
G1 X66.947 Y51.316 E2.04780
G1 X66.634 Y51.003 E2.06963
G1 X66.271 Y50.749 E2.09146
G1 X65.869 Y50.561 E2.11329
G1 X65.441 Y50.447 E2.13512
G1 X65.039 Y50.411 E2.15504
G1 X62.961 Y50.411 E2.25739
G1 X62.559 Y50.447 E2.27730
G1 X62.131 Y50.561 E2.29913
G1 X61.729 Y50.749 E2.32096
G1 X61.366 Y51.003 E2.34279
G1 X61.053 Y51.316 E2.36462
G1 X60.799 Y51.679 E2.38645
G1 X60.611 Y52.081 E2.40828
G1 X60.497 Y52.509 E2.43011
G1 X60.458 Y52.950 E2.45194
G1 X60.497 Y53.391 E2.47378
G1 X60.611 Y53.819 E2.49560
G1 X60.698 Y54.005 E2.50567
G1 X61.101 Y54.632
G1 X61.614 Y54.438 F15000.000
G1 X61.689 Y54.513 F3000.000
G1 X61.689 Y54.513 F1560.000
G1 X61.980 Y54.717 E2.52319
G1 X62.302 Y54.867 E2.54071
G1 X62.646 Y54.959 E2.55823
G1 X62.983 Y54.989 E2.57491
G1 X65.017 Y54.989 E2.67512
G1 X65.354 Y54.959 E2.69180
G1 X65.698 Y54.867 E2.70932
G1 X66.020 Y54.717 E2.72684
G1 X66.311 Y54.513 E2.74436
G1 X66.563 Y54.261 E2.76188
G1 X66.767 Y53.970 E2.77940
G1 X66.917 Y53.648 E2.79692
G1 X67.009 Y53.304 E2.81444
G1 X67.040 Y52.950 E2.83196
G1 X67.009 Y52.596 E2.84948
G1 X66.917 Y52.252 E2.86700
G1 X66.767 Y51.930 E2.88452
G1 X66.563 Y51.639 E2.90204
G1 X66.311 Y51.387 E2.91956
G1 X66.020 Y51.183 E2.93708
G1 X65.698 Y51.033 E2.95460
G1 X65.354 Y50.941 E2.97212
G1 X65.017 Y50.911 E2.98880
G1 X62.983 Y50.911 E3.08900
G1 X62.646 Y50.941 E3.10568
G1 X62.302 Y51.033 E3.12320
G1 X61.980 Y51.183 E3.14072
G1 X61.689 Y51.387 E3.15824
G1 X61.437 Y51.639 E3.17576
G1 X61.233 Y51.930 E3.19328
G1 X61.083 Y52.252 E3.21080
G1 X60.991 Y52.596 E3.22832
G1 X60.960 Y52.950 E3.24584
G1 X60.991 Y53.304 E3.26336
G1 X61.083 Y53.648 E3.28088
G1 X61.119 Y53.726 E3.28513
G1 X61.365 Y54.159
G1 X61.366 Y54.897 F3000.000 E1.68513
G92 E0
G1 X39.521 Y77.091 F15000.000
G1 F3000.000 E1.60000
G1 X39.679 Y77.201
G1 X39.679 Y77.201 F1800.000
G1 X40.081 Y77.389 E1.62183
G1 X40.509 Y77.503 E1.64366
G1 X40.911 Y77.539 E1.66357
G1 X42.989 Y77.539 E1.76593
G1 X43.392 Y77.503 E1.78587
G1 X43.392 Y77.588 E1.79002
G1 X43.819 Y77.389 E1.81321
G1 X44.221 Y77.201 E1.83504
G1 X44.584 Y76.947 E1.85686
G1 X44.897 Y76.634 E1.87869
G1 X45.151 Y76.271 E1.90053
G1 X45.339 Y75.869 E1.92236
G1 X45.453 Y75.441 E1.94419
G1 X45.492 Y75.000 E1.96602
G1 X45.453 Y74.559 E1.98785
G1 X45.339 Y74.131 E2.00968
G1 X45.151 Y73.729 E2.03151
G1 X44.897 Y73.366 E2.05334
G1 X44.584 Y73.053 E2.07517
G1 X44.221 Y72.799 E2.09700
G1 X43.819 Y72.611 E2.11883
G1 X43.391 Y72.497 E2.14066
G1 X42.989 Y72.461 E2.16057
G1 X40.911 Y72.461 E2.26293
G1 X40.509 Y72.497 E2.28284
G1 X40.081 Y72.611 E2.30467
G1 X39.679 Y72.799 E2.32650
G1 X39.316 Y73.053 E2.34833
G1 X39.003 Y73.366 E2.37016
G1 X38.749 Y73.729 E2.39199
G1 X38.561 Y74.131 E2.41382
G1 X38.447 Y74.559 E2.43565
G1 X38.408 Y75.000 E2.45748
G1 X38.447 Y75.441 E2.47931
G1 X38.561 Y75.869 E2.50114
G1 X38.648 Y76.055 E2.51121
G1 X39.051 Y76.682
G1 X39.564 Y76.488 F15000.000
G1 X39.639 Y76.563 F3000.000
G1 X39.639 Y76.563 F1560.000
G1 X39.930 Y76.767 E2.52873
G1 X40.252 Y76.917 E2.54625
G1 X40.596 Y77.009 E2.56377
G1 X40.933 Y77.039 E2.58045
G1 X42.967 Y77.039 E2.68065
G1 X43.304 Y77.009 E2.69733
G1 X43.648 Y76.917 E2.71485
G1 X43.892 Y76.803 E2.72813
G1 X43.970 Y76.767 E2.73237
G1 X44.261 Y76.563 E2.74989
G1 X44.513 Y76.311 E2.76741
G1 X44.717 Y76.020 E2.78493
G1 X44.867 Y75.698 E2.80245
G1 X44.959 Y75.354 E2.81997
G1 X44.990 Y75.000 E2.83749
G1 X44.959 Y74.646 E2.85501
G1 X44.867 Y74.302 E2.87253
G1 X44.717 Y73.980 E2.89005
G1 X44.513 Y73.689 E2.90757
G1 X44.261 Y73.437 E2.92509
G1 X43.970 Y73.233 E2.94261
G1 X43.648 Y73.083 E2.96013
G1 X43.304 Y72.991 E2.97765
G1 X42.967 Y72.961 E2.99433
G1 X40.933 Y72.961 E3.09454
G1 X40.596 Y72.991 E3.11122
G1 X40.252 Y73.083 E3.12874
G1 X39.930 Y73.233 E3.14626
G1 X39.639 Y73.437 E3.16378
G1 X39.387 Y73.689 E3.18130
G1 X39.183 Y73.980 E3.19882
G1 X39.033 Y74.302 E3.21634
G1 X38.941 Y74.646 E3.23386
G1 X38.910 Y75.000 E3.25138
G1 X38.941 Y75.354 E3.26890
G1 X39.033 Y75.698 E3.28642
G1 X39.069 Y75.776 E3.29067
G1 X39.315 Y76.209
G1 X39.316 Y76.947 F3000.000 E1.69067
G92 E0
G1 X53.309 Y83.456 F15000.000
G1 F3000.000 E1.60000
G1 X53.663 Y83.810
G1 X54.720 Y84.867 F720.000 E1.67366
G1 X56.560 Y86.155 E1.78428
G1 X58.595 Y87.104 E1.89490
G1 X60.755 Y87.683 E2.00512
G1 X61.775 Y87.956 E2.05711
G1 X61.775 Y87.774 E2.06610
G1 X62.331 Y87.822 E2.09362
G1 X62.962 Y87.877 E2.12480
G1 X65.038 Y87.877 E2.22711
G1 X67.237 Y87.685 E2.33583
G1 X69.375 Y87.112 E2.44491
G1 X69.963 Y86.955 E2.47486
G1 X69.963 Y86.844 E2.48031
G1 X71.440 Y86.155 E2.56063
G1 X73.280 Y84.867 E2.67125
G1 X74.867 Y83.280 E2.78187
G1 X76.155 Y81.441 E2.89247
G1 X77.104 Y79.406 E3.00307
G1 X77.712 Y77.137 E3.11878
G1 X77.956 Y76.225 E3.16531
G1 X77.774 Y76.225 E3.17430
G1 X77.881 Y75.000 E3.23490
G1 X77.685 Y72.763 E3.34551
G1 X77.104 Y70.594 E3.45615
G1 X76.955 Y70.037 E3.48455
G1 X76.844 Y70.037 E3.48999
G1 X76.155 Y68.560 E3.57032
G1 X74.867 Y66.720 E3.68093
G1 X73.280 Y65.133 E3.79155
G1 X71.447 Y63.849 E3.90178
G1 X69.470 Y62.924 E4.00929
G1 X69.376 Y62.888 E4.01426
G1 X67.849 Y62.479 E4.09216
G1 X66.938 Y62.235 E4.13864
G1 X66.938 Y62.289 E4.14130
G1 X65.038 Y62.123 E4.23523
G1 X62.962 Y62.123 E4.33754
G1 X61.062 Y62.289 E4.43147
G1 X61.062 Y62.235 E4.43413
G1 X59.973 Y62.527 E4.48971
G1 X58.595 Y62.896 E4.56000
G1 X56.560 Y63.845 E4.67062
G1 X55.770 Y64.398 E4.71811
G1 X54.720 Y65.133 E4.78123
G1 X53.133 Y66.720 E4.89185
G1 X51.845 Y68.560 E5.00247
G1 X50.896 Y70.594 E5.11308
G1 X50.288 Y72.862 E5.22876
G1 X50.044 Y73.775 E5.27529
G1 X50.226 Y73.775 E5.28428
G1 X50.119 Y75.000 E5.34488
G1 X50.315 Y77.237 E5.45550
G1 X50.895 Y79.402 E5.56594
G1 X50.946 Y79.592 E5.57563
G1 X51.845 Y81.440 E5.67611
G1 X52.487 Y82.358 E5.73130
G1 X52.918 Y82.972
G1 X53.694 Y83.134 F15000.000
G1 X54.048 Y83.487 F3000.000
G1 X55.043 Y84.483 F576.000 E5.80065
G1 X56.811 Y85.720 E5.90696
G1 X58.766 Y86.632 E6.01327
G1 X60.850 Y87.191 E6.11953
G1 X61.275 Y87.305 E6.14121
G1 X61.275 Y87.228 E6.14499
G1 X62.831 Y87.364 E6.22196
G1 X62.984 Y87.377 E6.22949
G1 X65.016 Y87.377 E6.32965
G1 X67.150 Y87.191 E6.43514
G1 X69.221 Y86.636 E6.54080
G1 X69.463 Y86.571 E6.55312
G1 X71.189 Y85.720 E6.64698
G1 X72.957 Y84.483 E6.75329
G1 X74.374 Y83.066 E6.85203
G1 X74.483 Y82.957 E6.85960
G1 X75.194 Y81.942 E6.92066
G1 X75.720 Y81.190 E6.96590
G1 X76.632 Y79.234 E7.07218
G1 X77.191 Y77.150 E7.17850
G1 X77.305 Y76.725 E7.20016
G1 X77.228 Y76.725 E7.20393
G1 X77.253 Y76.440 E7.21802
G1 X77.379 Y75.000 E7.28925
G1 X77.191 Y72.850 E7.39556
G1 X76.644 Y70.811 E7.49959
G1 X76.571 Y70.537 E7.51121
G1 X75.720 Y68.811 E7.60507
G1 X74.483 Y67.043 E7.71138
G1 X72.957 Y65.517 E7.81769
G1 X71.192 Y64.281 E7.92383
G1 X69.275 Y63.385 E8.02811
G1 X69.221 Y63.364 E8.03094
G1 X67.677 Y62.951 E8.10967
G1 X67.438 Y62.886 E8.12191
G1 X67.150 Y62.809 E8.13660
G1 X65.016 Y62.623 E8.24209
G1 X62.984 Y62.623 E8.34225
G1 X60.850 Y62.809 E8.44774
G1 X60.562 Y62.886 E8.46243
G1 X60.164 Y62.993 E8.48277
G1 X58.766 Y63.368 E8.55405
G1 X56.811 Y64.280 E8.66035
G1 X55.043 Y65.517 E8.76666
G1 X53.517 Y67.043 E8.87297
G1 X52.310 Y68.767 E8.97668
G1 X52.280 Y68.811 E8.97927
G1 X51.368 Y70.766 E9.08558
G1 X50.809 Y72.850 E9.19186
G1 X50.695 Y73.275 E9.21353
G1 X50.772 Y73.275 E9.21730
G1 X50.621 Y75.000 E9.30262
G1 X50.809 Y77.150 E9.40893
G1 X51.330 Y79.092 E9.50801
G1 X51.368 Y79.234 E9.51524
G1 X52.280 Y81.189 E9.62154
G1 X53.159 Y82.445 E9.69706
G1 X53.446 Y82.855
G1 X53.133 Y83.280 F3000.000 E8.09706
G92 E0
G1 X60.942 Y98.526 F15000.000
G1 F3000.000 E1.60000
G1 X61.053 Y98.684
G1 X61.053 Y98.684 F1800.000
G1 X61.366 Y98.997 E1.62183
G1 X61.729 Y99.251 E1.64366
G1 X62.131 Y99.439 E1.66549
G1 X62.559 Y99.553 E1.68732
G1 X62.961 Y99.589 E1.70723
G1 X65.039 Y99.589 E1.80959
G1 X65.441 Y99.553 E1.82950
G1 X65.869 Y99.439 E1.85133
G1 X66.271 Y99.251 E1.87316
G1 X66.634 Y98.997 E1.89499
G1 X66.947 Y98.684 E1.91682
G1 X67.201 Y98.321 E1.93865
G1 X67.389 Y97.919 E1.96048
G1 X67.503 Y97.491 E1.98231
G1 X67.542 Y97.050 E2.00414
G1 X67.503 Y96.609 E2.02597
