; generated by Slic3r 0.9.2-dev on 2012-09-07 at 13:26:12

; layer_height = 0.3
; perimeters = 2
; solid_layers = 3
; fill_density = 0.25
; perimeter_speed = 30
; infill_speed = 48
; travel_speed = 250
; scale = 1
; nozzle_diameter = 0.5
; filament_diameter = 1.75
; extrusion_multiplier = 0.79
; single wall width = 0.50mm
; first layer single wall width = 0.50mm

M107
M190 S57 ; wait for bed temperature to be reached
M104 S200 ; set temperature
G28 X0 Y0
G1 X75 Y75 F12000
G28 Z0
G1 Z0.3 F200
G1 X15 Y20 F12000
M109 S200 ; wait for temperature to be reached
G90 ; use absolute coordinates
G21 ; set units to millimeters
G92 E0
M82 ; use absolute distances for extrusion
G1 Z0.300 F15000.000
G1 X50.210 Y38.130
G1 F3000.000 E1.60000
G1 X50.370 Y37.930
G1 X50.370 Y37.930 F1800.000
G1 X50.930 Y37.370 E1.63902
G1 X51.340 Y37.040 E1.66495
G1 X51.550 Y36.890 E1.67766
G1 X52.220 Y36.480 E1.71636
G1 X52.690 Y36.260 E1.74193
G1 X53.180 Y36.070 E1.76782
G1 X53.940 Y35.870 E1.80654
G1 X54.200 Y35.820 E1.81958
G1 X54.720 Y35.760 E1.84537
G1 X55.240 Y35.740 E1.87101
G1 X95.260 Y35.760 E3.84265
G1 X95.780 Y35.820 E3.86844
G1 X96.300 Y35.930 E3.89463
G1 X96.800 Y36.070 E3.92021
G1 X97.290 Y36.260 E3.94610
G1 X97.760 Y36.480 E3.97167
G1 X98.430 Y36.890 E4.01037
G1 X98.640 Y37.040 E4.02308
G1 X99.050 Y37.370 E4.04901
G1 X99.610 Y37.930 E4.08803
G1 X99.940 Y38.340 E4.11396
G1 X100.090 Y38.550 E4.12667
G1 X100.500 Y39.220 E4.16537
G1 X100.720 Y39.690 E4.19093
G1 X100.910 Y40.180 E4.21683
G1 X101.110 Y40.940 E4.25554
G1 X101.160 Y41.200 E4.26859
G1 X101.220 Y41.720 E4.29438
G1 X101.220 Y106.450 E7.48340
G1 X101.090 Y107.290 E7.52528
G1 X100.940 Y107.840 E7.55337
G1 X100.750 Y108.370 E7.58110
G1 X100.640 Y108.630 E7.59501
G1 X100.230 Y109.370 E7.63669
G1 X99.910 Y109.840 E7.66470
G1 X99.350 Y110.470 E7.70623
G1 X97.300 Y112.520 E7.84906
G1 X96.890 Y112.870 E7.87562
G1 X96.680 Y113.030 E7.88863
G1 X96.230 Y113.330 E7.91527
G1 X95.750 Y113.590 E7.94217
G1 X95.010 Y113.900 E7.98169
G1 X94.490 Y114.050 E8.00836
G1 X93.700 Y114.200 E8.04797
G1 X93.430 Y114.230 E8.06136
G1 X92.890 Y114.250 E8.08798
G1 X56.560 Y114.230 E9.87783
G1 X56.030 Y114.160 E9.90417
G1 X55.500 Y114.050 E9.93084
G1 X54.990 Y113.900 E9.95703
G1 X54.740 Y113.810 E9.97012
G1 X54.010 Y113.470 E10.00979
G1 X53.540 Y113.190 E10.03675
G1 X53.320 Y113.040 E10.04987
G1 X52.900 Y112.710 E10.07618
G1 X52.500 Y112.350 E10.10269
G1 X50.640 Y110.490 E10.23229
G1 X50.110 Y109.880 E10.27210
G1 X49.950 Y109.670 E10.28510
G1 X49.520 Y108.980 E10.32516
G1 X49.180 Y108.250 E10.36483
G1 X48.940 Y107.490 E10.40410
G1 X48.830 Y106.960 E10.43077
G1 X48.760 Y106.430 E10.45710
G1 X48.760 Y41.720 E13.64514
G1 X48.820 Y41.200 E13.67093
G1 X48.930 Y40.680 E13.69712
G1 X49.070 Y40.180 E13.72270
G1 X49.260 Y39.690 E13.74859
G1 X49.480 Y39.220 E13.77416
G1 X49.890 Y38.550 E13.81286
G1 X50.040 Y38.340 E13.82557
G1 X50.131 Y38.227 E13.83272
G1 F3000.000 E12.23272
G92 E0
G1 X91.064 Y102.410 F15000.000
G1 F3000.000 E1.60000
G1 X91.043 Y102.428
G1 X90.872 Y102.585 F624.000 E1.60580
G1 X90.778 Y102.689 E1.61271
G1 X90.673 Y102.829 E1.62133
G1 X90.610 Y102.923 E1.62691
G1 X90.526 Y103.076 E1.63265
G1 X90.477 Y103.177 E1.63529
G1 X90.395 Y103.398 E1.64389
G1 X90.348 Y103.575 E1.65296
G1 X90.373 Y104.522 E1.65584
G1 X90.395 Y104.600 E1.65983
G1 X90.453 Y104.765 E1.66843
G1 X90.500 Y104.870 E1.67108
G1 X90.580 Y105.025 E1.67682
G1 X90.734 Y105.253 E1.68749
G1 X90.778 Y105.309 E1.69102
G1 X90.956 Y105.496 E1.70372
G1 X91.052 Y105.577 E1.70670
G1 X91.149 Y105.654 E1.71106
G1 X91.267 Y105.734 E1.71811
G1 X91.440 Y105.831 E1.72532
G1 X91.678 Y105.931 E1.73756
G1 X91.821 Y105.974 E1.74308
G1 X91.959 Y106.006 E1.74722
G1 X92.128 Y106.032 E1.75285
G1 X92.270 Y106.042 E1.75986
G1 X92.442 Y106.042 E1.76834
G1 X92.527 Y106.036 E1.77253
G1 X92.697 Y106.014 E1.77817
G1 X92.835 Y105.984 E1.78514
G1 X92.949 Y105.954 E1.78808
G1 X93.068 Y105.918 E1.79315
G1 X93.267 Y105.826 E1.80393
G1 X93.431 Y105.750 E1.81284
G1 X93.623 Y105.598 E1.82442
G1 X93.718 Y105.517 E1.83056
G1 X93.860 Y105.377 E1.83814
G1 X94.020 Y105.178 E1.85071
G1 X94.162 Y104.942 E1.86388
G1 X94.278 Y104.673 E1.87769
G1 X94.299 Y104.614 E1.88076
G1 X94.336 Y104.479 E1.88765
G1 X94.360 Y104.365 E1.89344
G1 X94.384 Y104.196 E1.90182
G1 X94.392 Y104.083 E1.90740
G1 X94.392 Y103.915 E1.91569
G1 X94.384 Y103.802 E1.92126
G1 X94.360 Y103.634 E1.92964
G1 X94.336 Y103.519 E1.93543
G1 X94.299 Y103.384 E1.94233
G1 X94.278 Y103.325 E1.94540
G1 X94.192 Y103.114 E1.95228
G1 X94.074 Y102.902 E1.96428
G1 X93.970 Y102.753 E1.97319
G1 X93.671 Y102.388 E1.99644
G1 X93.560 Y102.353 E2.00159
G1 X93.419 Y102.256 E2.00984
G1 X93.244 Y102.160 E2.01966
G1 X93.071 Y102.082 E2.02855
G1 X92.667 Y101.896 E2.05047
G1 X92.136 Y101.966 E2.07685
G1 X92.015 Y101.982 E2.08249
G1 X91.877 Y102.010 E2.08663
G1 X91.375 Y102.202
G1 X91.578 Y101.594 F3000.000 E0.48663
G92 E0
G1 X92.772 Y76.025 F15000.000
G1 F3000.000 E1.60000
G1 X93.005 Y75.936
G1 X93.005 Y75.936 F1560.000
G1 X93.068 Y75.918 E1.60323
G1 X93.264 Y75.827 E1.61388
G1 X93.431 Y75.750 E1.62292
G1 X93.623 Y75.598 E1.63450
G1 X93.718 Y75.517 E1.64065
G1 X93.860 Y75.376 E1.64823
G1 X93.999 Y75.205 E1.65909
G1 X94.096 Y75.060 E1.66767
G1 X94.192 Y74.884 E1.67757
G1 X94.215 Y74.835 E1.68021
G1 X94.266 Y74.713 E1.68673
G1 X94.299 Y74.614 E1.68980
G1 X94.336 Y74.479 E1.69670
G1 X94.360 Y74.365 E1.70248
G1 X94.384 Y74.196 E1.71086
G1 X94.392 Y74.083 E1.71644
G1 X94.392 Y73.915 E1.72473
G1 X94.384 Y73.802 E1.73030
G1 X94.336 Y73.519 E1.74270
G1 X94.299 Y73.384 E1.74960
G1 X94.278 Y73.325 E1.75267
G1 X94.192 Y73.114 E1.75955
G1 X94.073 Y72.902 E1.77154
G1 X93.970 Y72.753 E1.78046
G1 X93.653 Y72.367 E1.80509
G1 X93.419 Y72.256 E1.81727
G1 X93.266 Y72.172 E1.82588
G1 X93.203 Y72.143 E1.82929
G1 X93.135 Y72.111 E1.83299
G1 X92.667 Y71.896 E1.85834
G1 X92.174 Y71.961 E1.88283
G1 X92.174 Y71.878 E1.88693
G1 X91.990 Y71.948 E1.89664
G1 X91.990 Y71.873 E1.90031
G1 X91.420 Y72.180 E1.93220
G1 X91.333 Y72.220 E1.93692
G1 X91.267 Y72.264 E1.94061
G1 X91.078 Y72.398 E1.95202
G1 X90.872 Y72.585 E1.95782
G1 X90.778 Y72.689 E1.96472
G1 X90.673 Y72.829 E1.97335
G1 X90.610 Y72.923 E1.97892
G1 X90.526 Y73.076 E1.98467
G1 X90.477 Y73.177 E1.98730
G1 X90.395 Y73.398 E1.99591
G1 X90.348 Y73.576 E2.00497
G1 X90.373 Y74.522 E2.00785
G1 X90.395 Y74.600 E2.01185
G1 X90.436 Y74.732 E2.01865
G1 X90.500 Y74.870 E2.02612
G1 X90.580 Y75.025 E2.03186
G1 X90.734 Y75.253 E2.04254
G1 X90.784 Y75.316 E2.04653
G1 X90.872 Y75.413 E2.05117
G1 X90.909 Y75.450 E2.05373
G1 X91.052 Y75.577 E2.05670
G1 X91.149 Y75.653 E2.06106
G1 X91.267 Y75.734 E2.06812
G1 X91.332 Y75.769 E2.07174
G1 X91.546 Y75.879 E2.08307
G1 X91.681 Y75.932 E2.08717
G1 X91.821 Y75.974 E2.09269
G1 X91.959 Y76.006 E2.09683
G1 X92.487 Y76.042
G1 X91.621 Y75.672 F3000.000 E0.49683
G92 E0
G1 X92.871 Y47.009 F15000.000
G1 F3000.000 E1.60000
G1 X93.068 Y46.918
G1 X93.068 Y46.918 F1560.000
G1 X93.266 Y46.826 E1.61074
G1 X93.419 Y46.742 E1.61935
G1 X93.623 Y46.598 E1.63164
G1 X93.718 Y46.517 E1.63778
G1 X93.860 Y46.376 E1.64536
G1 X93.999 Y46.206 E1.65623
G1 X94.306 Y45.746 E1.68342
G1 X94.384 Y45.196 E1.71080
G1 X94.392 Y45.083 E1.71637
G1 X94.392 Y44.915 E1.72466
G1 X94.384 Y44.802 E1.73024
G1 X94.357 Y44.605 E1.74002
G1 X94.326 Y44.391 E1.75069
G1 X94.266 Y44.285 E1.75470
G1 X94.192 Y44.114 E1.76159
G1 X94.074 Y43.902 E1.77358
G1 X93.970 Y43.753 E1.78249
G1 X93.860 Y43.622 E1.79094
G1 X93.761 Y43.515 E1.79813
G1 X93.681 Y43.448 E1.80291
G1 X93.513 Y43.319 E1.81335
G1 X93.419 Y43.256 E1.81893
G1 X93.352 Y43.220 E1.82265
G1 X92.998 Y43.061 E1.84132
G1 X92.891 Y43.028 E1.84427
G1 X92.697 Y42.984 E1.85129
G1 X92.584 Y42.968 E1.85693
G1 X92.442 Y42.956 E1.86112
G1 X92.270 Y42.956 E1.86960
G1 X92.128 Y42.966 E1.87453
G1 X92.015 Y42.982 E1.88017
G1 X91.877 Y43.010 E1.88431
G1 X91.738 Y43.048 E1.88856
G1 X91.603 Y43.095 E1.89266
G1 X91.460 Y43.151 E1.89947
G1 X91.311 Y43.238 E1.90793
G1 X91.078 Y43.398 E1.91934
G1 X90.872 Y43.585 E1.92514
G1 X90.778 Y43.689 E1.93204
G1 X90.735 Y43.744 E1.93549
G1 X90.610 Y43.923 E1.94397
G1 X90.526 Y44.076 E1.94971
G1 X90.477 Y44.177 E1.95235
G1 X90.395 Y44.398 E1.96096
G1 X90.240 Y44.939 E1.98869
G1 X90.299 Y44.939 E1.99159
G1 X90.306 Y45.042 E1.99668
G1 X90.353 Y45.487 E2.00512
G1 X90.453 Y45.765 E2.01970
G1 X90.500 Y45.870 E2.02233
G1 X90.565 Y46.007 E2.02696
G1 X90.734 Y46.253 E2.04165
G1 X90.778 Y46.309 E2.04518
G1 X90.956 Y46.496 E2.05788
G1 X91.052 Y46.577 E2.06086
G1 X91.149 Y46.653 E2.06522
G1 X91.267 Y46.734 E2.07228
G1 X91.394 Y46.806 E2.07694
G1 X91.480 Y46.849 E2.08028
G1 X91.603 Y46.903 E2.08688
G1 X91.681 Y46.932 E2.09097
G1 X92.067 Y47.068 E2.11038
G1 X92.604 Y47.031
G1 X91.610 Y46.998 F3000.000 E0.51038
G92 E0
G1 X59.691 Y44.898 F15000.000
G1 F3000.000 E1.60000
G1 X59.689 Y44.872
G1 X59.684 Y44.802 F624.000 E1.60348
G1 X59.656 Y44.606 E1.61119
G1 X59.578 Y44.249 E1.62916
G1 X59.515 Y44.163 E1.63371
G1 X59.492 Y44.114 E1.63635
G1 X59.406 Y43.952 E1.64540
G1 X59.333 Y43.841 E1.65189
G1 X59.277 Y43.762 E1.65668
G1 X59.160 Y43.622 E1.66330
G1 X59.052 Y43.512 E1.67088
G1 X58.813 Y43.319 E1.68178
G1 X58.758 Y43.282 E1.68502
G1 X58.706 Y43.237 E1.68785
G1 X58.652 Y43.212 E1.69077
G1 X58.544 Y43.150 E1.69642
G1 X58.299 Y43.061 E1.70900
G1 X58.191 Y43.028 E1.71195
G1 X57.997 Y42.984 E1.71891
G1 X57.618 Y42.903 E1.73796
G1 X57.428 Y42.966 E1.74735
G1 X57.315 Y42.982 E1.75299
G1 X57.176 Y43.010 E1.75716
G1 X57.038 Y43.048 E1.76141
G1 X56.903 Y43.095 E1.76550
G1 X56.741 Y43.169 E1.77127
G1 X56.611 Y43.238 E1.77594
G1 X56.503 Y43.297 E1.78191
G1 X56.449 Y43.345 E1.78514
G1 X56.307 Y43.458 E1.79408
G1 X56.256 Y43.502 E1.79740
G1 X56.130 Y43.632 E1.80634
G1 X56.078 Y43.689 E1.81011
G1 X55.973 Y43.829 E1.81874
G1 X55.910 Y43.923 E1.82431
G1 X55.807 Y44.083 E1.83223
G1 X55.753 Y44.233 E1.84007
G1 X55.695 Y44.398 E1.84867
G1 X55.648 Y44.575 E1.85774
G1 X55.602 Y44.999 E1.86268
G1 X55.608 Y45.099 E1.86762
G1 X55.660 Y45.502 E1.87127
G1 X55.753 Y45.765 E1.88504
G1 X55.800 Y45.870 E1.88768
G1 X55.880 Y46.025 E1.89342
G1 X56.034 Y46.253 E1.90409
G1 X56.078 Y46.309 E1.90762
G1 X56.256 Y46.496 E1.92032
G1 X56.449 Y46.653 E1.93258
G1 X56.567 Y46.734 E1.93964
G1 X56.694 Y46.806 E1.94430
G1 X56.780 Y46.849 E1.94764
G1 X57.189 Y47.069 E1.97018
G1 X57.189 Y46.989 E1.97412
G1 X57.315 Y47.016 E1.98047
G1 X57.428 Y47.032 E1.98610
G1 X57.528 Y47.039 E1.99104
G1 X57.742 Y47.042 E1.99952
G1 X57.827 Y47.036 E2.00371
G1 X57.997 Y47.014 E2.00934
G1 X58.135 Y46.984 E2.01631
G1 X58.249 Y46.954 E2.01926
G1 X58.566 Y46.826 E2.03236
G1 X58.719 Y46.742 E2.04098
G1 X58.897 Y46.618 E2.05165
G1 X58.988 Y46.544 E2.05745
G1 X59.160 Y46.376 E2.06503
G1 X59.277 Y46.236 E2.07401
G1 X59.404 Y46.050 E2.08329
G1 X59.515 Y45.836 E2.09462
G1 X59.566 Y45.713 E2.10113
G1 X59.585 Y45.647 E2.10452
G1 X59.719 Y45.193
G1 X59.194 Y45.336 F3000.000 E0.50452
G92 E0
G1 X57.669 Y71.952 F15000.000
G1 F3000.000 E1.60000
G1 X57.366 Y71.932
G1 X57.366 Y71.932 F1560.000
G1 X57.060 Y72.041 E1.61596
G1 X56.973 Y71.994 E1.62084
G1 X56.566 Y72.265 E1.64495
G1 X56.409 Y72.374 E1.65435
G1 X56.307 Y72.449 E1.66010
G1 X56.001 Y72.708 E1.67959
G1 X55.722 Y73.086 E1.70248
G1 X55.769 Y73.190 E1.70814
G1 X55.461 Y74.001 E1.75086
G1 X55.754 Y74.765 E1.79117
G1 X55.803 Y74.901 E1.79798
G1 X55.880 Y75.025 E1.80486
G1 X56.034 Y75.252 E1.81553
G1 X56.084 Y75.316 E1.81952
G1 X56.155 Y75.393 E1.82289
G1 X56.202 Y75.443 E1.82626
G1 X56.449 Y75.653 E1.83898
G1 X56.567 Y75.734 E1.84604
G1 X56.694 Y75.806 E1.85070
G1 X56.780 Y75.849 E1.85403
G1 X56.903 Y75.902 E1.86063
G1 X56.981 Y75.931 E1.86473
G1 X57.121 Y75.974 E1.87025
G1 X57.428 Y76.031 E1.87588
G1 X57.570 Y76.041 E1.88288
G1 X57.838 Y76.041 E1.89609
G1 X57.838 Y76.115 E1.89971
G1 X58.226 Y75.966 E1.92020
G1 X58.313 Y76.012 E1.92505
G1 X58.719 Y75.741 E1.94911
G1 X58.896 Y75.617 E1.95975
G1 X58.988 Y75.544 E1.96555
G1 X59.160 Y75.376 E1.97313
G1 X59.277 Y75.236 E1.98211
G1 X59.404 Y75.050 E1.99139
G1 X59.526 Y74.806 E2.00427
G1 X59.660 Y74.364 E2.02659
G1 X59.683 Y74.196 E2.03496
G1 X59.691 Y74.083 E2.04054
G1 X59.691 Y73.915 E2.04883
G1 X59.683 Y73.802 E2.05441
G1 X59.660 Y73.634 E2.06278
G1 X59.636 Y73.519 E2.06857
G1 X59.599 Y73.384 E2.07546
G1 X59.577 Y73.325 E2.07853
G1 X59.492 Y73.114 E2.08542
G1 X59.373 Y72.902 E2.09741
G1 X59.277 Y72.762 E2.10579
G1 X59.160 Y72.622 E2.11245
G1 X59.052 Y72.512 E2.12002
G1 X58.813 Y72.319 E2.13092
G1 X58.718 Y72.256 E2.13652
G1 X58.423 Y72.104 E2.15201
G1 X57.955 Y71.929
G1 X58.367 Y71.607 F3000.000 E0.55201
G92 E0
G1 X57.808 Y101.961 F15000.000
G1 F3000.000 E1.60000
G1 X57.742 Y101.956
G1 X57.742 Y101.956 F1560.000
G1 X57.570 Y101.956 E1.60847
G1 X57.428 Y101.966 E1.61548
G1 X57.315 Y101.982 E1.62112
G1 X57.177 Y102.010 E1.62526
G1 X57.038 Y102.048 E1.62951
G1 X56.903 Y102.095 E1.63361
G1 X56.741 Y102.169 E1.63937
G1 X56.611 Y102.238 E1.64404
G1 X56.462 Y102.336 E1.65029
G1 X56.256 Y102.502 E1.66334
G1 X56.078 Y102.689 E1.67604
G1 X55.918 Y102.894 E1.68888
G1 X55.777 Y103.177 E1.70441
G1 X55.581 Y103.687 E1.72834
G1 X55.608 Y104.099 E1.74868
G1 X55.700 Y104.649 E1.75793
G1 X55.767 Y104.795 E1.76587
G1 X55.800 Y104.870 E1.76851
G1 X55.880 Y105.025 E1.77425
G1 X56.034 Y105.253 E1.78493
G1 X56.078 Y105.309 E1.78845
G1 X56.256 Y105.496 E1.80115
G1 X56.449 Y105.653 E1.81342
G1 X56.567 Y105.734 E1.82047
G1 X56.740 Y105.831 E1.82769
G1 X56.981 Y105.932 E1.84005
G1 X57.121 Y105.974 E1.84556
G1 X57.259 Y106.006 E1.84971
G1 X57.570 Y106.042 E1.86117
G1 X57.742 Y106.042 E1.86965
G1 X57.827 Y106.036 E1.87384
G1 X57.997 Y106.014 E1.87947
G1 X58.135 Y105.984 E1.88644
G1 X58.222 Y105.964 E1.88938
G1 X58.313 Y106.012 E1.89448
G1 X58.716 Y105.743 E1.91837
G1 X58.897 Y105.618 E1.92919
G1 X58.988 Y105.544 E1.93499
G1 X59.160 Y105.376 E1.94256
G1 X59.277 Y105.237 E1.95153
G1 X59.605 Y104.836 E1.97705
G1 X59.559 Y104.739 E1.98232
G1 X59.578 Y104.673 E1.98570
G1 X59.599 Y104.614 E1.98877
G1 X59.636 Y104.479 E1.99566
G1 X59.674 Y104.292 E2.00507
G1 X59.684 Y103.802 E2.02929
G1 X59.666 Y103.672 E2.03575
G1 X59.636 Y103.519 E2.04154
G1 X59.599 Y103.384 E2.04843
G1 X59.578 Y103.325 E2.05150
G1 X59.492 Y103.114 E2.05838
G1 X59.447 Y103.028 E2.06320
G1 X59.373 Y102.902 E2.07038
G1 X59.277 Y102.762 E2.07876
G1 X59.160 Y102.622 E2.08774
G1 X58.986 Y102.445 E2.09994
G1 X58.897 Y102.381 E2.10538
G1 X58.719 Y102.256 E2.11606
G1 X58.566 Y102.172 E2.12467
G1 X58.085 Y101.950
G1 X58.471 Y101.577 F15000.000
G1 X58.017 Y101.368 F3000.000
G1 X57.471 Y101.116 F720.000 E2.15431
G1 X57.471 Y101.455 E2.17102
G1 X57.227 Y101.490 E2.18317
G1 X57.055 Y101.525 E2.18899
G1 X56.880 Y101.574 E2.19512
G1 X56.714 Y101.632 E2.20082
G1 X56.544 Y101.710 E2.21004
G1 X56.492 Y101.659 E2.21365
G1 X55.914 Y102.134 E2.25052
G1 X55.750 Y102.056 E2.25945
G1 X55.750 Y75.945 E3.54586
G1 X55.903 Y75.869 E3.55427
G1 X56.160 Y76.062 E3.57010
G1 X56.309 Y76.163 E3.57900
G1 X56.471 Y76.254 E3.58600
G1 X56.570 Y76.303 E3.59005
G1 X56.717 Y76.366 E3.59791
G1 X57.055 Y76.473 E3.61496
G1 X57.338 Y76.534 E3.62919
G1 X57.338 Y76.843 E3.64443
G1 X58.192 Y76.514 E3.68951
G1 X58.341 Y76.594 E3.69784
G1 X58.979 Y76.169 E3.73561
G1 X59.202 Y76.013 E3.74900
G1 X59.324 Y75.915 E3.75673
G1 X59.531 Y75.712 E3.76676
G1 X59.666 Y75.550 E3.77715
G1 X59.775 Y75.550 E3.78254
G1 X59.869 Y75.306 E3.79542
G1 X59.956 Y75.306 E3.79972
G1 X60.153 Y74.449 E3.84304
G1 X60.181 Y74.247 E3.85309
G1 X60.191 Y74.100 E3.86036
G1 X60.191 Y73.898 E3.87028
G1 X60.181 Y73.751 E3.87756
G1 X60.153 Y73.549 E3.88760
G1 X60.121 Y73.397 E3.89523
G1 X60.060 Y73.178 E3.90645
G1 X60.134 Y73.021 E3.91501
G1 X59.679 Y72.464 E3.95045
G1 X59.531 Y72.286 E3.96185
G1 X59.388 Y72.141 E3.97189
G1 X59.218 Y71.996 E3.97862
G1 X59.218 Y71.860 E3.98533
G1 X57.679 Y71.286 E4.06627
G1 X57.339 Y71.156 E4.08423
G1 X57.339 Y71.622 E4.10719
G1 X56.945 Y71.412 E4.12919
G1 X56.314 Y71.832 E4.16652
G1 X56.266 Y71.864 E4.16940
G1 X55.903 Y72.129 E4.19154
G1 X55.750 Y72.053 E4.19996
G1 X55.750 Y46.945 E5.43691
G1 X55.903 Y46.869 E5.44533
G1 X56.160 Y47.062 E5.46115
G1 X56.309 Y47.163 E5.47004
