; generated by Slic3r 0.9.2-dev on 2012-09-07 at 12:33:28

; layer_height = 0.3
; perimeters = 2
; solid_layers = 3
; fill_density = 0.25
; perimeter_speed = 30
; infill_speed = 48
; travel_speed = 250
; scale = 1
; nozzle_diameter = 0.5
; filament_diameter = 1.75
; extrusion_multiplier = 0.79
; single wall width = 0.50mm
; first layer single wall width = 0.50mm

M107
M190 S57 ; wait for bed temperature to be reached
M104 S200 ; set temperature
G28 X0 Y0
G1 X75 Y75 F12000
G28 Z0
G1 Z0.3 F200
G1 X15 Y20 F12000
M109 S200 ; wait for temperature to be reached
G90 ; use absolute coordinates
G21 ; set units to millimeters
G92 E0
M82 ; use absolute distances for extrusion
G1 Z0.300 F15000.000
G1 X74.254 Y27.609
G1 F3000.000 E1.60000
G1 X74.364 Y27.369
G1 X74.364 Y27.369 F1800.000
G1 X74.764 Y26.689 E1.63887
G1 X75.254 Y26.049 E1.67858
G1 X75.614 Y25.669 E1.70437
G1 X76.004 Y25.309 E1.73052
G1 X76.654 Y24.839 E1.77003
G1 X77.104 Y24.569 E1.79589
G1 X77.584 Y24.339 E1.82211
G1 X78.084 Y24.149 E1.84846
G1 X78.584 Y23.999 E1.87418
G1 X78.844 Y23.939 E1.88733
G1 X79.634 Y23.829 E1.92662
G1 X80.164 Y23.809 E1.95275
G1 X88.844 Y23.829 E2.38039
G1 X89.374 Y23.899 E2.40672
G1 X89.894 Y24.009 E2.43291
G1 X90.414 Y24.159 E2.45957
G1 X90.904 Y24.349 E2.48547
G1 X91.394 Y24.589 E2.51235
G1 X91.854 Y24.859 E2.53862
G1 X92.074 Y25.009 E2.55174
G1 X92.494 Y25.339 E2.57806
G1 X92.894 Y25.699 E2.60457
G1 X93.424 Y26.299 E2.64401
G1 X93.734 Y26.739 E2.67053
G1 X108.394 Y53.639 E4.17983
G1 X108.604 Y54.189 E4.20883
G1 X108.754 Y54.759 E4.23787
G1 X108.864 Y55.339 E4.26695
G1 X108.924 Y56.219 E4.31041
G1 X108.904 Y76.889 E5.32875
G1 X108.774 Y77.719 E5.37014
G1 X108.624 Y78.269 E5.39823
G1 X108.434 Y78.799 E5.42596
G1 X108.194 Y79.319 E5.45418
G1 X107.754 Y80.039 E5.49575
G1 X76.934 Y120.259 E7.99212
G1 X76.314 Y120.849 E8.03429
G1 X76.094 Y121.029 E8.04829
G1 X75.384 Y121.499 E8.09024
G1 X68.954 Y125.209 E8.45597
G1 X68.544 Y125.439 E8.47761
G1 X67.764 Y125.779 E8.51953
G1 X67.494 Y125.869 E8.53355
G1 X66.954 Y126.009 E8.56103
G1 X66.394 Y126.109 E8.58906
G1 X66.114 Y126.139 E8.60293
G1 X65.554 Y126.159 E8.63054
G1 X64.994 Y126.129 E8.65817
G1 X64.154 Y126.009 E8.69997
G1 X51.284 Y122.539 E9.35667
G1 X50.784 Y122.339 E9.38321
G1 X50.074 Y121.959 E9.42288
G1 X49.624 Y121.659 E9.44952
G1 X49.004 Y121.139 E9.48939
G1 X48.634 Y120.759 E9.51552
G1 X48.454 Y120.549 E9.52915
G1 X48.134 Y120.129 E9.55516
G1 X41.824 Y109.239 E10.17523
G1 X41.594 Y108.749 E10.20190
G1 X41.404 Y108.239 E10.22871
G1 X41.254 Y107.709 E10.25585
G1 X41.194 Y107.439 E10.26948
G1 X41.094 Y106.629 E10.30968
G1 X41.084 Y106.089 E10.33629
G1 X41.094 Y105.809 E10.35010
G1 X41.154 Y105.269 E10.37686
G1 X41.254 Y104.729 E10.40392
G1 X44.674 Y92.569 E11.02625
G1 X45.024 Y91.629 E11.07566
G1 X74.203 Y27.722 E14.53675
G1 F3000.000 E12.93675
G92 E0
G1 X84.672 Y60.378 F15000.000
G1 F3000.000 E1.60000
G1 X85.122 Y60.595
G1 X86.474 Y61.246 F720.000 E1.67389
G1 X88.723 Y61.246 E1.78474
G1 X90.750 Y60.270 E1.89558
G1 X92.153 Y58.511 E2.00642
G1 X92.654 Y56.318 E2.11726
G1 X92.153 Y54.124 E2.22810
G1 X90.750 Y52.365 E2.33894
G1 X88.723 Y51.389 E2.44978
G1 X86.474 Y51.389 E2.56062
G1 X84.447 Y52.365 E2.67146
G1 X83.044 Y54.124 E2.78230
G1 X82.543 Y56.318 E2.89314
G1 X83.044 Y58.511 E3.00398
G1 X83.745 Y59.390 E3.05939
G1 X84.213 Y59.977
G1 X84.992 Y59.977 F15000.000
G1 X85.442 Y60.194 F3000.000
G1 X86.588 Y60.746 F624.000 E3.12204
G1 X88.609 Y60.746 E3.22164
G1 X90.431 Y59.869 E3.32124
G1 X91.691 Y58.288 E3.42083
G1 X92.141 Y56.318 E3.52042
G1 X91.691 Y54.347 E3.62002
G1 X90.431 Y52.766 E3.71961
G1 X88.609 Y51.889 E3.81921
G1 X86.588 Y51.889 E3.91881
G1 X84.766 Y52.766 E4.01840
G1 X83.506 Y54.347 E4.11800
G1 X83.056 Y56.318 E4.21759
G1 X83.506 Y58.288 E4.31719
G1 X84.408 Y59.419 E4.38846
G1 X84.688 Y59.771
G1 X84.447 Y60.270 F3000.000 E2.78846
G92 E0
G1 X53.939 Y109.369 F15000.000
G1 F3000.000 E1.60000
G1 X54.250 Y109.760
G1 X55.186 Y110.933 F720.000 E1.67389
G1 X57.213 Y111.909 E1.78473
G1 X59.462 Y111.909 E1.89558
G1 X61.489 Y110.933 E2.00642
G1 X62.892 Y109.174 E2.11726
G1 X63.393 Y106.980 E2.22810
G1 X62.892 Y104.787 E2.33893
G1 X61.489 Y103.028 E2.44977
G1 X59.462 Y102.052 E2.56061
G1 X57.213 Y102.052 E2.67146
G1 X55.186 Y103.028 E2.78230
G1 X53.783 Y104.787 E2.89314
G1 X53.282 Y106.981 E3.00398
G1 X53.533 Y108.077 E3.05939
G1 X53.699 Y108.808
G1 X54.401 Y109.147 F15000.000
G1 X54.713 Y109.538 F3000.000
G1 X55.505 Y110.532 F624.000 E3.12204
G1 X57.327 Y111.409 E3.22164
G1 X59.348 Y111.409 E3.32124
G1 X61.170 Y110.532 E3.42083
G1 X62.430 Y108.951 E3.52043
G1 X62.880 Y106.980 E3.62002
G1 X62.430 Y105.010 E3.71962
G1 X61.170 Y103.429 E3.81921
G1 X59.348 Y102.552 E3.91881
G1 X57.327 Y102.552 E4.01841
G1 X55.505 Y103.429 E4.11800
G1 X54.245 Y105.010 E4.21760
G1 X53.795 Y106.981 E4.31719
G1 X54.117 Y108.391 E4.38846
G1 X54.217 Y108.829
G1 X53.783 Y109.174 F3000.000 E2.78846
G92 E0
G1 X48.200 Y105.928 F15000.000
G1 F3000.000 E1.60000
G1 X48.335 Y105.446
G1 X51.369 Y94.669 F720.000 E2.15158
G1 X51.922 Y94.350 E2.18305
G1 X57.892 Y90.904 E2.52267
G1 X68.194 Y84.956 E3.10871
G1 X68.588 Y84.729 E3.13112
G1 X68.774 Y84.621 E3.14173
G1 X68.774 Y84.436 E3.15086
G1 X73.273 Y76.743 E3.58993
G1 X73.273 Y56.559 E4.58430
G1 X80.674 Y49.158 E5.09996
G1 X80.674 Y30.819 E6.00349
G1 X87.813 Y30.819 E6.35518
G1 X87.813 Y36.684 E6.64417
G1 X87.417 Y36.949 E6.66762
G1 X87.417 Y41.188 E6.87647
G1 X87.813 Y41.453 E6.89992
G1 X87.813 Y47.819 E7.21354
G1 X93.315 Y47.819 E7.48459
G1 X101.925 Y56.429 E8.08452
G1 X101.925 Y75.819 E9.03977
G1 X80.941 Y75.819 E10.07362
G1 X71.701 Y115.544 E12.08300
G1 X65.741 Y118.985 E12.42204
G1 X65.496 Y119.127 E12.43602
G1 X53.805 Y115.994 E13.03230
G1 X48.695 Y107.143 E13.53585
G1 X48.320 Y106.493
G1 X47.661 Y105.995 F15000.000
G1 X47.797 Y105.514 F3000.000
G1 X50.943 Y94.338 F576.000 E14.10783
G1 X51.422 Y94.061 E14.13511
G1 X68.249 Y84.347 E15.09236
G1 X72.773 Y76.607 E15.53142
G1 X72.773 Y56.352 E16.52933
G1 X80.174 Y48.951 E17.04498
G1 X80.174 Y30.319 E17.96294
G1 X88.313 Y30.319 E18.36390
G1 X88.313 Y36.951 E18.69068
G1 X87.917 Y37.216 E18.71413
G1 X87.917 Y40.921 E18.89667
G1 X88.313 Y41.186 E18.92012
G1 X88.313 Y47.319 E19.22226
G1 X93.522 Y47.319 E19.47888
G1 X102.425 Y56.222 E20.09922
G1 X102.425 Y76.319 E21.08931
G1 X81.338 Y76.319 E22.12823
G1 X72.139 Y115.869 E24.12873
G1 X65.875 Y119.485 E24.48506
G1 X65.566 Y119.663 E24.50264
G1 X53.475 Y116.424 E25.11933
G1 X47.881 Y106.734 E25.67057
G1 X47.656 Y106.344
G1 X48.132 Y106.168 F3000.000 E24.07057
G92 E0
G1 X56.067 Y111.839 F15000.000
G1 F3000.000 E1.60000
G1 X56.420 Y112.193
G1 X62.006 Y117.778 F1152.000 E1.98929
G1 X62.972 Y118.036 E2.03860
G1 X57.203 Y112.267 E2.44070
G1 X57.910 Y112.267 E2.47555
G1 X63.938 Y118.295 E2.89569
G1 X64.905 Y118.555 E2.94502
G1 X58.618 Y112.268 E3.38320
G1 X59.325 Y112.268 E3.41805
G1 X65.707 Y118.650 E3.86288
G1 X66.156 Y118.391 E3.88839
G1 X59.838 Y112.073 E4.32874
G1 X60.316 Y111.843 E4.35489
G1 X66.605 Y118.132 E4.79322
G1 X67.053 Y117.873 E4.81873
G1 X60.793 Y111.613 E5.25504
G1 X61.270 Y111.383 E5.28114
G1 X67.501 Y117.614 E5.71543
G1 X67.950 Y117.356 E5.74094
G1 X61.720 Y111.126 E6.17513
G1 X62.034 Y110.733 E6.19993
G1 X68.398 Y117.097 E6.64348
G1 X68.847 Y116.837 E6.66904
G1 X62.349 Y110.339 E7.12195
G1 X62.662 Y109.945 E7.14675
G1 X69.295 Y116.578 E7.60908
G1 X69.744 Y116.320 E7.63459
G1 X62.976 Y109.552 E8.10628
G1 X63.245 Y109.113 E8.13163
G1 X70.192 Y116.061 E8.61584
G1 X70.640 Y115.802 E8.64135
G1 X63.376 Y108.538 E9.14764
G1 X63.508 Y107.962 E9.17678
G1 X71.089 Y115.542 E9.70515
G1 X71.444 Y115.190 E9.72979
G1 X63.639 Y107.385 E10.27378
G1 X63.754 Y106.793 E10.30352
G1 X71.578 Y114.617 E10.84884
G1 X71.711 Y114.043 E10.87789
G1 X63.544 Y105.876 E11.44711
G1 X63.334 Y104.959 E11.49344
G1 X71.844 Y113.469 E12.08657
G1 X71.979 Y112.895 E12.11563
G1 X62.057 Y102.973 E12.80718
G1 F3000.000 E11.20718
G92 E0
G1 X54.276 Y115.707 F15000.000
G1 F3000.000 E1.60000
G1 X53.993 Y115.424
G1 X53.993 Y115.424 F2880.000
G1 X55.242 Y115.965 E1.66708
G1 X53.026 Y113.750 E1.82149
G1 X52.060 Y112.077 E1.91670
G1 X56.208 Y116.225 E2.20579
G1 X57.175 Y116.483 E2.25510
G1 X51.094 Y110.403 E2.67889
G1 X50.129 Y108.730 E2.77410
G1 X58.141 Y116.742 E3.33253
G1 X59.107 Y117.001 E3.38185
G1 X49.162 Y107.056 E4.07502
G1 X48.583 Y105.770 E4.14454
G1 X60.073 Y117.260 E4.94540
G1 X61.039 Y117.519 E4.99468
G1 X48.738 Y105.217 E5.85207
G1 X48.893 Y104.666 E5.88031
G1 X53.372 Y109.145 E6.19247
G1 X53.163 Y108.227 E6.23882
G1 X49.049 Y104.113 E6.52561
G1 X49.204 Y103.561 E6.55385
G1 X52.954 Y107.311 E6.81520
G1 X53.015 Y106.665 E6.84719
G1 X49.359 Y103.009 E7.10199
G1 X49.515 Y102.457 E7.13023
G1 X53.146 Y106.089 E7.38335
G1 X53.278 Y105.514 E7.41245
G1 X49.670 Y101.905 E7.66394
G1 X49.826 Y101.353 E7.69223
G1 X53.409 Y104.937 E7.94199
G1 X53.651 Y104.471 E7.96785
G1 X49.981 Y100.801 E8.22363
G1 X50.136 Y100.249 E8.25188
G1 X53.964 Y104.077 E8.51865
G1 X54.278 Y103.684 E8.54344
G1 X50.292 Y99.698 E8.82125
G1 X50.447 Y99.145 E8.84952
G1 X54.592 Y103.290 E9.13842
G1 X54.906 Y102.896 E9.16327
G1 X50.603 Y98.593 E9.46316
G1 X50.758 Y98.041 E9.49143
G1 X55.330 Y102.613 E9.81010
G1 X55.807 Y102.383 E9.83620
G1 X50.913 Y97.489 E10.17729
G1 X51.068 Y96.937 E10.20556
G1 X56.285 Y102.153 E10.56912
G1 X56.762 Y101.924 E10.59523
G1 X51.224 Y96.386 E10.98122
G1 X51.379 Y95.833 E11.00953
G1 X57.240 Y101.693 E11.41799
G1 X57.947 Y101.693 E11.45284
G1 X51.535 Y95.281 E11.89974
G1 X51.759 Y94.798 E11.92598
G1 X58.655 Y101.694 E12.40660
G1 X59.362 Y101.694 E12.44144
G1 X52.207 Y94.539 E12.94010
G1 X52.656 Y94.280 E12.96561
G1 X60.395 Y102.020 E13.50501
G1 X61.760 Y102.677 E13.57969
G1 X53.105 Y94.021 E14.18297
G1 X53.553 Y93.762 E14.20848
G1 X72.112 Y112.321 E15.50198
G1 X72.245 Y111.747 E15.53099
G1 X54.001 Y93.503 E16.80256
G1 X54.450 Y93.245 E16.82807
G1 X72.378 Y111.173 E18.07765
G1 X72.512 Y110.600 E18.10667
G1 X54.898 Y92.986 E19.33432
G1 X55.348 Y92.727 E19.35990
G1 X72.646 Y110.026 E20.56557
G1 X72.779 Y109.451 E20.59461
G1 X55.796 Y92.468 E21.77830
G1 X56.244 Y92.209 E21.80382
G1 X72.913 Y108.878 E22.96558
G1 X73.046 Y108.304 E22.99462
G1 X56.693 Y91.951 E24.13440
G1 X57.141 Y91.692 E24.15991
G1 X73.179 Y107.730 E25.27776
G1 X73.313 Y107.155 E25.30685
G1 X57.590 Y91.432 E26.40272
G1 X58.038 Y91.173 E26.42823
G1 X73.447 Y106.582 E27.50216
G1 X73.580 Y106.009 E27.53118
G1 X58.487 Y90.915 E28.58319
G1 X58.935 Y90.656 E28.60870
G1 X73.713 Y105.434 E29.63873
G1 X73.847 Y104.861 E29.66774
G1 X59.383 Y90.397 E30.67584
G1 X59.832 Y90.138 E30.70140
G1 X73.981 Y104.286 E31.68751
G1 X74.114 Y103.713 E31.71653
G1 X60.280 Y89.879 E32.68071
G1 X60.729 Y89.620 E32.70622
G1 X74.247 Y103.138 E33.64843
G1 X74.381 Y102.565 E33.67745
G1 X61.177 Y89.361 E34.59772
G1 X61.625 Y89.102 E34.62323
G1 X74.515 Y101.991 E35.52157
G1 X74.647 Y101.417 E35.55061
G1 X62.074 Y88.844 E36.42697
G1 X62.523 Y88.584 E36.45253
G1 X74.782 Y100.843 E37.30696
G1 X74.915 Y100.269 E37.33600
G1 X62.971 Y88.325 E38.16845
G1 X63.419 Y88.066 E38.19396
G1 X75.048 Y99.696 E39.00448
G1 X75.181 Y99.121 E39.03353
G1 X63.868 Y87.808 E39.82206
G1 X64.316 Y87.549 E39.84757
G1 X75.315 Y98.548 E40.61418
G1 X75.449 Y97.974 E40.64324
G1 X64.765 Y87.289 E41.38791
G1 X65.214 Y87.031 E41.41344
G1 X75.582 Y97.400 E42.13608
G1 X75.716 Y96.826 E42.16510
G1 X65.662 Y86.772 E42.86581
G1 X66.111 Y86.514 E42.89132
G1 X75.849 Y96.252 E43.57006
G1 X75.982 Y95.678 E43.59908
G1 X66.559 Y86.255 E44.25588
G1 X67.008 Y85.995 E44.28144
G1 X76.117 Y95.104 E44.91631
G1 X76.250 Y94.530 E44.94535
G1 X67.456 Y85.737 E45.55824
G1 X67.904 Y85.478 E45.58375
G1 X76.383 Y93.957 E46.17471
G1 X76.516 Y93.382 E46.20376
G1 X68.353 Y85.219 E46.77274
G1 X68.801 Y84.960 E46.79825
G1 X76.650 Y92.809 E47.34529
G1 X76.784 Y92.234 E47.37438
G1 X69.133 Y84.584 E47.90758
G1 X69.337 Y84.080 E47.93434
G1 X76.917 Y91.661 E48.46266
G1 X77.051 Y91.087 E48.49168
G1 X69.598 Y83.634 E49.01113
G1 X69.859 Y83.188 E49.03660
G1 X77.184 Y90.513 E49.54713
G1 X77.317 Y89.940 E49.57615
G1 X70.120 Y82.742 E50.07781
G1 X70.381 Y82.295 E50.10333
G1 X77.451 Y89.365 E50.59607
G1 X77.585 Y88.791 E50.62509
G1 X70.642 Y81.849 E51.10895
G1 X70.903 Y81.403 E51.13443
G1 X77.718 Y88.217 E51.60937
G1 X77.851 Y87.644 E51.63839
G1 X71.164 Y80.956 E52.10446
G1 X71.425 Y80.510 E52.12994
G1 X77.985 Y87.070 E52.58714
G1 X78.119 Y86.495 E52.61623
G1 X71.687 Y80.063 E53.06451
G1 X71.948 Y79.617 E53.08998
G1 X78.252 Y85.922 E53.52940
G1 X78.385 Y85.348 E53.55844
G1 X72.209 Y79.171 E53.98893
G1 X72.470 Y78.725 E54.01441
G1 X78.519 Y84.774 E54.43603
G1 X78.652 Y84.200 E54.46507
G1 X72.730 Y78.279 E54.87777
G1 X72.992 Y77.832 E54.90329
G1 X78.786 Y83.626 E55.30712
G1 X78.920 Y83.052 E55.33614
G1 X73.253 Y77.386 E55.73110
G1 X73.514 Y76.939 E55.75657
G1 X79.053 Y82.478 E56.14261
G1 X79.186 Y81.905 E56.17163
G1 X73.632 Y76.350 E56.55875
G1 X73.632 Y75.643 E56.59360
G1 X79.319 Y81.331 E56.98999
G1 X79.454 Y80.756 E57.01905
G1 X73.632 Y74.935 E57.42480
G1 X73.632 Y74.228 E57.45965
G1 X79.587 Y80.182 E57.87467
G1 X79.720 Y79.609 E57.90369
G1 X73.632 Y73.521 E58.32802
G1 X73.632 Y72.813 E58.36286
G1 X79.854 Y79.035 E58.79651
G1 X79.987 Y78.461 E58.82556
G1 X73.632 Y72.106 E59.26847
G1 X73.632 Y71.398 E59.30339
G1 X80.121 Y77.887 E59.75566
G1 X80.254 Y77.313 E59.78471
G1 X73.632 Y70.691 E60.24625
G1 X73.632 Y69.984 E60.28109
G1 X80.388 Y76.739 E60.75195
G1 X80.521 Y76.166 E60.78097
G1 X73.632 Y69.276 E61.26115
G1 X73.632 Y68.569 E61.29600
G1 X80.654 Y75.592 E61.78546
G1 X81.230 Y75.460 F15000.000
G1 X80.876 Y75.107 F3000.000
G1 X73.632 Y67.862 F1152.000 E62.29040
G1 X73.632 Y67.154 E62.32529
G1 X81.938 Y75.460 E62.90421
G1 X82.646 Y75.460 E62.93906
G1 X73.632 Y66.447 E63.56728
G1 X73.632 Y65.739 E63.60213
G1 X83.353 Y75.460 E64.27964
G1 X84.060 Y75.460 E64.31449
G1 X73.632 Y65.032 E65.04129
G1 X73.632 Y64.325 E65.07615
G1 X84.767 Y75.460 E65.85225
G1 X85.475 Y75.459 E65.88713
G1 X73.632 Y63.617 E66.71251
G1 X73.632 Y62.910 E66.74737
G1 X86.182 Y75.460 E67.62210
G1 X86.890 Y75.460 E67.65695
G1 X73.632 Y62.203 E68.58097
G1 X73.632 Y61.495 E68.61582
G1 X87.597 Y75.460 E69.58914
G1 X88.304 Y75.460 E69.62399
G1 X73.632 Y60.788 E70.64659
G1 X73.632 Y60.080 E70.68149
G1 X89.012 Y75.459 E71.75339
G1 X89.719 Y75.460 E71.78827
G1 X73.632 Y59.373 E72.90951
G1 X73.632 Y58.666 E72.94437
G1 X90.427 Y75.460 E74.11491
G1 X91.134 Y75.460 E74.14976
G1 X73.632 Y57.958 E75.36959
G1 X73.632 Y57.251 E75.40444
G1 X91.841 Y75.460 E76.67357
G1 X92.549 Y75.459 E76.70845
G1 X73.673 Y56.584 E78.02403
G1 X74.027 Y56.230 E78.04867
G1 X93.256 Y75.460 E79.38894
G1 X93.963 Y75.460 E79.42379
G1 X74.380 Y55.877 E80.78870
G1 X74.734 Y55.523 E80.81334
G1 X94.671 Y75.460 E82.20289
G1 X95.378 Y75.460 E82.23774
G1 X75.087 Y55.170 E83.65194
G1 X75.441 Y54.815 E83.67663
G1 X96.086 Y75.459 E85.11547
G1 X96.793 Y75.460 E85.15035
G1 X75.795 Y54.462 E86.61388
G1 X76.149 Y54.108 E86.63852
G1 X97.500 Y75.460 E88.12669
G1 X98.208 Y75.460 E88.16154
G1 X76.502 Y53.755 E89.67435
G1 X76.856 Y53.401 E89.69899
G1 X98.915 Y75.460 E91.23644
G1 X99.622 Y75.459 E91.27133
G1 X85.348 Y61.185 E92.26621
G1 X86.475 Y61.604 E92.32545
G1 X100.330 Y75.460 E93.29116
G1 X101.037 Y75.460 E93.32601
G1 X87.182 Y61.604 E94.29172
G1 X87.889 Y61.604 E94.32657
G1 X101.567 Y75.283 E95.27991
G1 X101.567 Y74.576 E95.31475
G1 X88.597 Y61.605 E96.21876
G1 X89.106 Y61.406 E96.24573
G1 X101.568 Y73.868 E97.11425
G1 X101.567 Y73.160 E97.14913
G1 X89.584 Y61.177 E97.98434
G1 X90.061 Y60.947 E98.01045
G1 X101.567 Y72.453 E98.81239
G1 X101.567 Y71.746 E98.84724
G1 X90.538 Y60.717 E99.61591
G1 X90.986 Y60.457 E99.64141
G1 X101.567 Y71.039 E100.37889
G1 X101.568 Y70.331 E100.41377
G1 X91.301 Y60.064 E101.12937
G1 X91.614 Y59.670 E101.15417
G1 X101.567 Y69.623 E101.84789
G1 X101.567 Y68.916 E101.88274
G1 X91.928 Y59.277 E102.55457
G1 X92.242 Y58.883 E102.57936
G1 X101.567 Y68.209 E103.22931
G1 X101.567 Y67.502 E103.26416
G1 X92.508 Y58.442 E103.89558
G1 X92.639 Y57.867 E103.92468
G1 X101.567 Y66.795 E104.54693
