; generated by Slic3r 0.9.2-dev on 2012-09-11 at 10:52:32

; layer_height = 0.2
; perimeters = 2
; solid_layers = 3
; fill_density = 0.25
; perimeter_speed = 32
; infill_speed = 48
; travel_speed = 250
; scale = 1
; nozzle_diameter = 0.3
; filament_diameter = 1.71
; extrusion_multiplier = 0.85
; single wall width = 0.30mm
; first layer single wall width = 0.30mm

M107
M190 S105 ; wait for bed temperature to be reached
M104 S235 ; set temperature
G28 X0 Y0
G1 X80 Y80 F12000
G28 Z0
G1 Z0.2 F200
G1 X15 Y20 F12000
M109 S235 ; wait for temperature to be reached
G90 ; use absolute coordinates
G21 ; set units to millimeters
M83 ; use relative distances for extrusion
G1 Z0.200 F15000.000
G1 X55.690 Y42.690
G1 F3000.000 E1.60000
G1 X55.870 Y42.500
G1 X55.870 Y42.500 F1920.000
G1 X56.480 Y42.010 E0.01738
G1 X57.140 Y41.600 E0.01725
G1 X57.610 Y41.370 E0.01162
G1 X58.090 Y41.180 E0.01146
G1 X58.590 Y41.030 E0.01159
G1 X58.850 Y40.970 E0.00593
G1 X59.620 Y40.860 E0.01727
G1 X60.140 Y40.840 E0.01156
G1 X100.360 Y40.860 E0.89316
G1 X101.130 Y40.970 E0.01727
G1 X101.640 Y41.100 E0.01169
G1 X102.130 Y41.270 E0.01152
G1 X102.610 Y41.480 E0.01163
G1 X102.840 Y41.600 E0.00576
G1 X103.500 Y42.010 E0.01725
G1 X104.110 Y42.500 E0.01738
G1 X104.290 Y42.690 E0.00581
G1 X104.480 Y42.870 E0.00581
G1 X104.970 Y43.480 E0.01738
G1 X105.380 Y44.140 E0.01725
G1 X105.610 Y44.610 E0.01162
G1 X105.800 Y45.090 E0.01146
G1 X105.950 Y45.590 E0.01159
G1 X106.010 Y45.850 E0.00593
G1 X106.120 Y46.620 E0.01727
G1 X106.120 Y111.480 E1.44034
G1 X106.090 Y111.750 E0.00603
G1 X105.930 Y112.560 E0.01834
G1 X105.660 Y113.340 E0.01833
G1 X105.430 Y113.840 E0.01222
G1 X105.300 Y114.080 E0.00606
G1 X104.840 Y114.770 E0.01842
G1 X104.670 Y114.980 E0.00600
G1 X102.190 Y117.480 E0.07820
G1 X101.980 Y117.670 E0.00629
G1 X101.770 Y117.840 E0.00600
G1 X101.080 Y118.300 E0.01842
G1 X100.590 Y118.550 E0.01222
G1 X100.080 Y118.760 E0.01225
G1 X99.560 Y118.930 E0.01215
G1 X98.750 Y119.090 E0.01834
G1 X98.480 Y119.120 E0.00603
G1 X97.930 Y119.140 E0.01222
G1 X61.510 Y119.120 E0.80878
G1 X61.240 Y119.090 E0.00603
G1 X60.430 Y118.930 E0.01834
G1 X59.910 Y118.760 E0.01215
G1 X59.160 Y118.430 E0.01820
G1 X58.690 Y118.160 E0.01204
G1 X58.240 Y117.850 E0.01213
G1 X58.020 Y117.680 E0.00617
G1 X55.510 Y115.200 E0.07836
G1 X55.320 Y114.990 E0.00629
G1 X55.150 Y114.780 E0.00600
G1 X54.830 Y114.330 E0.01226
G1 X54.430 Y113.600 E0.01849
G1 X54.220 Y113.090 E0.01225
G1 X54.130 Y112.830 E0.00611
G1 X53.990 Y112.300 E0.01217
G1 X53.890 Y111.760 E0.01220
G1 X53.860 Y111.480 E0.00625
G1 X53.860 Y46.620 E1.44034
G1 X53.970 Y45.850 E0.01727
G1 X54.100 Y45.340 E0.01169
G1 X54.270 Y44.850 E0.01152
G1 X54.480 Y44.370 E0.01163
G1 X54.600 Y44.140 E0.00576
G1 X55.010 Y43.480 E0.01725
G1 X55.500 Y42.870 E0.01738
G1 X55.636 Y42.742 E0.00415
G1 F3000.000 E-1.60000
G1 X62.277 Y107.152 F15000.000
G1 F3000.000 E1.60000
G1 X62.105 Y107.193
G1 X62.105 Y107.193 F1200.000
G1 X61.919 Y107.258 E0.00436
G1 X61.742 Y107.341 E0.00436
G1 X61.573 Y107.443 E0.00436
G1 X61.417 Y107.561 E0.00436
G1 X61.273 Y107.696 E0.00437
G1 X61.145 Y107.844 E0.00436
G1 X61.033 Y108.005 E0.00436
G1 X60.938 Y108.177 E0.00436
G1 X60.861 Y108.358 E0.00436
G1 X60.804 Y108.546 E0.00436
G1 X60.766 Y108.739 E0.00436
G1 X60.749 Y108.934 E0.00436
G1 X60.753 Y109.131 E0.00436
G1 X60.777 Y109.326 E0.00436
G1 X60.821 Y109.517 E0.00436
G1 X60.884 Y109.703 E0.00436
G1 X60.967 Y109.881 E0.00436
G1 X61.068 Y110.050 E0.00436
G1 X61.186 Y110.207 E0.00436
G1 X61.320 Y110.351 E0.00436
G1 X61.468 Y110.480 E0.00436
G1 X61.628 Y110.593 E0.00436
G1 X61.800 Y110.689 E0.00436
G1 X61.980 Y110.766 E0.00436
G1 X62.168 Y110.824 E0.00436
G1 X62.361 Y110.862 E0.00436
G1 X62.556 Y110.880 E0.00436
G1 X62.622 Y110.882 E0.00145
G1 X62.818 Y110.872 E0.00437
G1 X63.012 Y110.843 E0.00436
G1 X63.202 Y110.793 E0.00436
G1 X63.386 Y110.723 E0.00437
G1 X63.561 Y110.635 E0.00436
G1 X63.727 Y110.529 E0.00436
G1 X63.880 Y110.407 E0.00436
G1 X64.020 Y110.268 E0.00436
G1 X64.145 Y110.117 E0.00436
G1 X64.253 Y109.953 E0.00436
G1 X64.343 Y109.778 E0.00436
G1 X64.415 Y109.596 E0.00436
G1 X64.467 Y109.406 E0.00436
G1 X64.500 Y109.212 E0.00436
G1 X64.512 Y109.017 E0.00435
G1 X64.506 Y108.853 E0.00365
G1 X64.480 Y108.658 E0.00436
G1 X64.435 Y108.467 E0.00436
G1 X64.369 Y108.282 E0.00436
G1 X64.285 Y108.104 E0.00436
G1 X64.183 Y107.937 E0.00436
G1 X64.063 Y107.781 E0.00436
G1 X63.928 Y107.638 E0.00436
G1 X63.779 Y107.510 E0.00436
G1 X63.618 Y107.398 E0.00436
G1 X63.445 Y107.304 E0.00436
G1 X63.264 Y107.228 E0.00436
G1 X63.076 Y107.172 E0.00436
G1 X62.883 Y107.135 E0.00436
G1 X62.687 Y107.119 E0.00436
G1 X62.622 Y107.118 E0.00145
G1 X62.560 Y107.120 E0.00137
G1 X62.500 Y107.123
G1 X62.548 Y106.821 F3000.000 E-1.60000
G1 X62.772 Y80.876 F15000.000
G1 F3000.000 E1.60000
G1 X62.948 Y80.855
G1 X62.948 Y80.855 F1200.000
G1 X63.139 Y80.812 E0.00436
G1 X63.325 Y80.749 E0.00436
G1 X63.504 Y80.667 E0.00436
G1 X63.673 Y80.566 E0.00436
G1 X63.831 Y80.449 E0.00436
G1 X63.975 Y80.316 E0.00436
G1 X64.105 Y80.169 E0.00436
G1 X64.219 Y80.009 E0.00436
G1 X64.315 Y79.837 E0.00437
G1 X64.393 Y79.657 E0.00436
G1 X64.452 Y79.470 E0.00436
G1 X64.491 Y79.277 E0.00436
G1 X64.510 Y79.082 E0.00436
G1 X64.508 Y78.885 E0.00436
G1 X64.486 Y78.690 E0.00436
G1 X64.444 Y78.498 E0.00436
G1 X64.382 Y78.312 E0.00436
G1 X64.300 Y78.133 E0.00436
G1 X64.201 Y77.964 E0.00436
G1 X64.084 Y77.806 E0.00436
G1 X63.952 Y77.661 E0.00436
G1 X63.805 Y77.530 E0.00436
G1 X63.646 Y77.416 E0.00436
G1 X63.475 Y77.318 E0.00436
G1 X63.295 Y77.240 E0.00436
G1 X63.108 Y77.180 E0.00436
G1 X62.915 Y77.140 E0.00436
G1 X62.720 Y77.120 E0.00436
G1 X62.622 Y77.118 E0.00218
G1 X62.426 Y77.129 E0.00436
G1 X62.232 Y77.161 E0.00436
G1 X62.042 Y77.212 E0.00436
G1 X61.859 Y77.283 E0.00436
G1 X61.684 Y77.373 E0.00436
G1 X61.520 Y77.480 E0.00436
G1 X61.368 Y77.605 E0.00436
G1 X61.229 Y77.744 E0.00436
G1 X61.106 Y77.897 E0.00436
G1 X60.999 Y78.061 E0.00436
G1 X60.910 Y78.237 E0.00436
G1 X60.840 Y78.420 E0.00436
G1 X60.789 Y78.610 E0.00436
G1 X60.758 Y78.804 E0.00436
G1 X60.748 Y79.000 E0.00436
G1 X60.758 Y79.196 E0.00436
G1 X60.789 Y79.390 E0.00436
G1 X60.840 Y79.580 E0.00436
G1 X60.910 Y79.763 E0.00436
G1 X60.999 Y79.939 E0.00436
G1 X61.106 Y80.103 E0.00436
G1 X61.229 Y80.256 E0.00437
G1 X61.368 Y80.396 E0.00436
G1 X61.520 Y80.520 E0.00436
G1 X61.684 Y80.627 E0.00436
G1 X61.859 Y80.717 E0.00436
G1 X62.042 Y80.788 E0.00436
G1 X62.232 Y80.839 E0.00436
G1 X62.426 Y80.871 E0.00436
G1 X62.487 Y80.875 E0.00136
G1 X62.547 Y80.880
G1 X62.465 Y80.576 F3000.000 E-1.60000
G1 X62.772 Y51.876 F15000.000
G1 F3000.000 E1.60000
G1 X62.948 Y51.855
G1 X62.948 Y51.855 F1200.000
G1 X63.139 Y51.812 E0.00436
G1 X63.325 Y51.749 E0.00436
G1 X63.504 Y51.667 E0.00436
G1 X63.673 Y51.566 E0.00436
G1 X63.831 Y51.449 E0.00436
G1 X63.975 Y51.316 E0.00436
G1 X64.105 Y51.169 E0.00436
G1 X64.219 Y51.009 E0.00436
G1 X64.315 Y50.837 E0.00436
G1 X64.393 Y50.657 E0.00436
G1 X64.452 Y50.470 E0.00436
G1 X64.491 Y50.277 E0.00436
G1 X64.510 Y50.082 E0.00436
G1 X64.508 Y49.885 E0.00436
G1 X64.486 Y49.690 E0.00436
G1 X64.444 Y49.498 E0.00436
G1 X64.382 Y49.312 E0.00436
G1 X64.300 Y49.133 E0.00436
G1 X64.201 Y48.964 E0.00436
G1 X64.084 Y48.806 E0.00436
G1 X63.952 Y48.661 E0.00436
G1 X63.805 Y48.530 E0.00436
G1 X63.645 Y48.416 E0.00436
G1 X63.475 Y48.318 E0.00436
G1 X63.295 Y48.240 E0.00436
G1 X63.108 Y48.180 E0.00436
G1 X62.915 Y48.140 E0.00436
G1 X62.720 Y48.120 E0.00436
G1 X62.622 Y48.118 E0.00218
G1 X62.426 Y48.129 E0.00436
G1 X62.232 Y48.161 E0.00436
G1 X62.042 Y48.212 E0.00436
G1 X61.859 Y48.283 E0.00436
G1 X61.684 Y48.373 E0.00436
G1 X61.520 Y48.480 E0.00436
G1 X61.368 Y48.604 E0.00436
G1 X61.229 Y48.744 E0.00436
G1 X61.106 Y48.897 E0.00436
G1 X60.999 Y49.061 E0.00436
G1 X60.910 Y49.237 E0.00436
G1 X60.840 Y49.420 E0.00436
G1 X60.789 Y49.610 E0.00436
G1 X60.758 Y49.804 E0.00436
G1 X60.748 Y50.000 E0.00436
G1 X60.758 Y50.196 E0.00436
G1 X60.789 Y50.390 E0.00436
G1 X60.840 Y50.580 E0.00436
G1 X60.910 Y50.763 E0.00436
G1 X60.999 Y50.939 E0.00436
G1 X61.106 Y51.103 E0.00436
G1 X61.229 Y51.256 E0.00436
G1 X61.368 Y51.396 E0.00436
G1 X61.520 Y51.520 E0.00436
G1 X61.684 Y51.627 E0.00436
G1 X61.859 Y51.717 E0.00436
G1 X62.042 Y51.788 E0.00436
G1 X62.232 Y51.839 E0.00436
G1 X62.426 Y51.871 E0.00436
G1 X62.487 Y51.875 E0.00136
G1 X62.547 Y51.880
G1 X62.351 Y51.608 F3000.000 E-1.60000
G1 X95.505 Y50.248 F15000.000
G1 F3000.000 E1.60000
G1 X95.536 Y50.422
G1 X95.536 Y50.422 F1200.000
G1 X95.590 Y50.611 E0.00436
G1 X95.664 Y50.793 E0.00436
G1 X95.756 Y50.967 E0.00436
G1 X95.865 Y51.130 E0.00436
G1 X95.991 Y51.281 E0.00436
G1 X96.132 Y51.417 E0.00436
G1 X96.287 Y51.539 E0.00436
G1 X96.453 Y51.643 E0.00436
G1 X96.629 Y51.730 E0.00436
G1 X96.813 Y51.798 E0.00436
G1 X97.004 Y51.846 E0.00436
G1 X97.198 Y51.874 E0.00436
G1 X97.362 Y51.882 E0.00364
G1 X97.558 Y51.872 E0.00417
G1 X97.752 Y51.843 E0.00436
G1 X97.942 Y51.793 E0.00436
G1 X98.126 Y51.723 E0.00436
G1 X98.301 Y51.635 E0.00436
G1 X98.467 Y51.529 E0.00436
G1 X98.620 Y51.407 E0.00436
G1 X98.760 Y51.268 E0.00437
G1 X98.885 Y51.117 E0.00436
G1 X98.993 Y50.953 E0.00436
G1 X99.083 Y50.778 E0.00436
G1 X99.155 Y50.596 E0.00436
G1 X99.207 Y50.406 E0.00436
G1 X99.240 Y50.213 E0.00436
G1 X99.252 Y50.017 E0.00435
G1 X99.246 Y49.853 E0.00365
G1 X99.220 Y49.658 E0.00436
G1 X99.175 Y49.467 E0.00436
G1 X99.109 Y49.282 E0.00437
G1 X99.025 Y49.104 E0.00436
G1 X98.923 Y48.937 E0.00436
G1 X98.803 Y48.781 E0.00436
G1 X98.668 Y48.638 E0.00436
G1 X98.519 Y48.510 E0.00436
G1 X98.358 Y48.398 E0.00436
G1 X98.185 Y48.304 E0.00436
G1 X98.004 Y48.228 E0.00436
G1 X97.816 Y48.172 E0.00436
G1 X97.623 Y48.135 E0.00436
G1 X97.427 Y48.119 E0.00436
G1 X97.362 Y48.118 E0.00146
G1 X97.166 Y48.129 E0.00436
G1 X96.972 Y48.161 E0.00436
G1 X96.782 Y48.212 E0.00436
G1 X96.599 Y48.283 E0.00436
G1 X96.424 Y48.373 E0.00436
G1 X96.260 Y48.480 E0.00436
G1 X96.108 Y48.605 E0.00436
G1 X95.969 Y48.744 E0.00436
G1 X95.846 Y48.897 E0.00436
G1 X95.739 Y49.061 E0.00436
G1 X95.650 Y49.237 E0.00436
G1 X95.580 Y49.420 E0.00436
G1 X95.529 Y49.610 E0.00436
G1 X95.498 Y49.804 E0.00436
G1 X95.490 Y49.963 E0.00355
G1 X95.488 Y50.023
G1 X95.191 Y49.938 F3000.000 E-1.60000
G1 X97.114 Y77.136 F15000.000
G1 F3000.000 E1.60000
G1 X96.940 Y77.168
G1 X96.940 Y77.168 F1200.000
G1 X96.751 Y77.223 E0.00436
G1 X96.569 Y77.297 E0.00436
G1 X96.396 Y77.390 E0.00436
G1 X96.234 Y77.500 E0.00436
G1 X96.083 Y77.627 E0.00436
G1 X95.947 Y77.768 E0.00436
G1 X95.827 Y77.923 E0.00436
G1 X95.723 Y78.090 E0.00436
G1 X95.637 Y78.267 E0.00436
G1 X95.570 Y78.451 E0.00437
G1 X95.523 Y78.642 E0.00436
G1 X95.495 Y78.836 E0.00436
G1 X95.488 Y79.033 E0.00436
G1 X95.502 Y79.229 E0.00437
G1 X95.536 Y79.422 E0.00436
G1 X95.590 Y79.611 E0.00436
G1 X95.664 Y79.793 E0.00436
G1 X95.756 Y79.967 E0.00436
G1 X95.865 Y80.130 E0.00436
G1 X95.991 Y80.280 E0.00436
G1 X96.132 Y80.417 E0.00436
G1 X96.287 Y80.539 E0.00436
G1 X96.453 Y80.643 E0.00436
G1 X96.629 Y80.730 E0.00436
G1 X96.814 Y80.798 E0.00437
G1 X97.004 Y80.846 E0.00436
G1 X97.198 Y80.874 E0.00436
G1 X97.362 Y80.882 E0.00363
G1 X97.558 Y80.872 E0.00417
G1 X97.752 Y80.843 E0.00436
G1 X97.942 Y80.793 E0.00436
G1 X98.126 Y80.723 E0.00436
G1 X98.301 Y80.635 E0.00436
G1 X98.467 Y80.529 E0.00436
G1 X98.620 Y80.407 E0.00436
G1 X98.760 Y80.268 E0.00437
G1 X98.885 Y80.117 E0.00436
G1 X98.993 Y79.953 E0.00436
G1 X99.083 Y79.778 E0.00436
G1 X99.155 Y79.596 E0.00436
G1 X99.207 Y79.406 E0.00436
G1 X99.240 Y79.212 E0.00436
G1 X99.252 Y79.017 E0.00435
G1 X99.246 Y78.853 E0.00365
G1 X99.220 Y78.658 E0.00436
G1 X99.175 Y78.467 E0.00436
G1 X99.109 Y78.282 E0.00437
G1 X99.025 Y78.104 E0.00436
G1 X98.923 Y77.937 E0.00436
G1 X98.803 Y77.781 E0.00437
G1 X98.668 Y77.638 E0.00436
G1 X98.519 Y77.510 E0.00437
G1 X98.358 Y77.398 E0.00436
G1 X98.185 Y77.304 E0.00436
G1 X98.004 Y77.228 E0.00436
G1 X97.816 Y77.172 E0.00436
G1 X97.623 Y77.135 E0.00436
G1 X97.427 Y77.119 E0.00436
G1 X97.339 Y77.119
G1 X97.165 Y76.931 F3000.000 E-1.60000
G1 X97.212 Y107.125 F15000.000
G1 F3000.000 E1.60000
G1 X97.036 Y107.148
G1 X97.036 Y107.148 F1200.000
G1 X96.845 Y107.193 E0.00437
G1 X96.659 Y107.258 E0.00436
G1 X96.482 Y107.341 E0.00436
G1 X96.314 Y107.443 E0.00436
G1 X96.157 Y107.561 E0.00436
G1 X96.013 Y107.696 E0.00436
G1 X95.885 Y107.844 E0.00436
G1 X95.773 Y108.005 E0.00436
G1 X95.677 Y108.177 E0.00436
G1 X95.601 Y108.358 E0.00435
G1 X95.544 Y108.546 E0.00436
G1 X95.506 Y108.739 E0.00436
G1 X95.489 Y108.934 E0.00436
G1 X95.493 Y109.131 E0.00436
G1 X95.511 Y109.294 E0.00364
G1 X95.552 Y109.486 E0.00436
G1 X95.612 Y109.673 E0.00436
G1 X95.692 Y109.852 E0.00436
G1 X95.790 Y110.022 E0.00437
G1 X95.905 Y110.181 E0.00436
G1 X96.036 Y110.328 E0.00436
G1 X96.182 Y110.459 E0.00436
G1 X96.341 Y110.575 E0.00436
G1 X96.511 Y110.674 E0.00436
G1 X96.690 Y110.755 E0.00436
G1 X96.877 Y110.816 E0.00436
G1 X97.068 Y110.857 E0.00436
G1 X97.264 Y110.879 E0.00436
G1 X97.362 Y110.882 E0.00218
G1 X97.558 Y110.872 E0.00417
G1 X97.752 Y110.843 E0.00436
G1 X97.942 Y110.793 E0.00436
G1 X98.126 Y110.723 E0.00436
G1 X98.301 Y110.635 E0.00436
G1 X98.467 Y110.529 E0.00436
G1 X98.620 Y110.407 E0.00436
G1 X98.760 Y110.268 E0.00437
G1 X98.885 Y110.117 E0.00436
G1 X98.993 Y109.953 E0.00436
G1 X99.083 Y109.778 E0.00436
G1 X99.155 Y109.596 E0.00436
G1 X99.207 Y109.406 E0.00436
G1 X99.240 Y109.212 E0.00436
G1 X99.252 Y109.017 E0.00435
G1 X99.246 Y108.853 E0.00365
G1 X99.220 Y108.658 E0.00436
G1 X99.175 Y108.467 E0.00436
G1 X99.122 Y108.312 E0.00364
G1 X99.040 Y108.133 E0.00437
G1 X98.941 Y107.964 E0.00436
G1 X98.824 Y107.806 E0.00436
G1 X98.692 Y107.661 E0.00436
G1 X98.545 Y107.530 E0.00437
G1 X98.386 Y107.416 E0.00436
G1 X98.215 Y107.318 E0.00437
G1 X98.035 Y107.240 E0.00436
G1 X97.848 Y107.180 E0.00436
G1 X97.655 Y107.140 E0.00436
G1 X97.497 Y107.124 E0.00354
G1 X97.437 Y107.119
G1 X97.286 Y106.820 F15000.000
G1 X97.095 Y106.836 F3000.000
G1 X97.095 Y106.836 F1920.000
G1 X96.871 Y106.876 E0.00505
G1 X96.653 Y106.940 E0.00506
G1 X96.442 Y107.025 E0.00505
G1 X96.241 Y107.133 E0.00507
G1 X96.052 Y107.261 E0.00506
G1 X95.878 Y107.408 E0.00505
G1 X95.720 Y107.572 E0.00506
G1 X95.581 Y107.752 E0.00506
G1 X95.460 Y107.945 E0.00506
G1 X95.361 Y108.150 E0.00505
G1 X95.294 Y108.328 E0.00422
G1 X95.236 Y108.548 E0.00506
G1 X95.200 Y108.773 E0.00505
G1 X95.188 Y109.000 E0.00506
G1 X95.200 Y109.228 E0.00506
G1 X95.236 Y109.453 E0.00506
G1 X95.294 Y109.672 E0.00505
G1 X95.376 Y109.885 E0.00506
G1 X95.479 Y110.088 E0.00505
G1 X95.603 Y110.279 E0.00506
G1 X95.745 Y110.456 E0.00506
G1 X95.906 Y110.618 E0.00506
G1 X96.083 Y110.762 E0.00506
G1 X96.274 Y110.886 E0.00505
G1 X96.476 Y110.990 E0.00505
G1 X96.689 Y111.073 E0.00506
G1 X96.908 Y111.132 E0.00506
G1 X97.133 Y111.169 E0.00505
G1 X97.360 Y111.182 E0.00506
G1 X97.588 Y111.171 E0.00506
G1 X97.813 Y111.136 E0.00505
G1 X98.033 Y111.079 E0.00506
G1 X98.247 Y110.998 E0.00506
G1 X98.450 Y110.896 E0.00505
G1 X98.642 Y110.773 E0.00506
G1 X98.819 Y110.631 E0.00505
G1 X98.982 Y110.471 E0.00506
G1 X99.126 Y110.295 E0.00505
G1 X99.252 Y110.105 E0.00506
G1 X99.385 Y109.873 E0.00594
G1 X99.550 Y109.917 E0.00380
G1 X99.550 Y110.814 E0.01991
G1 X97.814 Y112.550 E0.05453
G1 X62.186 Y112.550 E0.79117
G1 X60.450 Y110.814 E0.05453
G1 X60.450 Y109.916 E0.01994
G1 X60.617 Y109.872 E0.00383
G1 X60.798 Y110.185 E0.00804
G1 X60.932 Y110.370 E0.00506
G1 X61.084 Y110.539 E0.00506
G1 X61.253 Y110.692 E0.00506
G1 X61.437 Y110.827 E0.00506
G1 X61.634 Y110.941 E0.00506
G1 X61.841 Y111.034 E0.00506
G1 X62.058 Y111.105 E0.00506
G1 X62.280 Y111.154 E0.00506
G1 X62.507 Y111.178 E0.00505
G1 X62.620 Y111.182 E0.00253
G1 X62.848 Y111.171 E0.00506
G1 X63.073 Y111.136 E0.00506
G1 X63.293 Y111.079 E0.00506
G1 X63.507 Y110.998 E0.00506
G1 X63.710 Y110.896 E0.00505
G1 X63.902 Y110.773 E0.00506
G1 X64.079 Y110.631 E0.00506
G1 X64.242 Y110.471 E0.00506
G1 X64.386 Y110.295 E0.00506
G1 X64.512 Y110.105 E0.00506
G1 X64.616 Y109.902 E0.00506
G1 X64.700 Y109.690 E0.00506
G1 X64.760 Y109.471 E0.00506
G1 X64.798 Y109.246 E0.00506
G1 X64.812 Y109.020 E0.00503
