; generated by Slic3r 0.9.2-dev on 2012-09-17 at 16:25:39

; layer_height = 0.25
; perimeters = 3
; solid_layers = 3
; fill_density = 0.25
; perimeter_speed = 32
; infill_speed = 48
; travel_speed = 250
; scale = 1
; nozzle_diameter = 0.3
; filament_diameter = 1.71
; extrusion_multiplier = 0.85
; single wall width = 0.30mm
; first layer single wall width = 0.30mm

M107
M190 S110 ; wait for bed temperature to be reached
M104 S245 ; set temperature
G28 X0 Y0
G1 X80 Y80 F12000
G28 Z0
G1 Z0.25 F200
G1 X15 Y20 F12000
M109 S245 ; wait for temperature to be reached
G90 ; use absolute coordinates
G21 ; set units to millimeters
M83 ; use relative distances for extrusion
G1 Z0.250 F15000.000
G1 X55.690 Y42.690
G1 F2700.000 E1.20000
G1 X55.870 Y42.500
G1 X55.870 Y42.500 F1920.000
G1 X56.480 Y42.010 E0.02172
G1 X57.140 Y41.600 E0.02157
G1 X57.610 Y41.370 E0.01452
G1 X58.090 Y41.180 E0.01433
G1 X58.590 Y41.030 E0.01449
G1 X58.850 Y40.970 E0.00741
G1 X59.620 Y40.860 E0.02159
G1 X60.140 Y40.840 E0.01445
G1 X100.360 Y40.860 E1.11645
G1 X101.130 Y40.970 E0.02159
G1 X101.640 Y41.100 E0.01461
G1 X102.130 Y41.270 E0.01440
G1 X102.610 Y41.480 E0.01454
G1 X102.840 Y41.600 E0.00720
G1 X103.500 Y42.010 E0.02157
G1 X104.110 Y42.500 E0.02172
G1 X104.290 Y42.690 E0.00727
G1 X104.480 Y42.870 E0.00727
G1 X104.970 Y43.480 E0.02172
G1 X105.380 Y44.140 E0.02157
G1 X105.610 Y44.610 E0.01452
G1 X105.800 Y45.090 E0.01433
G1 X105.950 Y45.590 E0.01449
G1 X106.010 Y45.850 E0.00741
G1 X106.120 Y46.620 E0.02159
G1 X106.120 Y111.480 E1.80042
G1 X106.090 Y111.750 E0.00754
G1 X105.930 Y112.560 E0.02292
G1 X105.660 Y113.340 E0.02291
G1 X105.430 Y113.840 E0.01528
G1 X105.300 Y114.080 E0.00758
G1 X104.840 Y114.770 E0.02302
G1 X104.670 Y114.980 E0.00750
G1 X102.190 Y117.480 E0.09775
G1 X101.980 Y117.670 E0.00786
G1 X101.770 Y117.840 E0.00750
G1 X101.080 Y118.300 E0.02302
G1 X100.590 Y118.550 E0.01527
G1 X100.080 Y118.760 E0.01531
G1 X99.560 Y118.930 E0.01519
G1 X98.750 Y119.090 E0.02292
G1 X98.480 Y119.120 E0.00754
G1 X97.930 Y119.140 E0.01528
G1 X61.510 Y119.120 E1.01097
G1 X61.240 Y119.090 E0.00754
G1 X60.430 Y118.930 E0.02292
G1 X59.910 Y118.760 E0.01519
G1 X59.160 Y118.430 E0.02275
G1 X58.690 Y118.160 E0.01505
G1 X58.240 Y117.850 E0.01517
G1 X58.020 Y117.680 E0.00772
G1 X55.510 Y115.200 E0.09795
G1 X55.320 Y114.990 E0.00786
G1 X55.150 Y114.780 E0.00750
G1 X54.830 Y114.330 E0.01533
G1 X54.430 Y113.600 E0.02311
G1 X54.220 Y113.090 E0.01531
G1 X54.130 Y112.830 E0.00764
G1 X53.990 Y112.300 E0.01522
G1 X53.890 Y111.760 E0.01524
G1 X53.860 Y111.480 E0.00782
G1 X53.860 Y46.620 E1.80042
G1 X53.970 Y45.850 E0.02159
G1 X54.100 Y45.340 E0.01461
G1 X54.270 Y44.850 E0.01440
G1 X54.480 Y44.370 E0.01454
G1 X54.600 Y44.140 E0.00720
G1 X55.010 Y43.480 E0.02157
G1 X55.500 Y42.870 E0.02172
G1 X55.636 Y42.742 E0.00518
G1 F2700.000 E-1.20000
G1 X96.247 Y107.488 F15000.000
G1 F2700.000 E1.20000
G1 X96.133 Y107.580
G1 X96.133 Y107.580 F1500.000
G1 X96.084 Y107.622 E0.00177
G1 X96.016 Y107.692 E0.00272
G1 X95.923 Y107.792 E0.00280
G1 X95.805 Y107.950 E0.00547
G1 X95.691 Y108.148 E0.00289
G1 X95.569 Y108.447 E0.00450
G1 X95.526 Y108.609 E0.00464
G1 X95.488 Y109.064 E0.00359
G1 X95.549 Y109.482 E0.00159
G1 X95.569 Y109.551 E0.00199
G1 X95.623 Y109.704 E0.00450
G1 X95.739 Y109.942 E0.00289
G1 X95.923 Y110.206 E0.00547
G1 X95.989 Y110.282 E0.00280
G1 X96.084 Y110.376 E0.00272
G1 X96.262 Y110.521 E0.00637
G1 X96.370 Y110.595 E0.00364
G1 X96.486 Y110.661 E0.00220
G1 X96.568 Y110.702 E0.00175
G1 X96.684 Y110.753 E0.00351
G1 X96.833 Y110.809 E0.00440
G1 X96.936 Y110.831 E0.00292
G1 X97.007 Y110.846 E0.00203
G1 X97.165 Y110.871 E0.00286
G1 X97.296 Y110.880 E0.00363
G1 X97.456 Y110.880 E0.00446
G1 X97.530 Y110.875 E0.00206
G1 X97.689 Y110.854 E0.00286
G1 X97.786 Y110.833 E0.00277
G1 X97.908 Y110.807 E0.00259
G1 X98.094 Y110.737 E0.00553
G1 X98.214 Y110.681 E0.00367
G1 X98.355 Y110.603 E0.00450
G1 X98.412 Y110.565 E0.00190
G1 X98.543 Y110.470 E0.00447
G1 X98.626 Y110.400 E0.00303
G1 X98.760 Y110.268 E0.00382
G1 X98.887 Y110.112 E0.00558
G1 X98.977 Y109.977 E0.00449
G1 X99.067 Y109.812 E0.00524
G1 X99.134 Y109.657 E0.00347
G1 X99.165 Y109.565 E0.00168
G1 X99.199 Y109.440 E0.00359
G1 X99.221 Y109.337 E0.00292
G1 X99.243 Y109.180 E0.00346
G1 X99.250 Y109.078 E0.00283
G1 X99.245 Y108.845 E0.00210
G1 X99.221 Y108.661 E0.00516
G1 X99.199 Y108.558 E0.00292
G1 X99.165 Y108.433 E0.00359
G1 X99.144 Y108.376 E0.00168
G1 X99.067 Y108.186 E0.00359
G1 X98.957 Y107.989 E0.00628
G1 X98.863 Y107.853 E0.00460
G1 X98.760 Y107.730 E0.00444
G1 X98.664 Y107.632 E0.00382
G1 X98.596 Y107.570 E0.00176
G1 X98.441 Y107.452 E0.00542
G1 X98.355 Y107.395 E0.00284
G1 X98.214 Y107.317 E0.00450
G1 X98.065 Y107.248 E0.00454
G1 X97.969 Y107.215 E0.00285
G1 X97.689 Y107.144 E0.00362
G1 X97.587 Y107.129 E0.00286
G1 X97.456 Y107.118 E0.00206
G1 X97.244 Y107.104 E0.00582
G1 X97.165 Y107.127 E0.00220
G1 X97.063 Y107.142 E0.00286
G1 X96.936 Y107.167 E0.00203
G1 X96.809 Y107.202 E0.00205
G1 X96.684 Y107.245 E0.00202
G1 X96.535 Y107.312 E0.00290
G1 X96.435 Y107.365
G1 X96.306 Y107.094 F2700.000 E-1.20000
G1 X97.446 Y80.880 F15000.000
G1 F2700.000 E1.20000
G1 X97.456 Y80.880
G1 X97.530 Y80.875 F600.000 E0.00206
G1 X97.689 Y80.854 E0.00286
G1 X97.816 Y80.827 E0.00362
G1 X98.094 Y80.737 E0.00369
G1 X98.214 Y80.681 E0.00367
G1 X98.356 Y80.603 E0.00450
G1 X98.543 Y80.471 E0.00637
G1 X98.622 Y80.404 E0.00286
G1 X98.760 Y80.268 E0.00382
G1 X98.887 Y80.112 E0.00558
G1 X98.977 Y79.977 E0.00449
G1 X99.067 Y79.812 E0.00524
G1 X99.134 Y79.657 E0.00347
G1 X99.185 Y79.496 E0.00366
G1 X99.221 Y79.337 E0.00375
G1 X99.243 Y79.180 E0.00442
G1 X99.250 Y79.078 E0.00283
G1 X99.250 Y78.970 E0.00169
G1 X99.243 Y78.818 E0.00283
G1 X99.221 Y78.661 E0.00442
G1 X99.193 Y78.529 E0.00374
G1 X99.165 Y78.433 E0.00275
G1 X99.144 Y78.376 E0.00168
G1 X99.067 Y78.186 E0.00359
G1 X99.001 Y78.061 E0.00395
G1 X98.920 Y77.934 E0.00417
G1 X98.863 Y77.853 E0.00275
G1 X98.760 Y77.730 E0.00444
G1 X98.664 Y77.632 E0.00382
G1 X98.595 Y77.570 E0.00176
G1 X98.441 Y77.452 E0.00542
G1 X98.355 Y77.395 E0.00284
G1 X98.214 Y77.317 E0.00450
G1 X98.094 Y77.261 E0.00367
G1 X97.969 Y77.215 E0.00369
G1 X97.689 Y77.144 E0.00362
G1 X97.587 Y77.129 E0.00286
G1 X97.456 Y77.118 E0.00206
G1 X97.244 Y77.104 E0.00582
G1 X97.165 Y77.127 E0.00220
G1 X97.063 Y77.142 E0.00286
G1 X96.936 Y77.167 E0.00203
G1 X96.809 Y77.202 E0.00205
G1 X96.684 Y77.245 E0.00202
G1 X96.535 Y77.312 E0.00289
G1 X96.417 Y77.375 E0.00220
G1 X96.229 Y77.501 E0.00478
G1 X96.084 Y77.622 E0.00523
G1 X96.016 Y77.692 E0.00272
G1 X95.923 Y77.792 E0.00280
G1 X95.805 Y77.950 E0.00261
G1 X95.691 Y78.148 E0.00288
G1 X95.569 Y78.447 E0.00450
G1 X95.526 Y78.609 E0.00464
G1 X95.488 Y79.064 E0.00359
G1 X95.569 Y79.551 E0.00402
G1 X95.623 Y79.704 E0.00450
G1 X95.739 Y79.941 E0.00288
G1 X95.923 Y80.206 E0.00547
G1 X95.989 Y80.282 E0.00280
G1 X96.084 Y80.376 E0.00272
G1 X96.262 Y80.521 E0.00637
G1 X96.371 Y80.595 E0.00364
G1 X96.486 Y80.661 E0.00220
G1 X96.568 Y80.702 E0.00175
G1 X96.684 Y80.753 E0.00351
G1 X96.752 Y80.778 E0.00202
G1 X96.880 Y80.817 E0.00281
G1 X97.007 Y80.846 E0.00203
G1 X97.165 Y80.871 E0.00286
G1 X97.221 Y80.875
G1 X96.969 Y80.670 F2700.000 E-1.20000
G1 X97.619 Y51.869 F15000.000
G1 F2700.000 E1.20000
G1 X97.687 Y51.855
G1 X97.687 Y51.855 F1500.000
G1 X97.780 Y51.835 E0.00259
G1 X98.094 Y51.737 E0.00501
G1 X98.214 Y51.681 E0.00366
G1 X98.356 Y51.603 E0.00450
G1 X98.543 Y51.471 E0.00637
G1 X98.626 Y51.400 E0.00303
G1 X98.760 Y51.268 E0.00382
G1 X98.887 Y51.112 E0.00558
G1 X98.977 Y50.977 E0.00449
G1 X99.067 Y50.812 E0.00524
G1 X99.134 Y50.657 E0.00347
G1 X99.165 Y50.565 E0.00168
G1 X99.232 Y50.330 E0.00679
G1 X99.246 Y50.136 E0.00539
G1 X99.250 Y50.078 E0.00163
G1 X99.243 Y49.818 E0.00283
G1 X99.221 Y49.661 E0.00437
G1 X99.199 Y49.558 E0.00292
G1 X99.165 Y49.433 E0.00359
G1 X99.144 Y49.376 E0.00168
G1 X99.067 Y49.186 E0.00359
G1 X99.039 Y49.131 E0.00172
G1 X98.957 Y48.989 E0.00452
G1 X98.863 Y48.853 E0.00460
G1 X98.760 Y48.730 E0.00444
G1 X98.664 Y48.632 E0.00273
G1 X98.595 Y48.570 E0.00176
G1 X98.431 Y48.435 E0.00591
G1 X98.214 Y48.317 E0.00687
G1 X98.094 Y48.261 E0.00367
G1 X97.852 Y48.150 E0.00737
G1 X97.689 Y48.144 E0.00464
G1 X97.587 Y48.129 E0.00286
G1 X97.456 Y48.118 E0.00206
G1 X97.296 Y48.118 E0.00446
G1 X97.165 Y48.127 E0.00363
G1 X97.063 Y48.142 E0.00286
G1 X96.936 Y48.167 E0.00203
G1 X96.809 Y48.202 E0.00205
G1 X96.684 Y48.245 E0.00202
G1 X96.535 Y48.312 E0.00289
G1 X96.417 Y48.375 E0.00220
G1 X96.229 Y48.502 E0.00478
G1 X96.084 Y48.622 E0.00523
G1 X96.016 Y48.692 E0.00272
G1 X95.923 Y48.792 E0.00280
G1 X95.805 Y48.950 E0.00547
G1 X95.691 Y49.148 E0.00289
G1 X95.569 Y49.447 E0.00450
G1 X95.526 Y49.609 E0.00464
G1 X95.488 Y50.064 E0.00359
G1 X95.549 Y50.482 E0.00159
G1 X95.569 Y50.551 E0.00199
G1 X95.623 Y50.704 E0.00450
G1 X95.739 Y50.941 E0.00288
G1 X95.923 Y51.206 E0.00547
G1 X95.989 Y51.282 E0.00280
G1 X96.084 Y51.376 E0.00272
G1 X96.262 Y51.521 E0.00637
G1 X96.371 Y51.595 E0.00364
G1 X96.486 Y51.661 E0.00220
G1 X96.568 Y51.702 E0.00175
G1 X96.684 Y51.753 E0.00351
G1 X96.752 Y51.778 E0.00202
G1 X96.880 Y51.817 E0.00281
G1 X97.016 Y51.848 E0.00228
G1 X97.296 Y51.880 E0.00778
G1 X97.387 Y51.880 E0.00255
G1 X97.417 Y51.880
G1 X97.090 Y51.841 F2700.000 E-1.20000
G1 X64.510 Y50.054 F15000.000
G1 F2700.000 E1.20000
G1 X64.510 Y50.031
G1 X64.492 Y49.668 F600.000 E0.00702
G1 X64.425 Y49.433 E0.00678
G1 X64.404 Y49.376 E0.00168
G1 X64.327 Y49.186 E0.00359
G1 X64.217 Y48.989 E0.00628
G1 X64.144 Y48.881 E0.00362
G1 X64.059 Y48.775 E0.00205
G1 X64.020 Y48.730 E0.00164
G1 X63.924 Y48.632 E0.00382
G1 X63.803 Y48.528 E0.00289
G1 X63.615 Y48.395 E0.00637
G1 X63.474 Y48.317 E0.00450
G1 X63.389 Y48.277 E0.00259
G1 X63.229 Y48.215 E0.00369
G1 X63.020 Y48.153 E0.00455
G1 X62.847 Y48.129 E0.00485
G1 X62.716 Y48.118 E0.00206
G1 X62.556 Y48.118 E0.00446
G1 X62.425 Y48.127 E0.00363
G1 X62.323 Y48.142 E0.00286
G1 X62.196 Y48.167 E0.00203
G1 X62.069 Y48.202 E0.00205
G1 X61.944 Y48.245 E0.00202
G1 X61.795 Y48.312 E0.00289
G1 X61.677 Y48.375 E0.00220
G1 X61.489 Y48.502 E0.00478
G1 X61.392 Y48.581 E0.00346
G1 X61.183 Y48.792 E0.00694
G1 X61.036 Y48.956 E0.00577
G1 X61.015 Y49.033 E0.00175
G1 X60.951 Y49.148 E0.00288
G1 X60.845 Y49.396 E0.00302
G1 X60.797 Y49.572 E0.00499
G1 X60.739 Y50.055 E0.00421
G1 X60.755 Y50.167 E0.00314
G1 X60.810 Y50.482 E0.00159
G1 X60.829 Y50.551 E0.00199
G1 X60.883 Y50.704 E0.00450
G1 X61.183 Y51.206 E0.01181
G1 X61.344 Y51.376 E0.00651
G1 X61.522 Y51.521 E0.00637
G1 X61.631 Y51.595 E0.00364
G1 X61.746 Y51.661 E0.00220
G1 X61.828 Y51.702 E0.00175
G1 X61.944 Y51.753 E0.00351
G1 X62.012 Y51.778 E0.00202
G1 X62.140 Y51.817 E0.00281
G1 X62.267 Y51.846 E0.00203
G1 X62.425 Y51.871 E0.00286
G1 X62.556 Y51.880 E0.00363
G1 X62.716 Y51.880 E0.00446
G1 X62.790 Y51.875 E0.00205
G1 X62.898 Y51.865 E0.00221
G1 X63.177 Y51.800 E0.00829
G1 X63.354 Y51.737 E0.00369
G1 X63.474 Y51.681 E0.00366
G1 X63.615 Y51.603 E0.00450
G1 X63.803 Y51.470 E0.00637
G1 X63.882 Y51.403 E0.00289
G1 X64.020 Y51.268 E0.00382
G1 X64.106 Y51.166 E0.00370
G1 X64.237 Y50.977 E0.00466
G1 X64.327 Y50.812 E0.00524
G1 X64.394 Y50.657 E0.00347
G1 X64.425 Y50.565 E0.00168
G1 X64.459 Y50.440 E0.00359
G1 X64.488 Y50.306 E0.00280
G1 X64.494 Y50.277
G1 X64.246 Y50.128 F2700.000 E-1.20000
G1 X62.566 Y77.118 F15000.000
G1 F2700.000 E1.20000
G1 X62.556 Y77.118
G1 X62.425 Y77.127 F600.000 E0.00263
G1 X62.323 Y77.142 E0.00286
G1 X62.196 Y77.167 E0.00203
G1 X62.069 Y77.202 E0.00205
G1 X61.944 Y77.245 E0.00202
G1 X61.795 Y77.312 E0.00289
G1 X61.677 Y77.375 E0.00220
G1 X61.489 Y77.501 E0.00478
G1 X61.344 Y77.622 E0.00523
G1 X61.183 Y77.792 E0.00651
G1 X61.029 Y78.007 E0.00447
G1 X60.935 Y78.178 E0.00382
G1 X60.829 Y78.447 E0.00793
G1 X60.786 Y78.609 E0.00464
G1 X60.733 Y78.974 E0.00562
G1 X60.748 Y79.064 E0.00250
G1 X60.809 Y79.482 E0.00159
G1 X60.829 Y79.551 E0.00199
G1 X60.883 Y79.704 E0.00450
G1 X60.999 Y79.941 E0.00288
G1 X61.142 Y80.154 E0.00549
G1 X61.183 Y80.206 E0.00184
G1 X61.344 Y80.376 E0.00651
G1 X61.522 Y80.521 E0.00637
G1 X61.631 Y80.595 E0.00364
G1 X61.746 Y80.661 E0.00220
G1 X61.828 Y80.702 E0.00175
G1 X61.944 Y80.753 E0.00351
G1 X62.012 Y80.778 E0.00202
G1 X62.140 Y80.817 E0.00281
G1 X62.267 Y80.846 E0.00203
G1 X62.425 Y80.871 E0.00286
G1 X62.556 Y80.880 E0.00363
G1 X62.716 Y80.880 E0.00446
G1 X62.790 Y80.875 E0.00206
G1 X62.949 Y80.854 E0.00286
G1 X63.076 Y80.827 E0.00362
G1 X63.354 Y80.737 E0.00369
G1 X63.474 Y80.681 E0.00257
G1 X63.615 Y80.603 E0.00450
G1 X63.803 Y80.471 E0.00637
G1 X64.020 Y80.268 E0.00382
G1 X64.106 Y80.166 E0.00370
G1 X64.237 Y79.977 E0.00466
G1 X64.327 Y79.812 E0.00524
G1 X64.394 Y79.657 E0.00347
G1 X64.445 Y79.496 E0.00366
G1 X64.476 Y79.370 E0.00359
G1 X64.503 Y79.180 E0.00535
G1 X64.510 Y79.078 E0.00283
G1 X64.503 Y78.818 E0.00284
G1 X64.481 Y78.661 E0.00442
G1 X64.459 Y78.558 E0.00292
G1 X64.425 Y78.433 E0.00359
G1 X64.404 Y78.376 E0.00168
G1 X64.327 Y78.186 E0.00359
G1 X64.217 Y77.989 E0.00628
G1 X64.144 Y77.881 E0.00362
G1 X64.020 Y77.730 E0.00370
G1 X63.924 Y77.632 E0.00382
G1 X63.803 Y77.528 E0.00289
G1 X63.615 Y77.395 E0.00637
G1 X63.474 Y77.317 E0.00450
G1 X63.354 Y77.261 E0.00367
G1 X63.229 Y77.215 E0.00369
G1 X62.949 Y77.144 E0.00362
G1 X62.847 Y77.129 E0.00286
G1 X62.791 Y77.123
G1 X62.793 Y76.829 F2700.000 E-1.20000
G1 X62.566 Y107.118 F15000.000
G1 F2700.000 E1.20000
G1 X62.556 Y107.118
G1 X62.425 Y107.127 F600.000 E0.00363
G1 X62.323 Y107.142 E0.00286
G1 X62.167 Y107.173 E0.00285
G1 X62.069 Y107.202 E0.00205
G1 X61.944 Y107.245 E0.00202
G1 X61.795 Y107.312 E0.00290
G1 X61.677 Y107.375 E0.00220
G1 X61.489 Y107.502 E0.00479
G1 X61.344 Y107.622 E0.00522
G1 X61.183 Y107.792 E0.00651
G1 X61.086 Y107.921 E0.00449
G1 X61.029 Y108.007 E0.00284
G1 X60.951 Y108.148 E0.00289
G1 X60.829 Y108.447 E0.00450
G1 X60.786 Y108.609 E0.00464
G1 X60.748 Y109.064 E0.00467
G1 X60.809 Y109.482 E0.00158
G1 X60.829 Y109.551 E0.00199
G1 X60.883 Y109.704 E0.00450
G1 X60.999 Y109.942 E0.00289
G1 X61.142 Y110.154 E0.00438
G1 X61.183 Y110.206 E0.00184
G1 X61.344 Y110.376 E0.00651
G1 X61.522 Y110.521 E0.00637
G1 X61.630 Y110.595 E0.00364
G1 X61.746 Y110.661 E0.00220
G1 X61.828 Y110.702 E0.00175
G1 X61.944 Y110.753 E0.00351
G1 X62.012 Y110.778 E0.00202
G1 X62.140 Y110.817 E0.00281
G1 X62.267 Y110.846 E0.00203
G1 X62.425 Y110.871 E0.00286
G1 X62.556 Y110.880 E0.00363
G1 X62.716 Y110.880 E0.00446
G1 X62.790 Y110.875 E0.00206
G1 X62.949 Y110.854 E0.00286
G1 X63.049 Y110.833 E0.00285
G1 X63.354 Y110.737 E0.00369
G1 X63.474 Y110.681 E0.00367
G1 X63.615 Y110.603 E0.00450
G1 X63.803 Y110.470 E0.00637
G1 X63.882 Y110.403 E0.00289
G1 X64.020 Y110.268 E0.00382
G1 X64.106 Y110.166 E0.00370
G1 X64.237 Y109.977 E0.00466
G1 X64.300 Y109.869 E0.00347
G1 X64.346 Y109.772 E0.00294
G1 X64.394 Y109.657 E0.00347
G1 X64.425 Y109.565 E0.00168
G1 X64.459 Y109.440 E0.00359
G1 X64.481 Y109.337 E0.00191
G1 X64.503 Y109.180 E0.00442
G1 X64.510 Y109.078 E0.00283
G1 X64.510 Y108.795 E0.00480
G1 X64.459 Y108.558 E0.00673
G1 X64.425 Y108.433 E0.00359
G1 X64.404 Y108.376 E0.00168
G1 X64.327 Y108.186 E0.00359
G1 X64.217 Y107.989 E0.00628
G1 X64.144 Y107.881 E0.00362
G1 X64.020 Y107.730 E0.00370
G1 X63.924 Y107.632 E0.00382
G1 X63.803 Y107.527 E0.00289
G1 X63.615 Y107.395 E0.00637
G1 X63.474 Y107.317 E0.00450
G1 X63.354 Y107.261 E0.00367
G1 X63.229 Y107.215 E0.00369
G1 X62.949 Y107.144 E0.00362
G1 X62.847 Y107.129 E0.00286
G1 X62.791 Y107.123
G1 X62.733 Y106.518 F15000.000
G1 X62.534 Y106.518 F2700.000
G1 X62.534 Y106.518 F1920.000
G1 X62.361 Y106.530 E0.00481
G1 X62.218 Y106.551 E0.00402
G1 X61.567 Y106.688 E0.01689
G1 X61.567 Y106.759 E0.00195
G1 X61.478 Y106.799 E0.00271
G1 X61.359 Y106.866 E0.00378
G1 X61.119 Y107.029 E0.00685
G1 X60.856 Y107.257 E0.00965
G1 X60.750 Y107.210 E0.00323
G1 X60.750 Y80.788 E0.73343
G1 X60.856 Y80.741 E0.00323
G1 X61.119 Y80.969 E0.00965
G1 X61.175 Y81.011 E0.00196
G1 X61.321 Y81.110 E0.00488
G1 X61.478 Y81.199 E0.00378
G1 X61.576 Y81.247 E0.00223
G1 X61.717 Y81.309 E0.00428
G1 X61.822 Y81.348 E0.00310
