; generated by Slic3r 0.9.2-dev on 2012-09-17 at 10:09:32

; layer_height = 0.3
; perimeters = 2
; solid_layers = 3
; fill_density = 0.25
; perimeter_speed = 30
; infill_speed = 48
; travel_speed = 250
; scale = 1
; nozzle_diameter = 0.5
; filament_diameter = 1.75
; extrusion_multiplier = 0.79
; single wall width = 0.50mm
; first layer single wall width = 0.50mm

M107
M190 S57 ; wait for bed temperature to be reached
M104 S200 ; set temperature
G28 X0 Y0
G1 X75 Y75 F12000
G28 Z0
G1 Z0.3 F200
G1 X15 Y20 F12000
M109 S200 ; wait for temperature to be reached
G90 ; use absolute coordinates
G21 ; set units to millimeters
G92 E0
M82 ; use absolute distances for extrusion
G1 Z0.300 F15000.000
G1 X56.210 Y57.130
G1 F3000.000 E1.60000
G1 X56.370 Y56.930
G1 X56.370 Y56.930 F1800.000
G1 X56.930 Y56.370 E1.63902
G1 X57.340 Y56.040 E1.66495
G1 X57.550 Y55.890 E1.67766
G1 X58.220 Y55.480 E1.71636
G1 X58.690 Y55.260 E1.74193
G1 X59.180 Y55.070 E1.76782
G1 X59.940 Y54.870 E1.80654
G1 X60.200 Y54.820 E1.81958
G1 X60.720 Y54.760 E1.84537
G1 X61.240 Y54.740 E1.87101
G1 X89.260 Y54.760 E3.25146
G1 X89.780 Y54.820 E3.27724
G1 X90.300 Y54.930 E3.30343
G1 X90.800 Y55.070 E3.32901
G1 X91.290 Y55.260 E3.35490
G1 X91.760 Y55.480 E3.38047
G1 X92.430 Y55.890 E3.41917
G1 X92.640 Y56.040 E3.43188
G1 X93.050 Y56.370 E3.45781
G1 X93.610 Y56.930 E3.49683
G1 X93.940 Y57.340 E3.52276
G1 X94.090 Y57.550 E3.53547
G1 X94.500 Y58.220 E3.57417
G1 X94.720 Y58.690 E3.59974
G1 X94.910 Y59.180 E3.62563
G1 X95.110 Y59.940 E3.66435
G1 X95.160 Y60.200 E3.67739
G1 X95.220 Y60.720 E3.70318
G1 X95.220 Y76.910 E4.50080
G1 X95.090 Y77.750 E4.54268
G1 X94.850 Y78.560 E4.58430
G1 X94.750 Y78.830 E4.59849
G1 X94.510 Y79.340 E4.62626
G1 X87.070 Y92.220 E5.35907
G1 X86.760 Y92.670 E5.38599
G1 X86.410 Y93.090 E5.41292
G1 X86.030 Y93.480 E5.43975
G1 X85.400 Y94.000 E5.47999
G1 X84.950 Y94.300 E5.50664
G1 X84.710 Y94.440 E5.52033
G1 X84.220 Y94.680 E5.54721
G1 X83.720 Y94.880 E5.57374
G1 X83.200 Y95.040 E5.60054
G1 X82.660 Y95.150 E5.62769
G1 X82.120 Y95.220 E5.65452
G1 X81.580 Y95.240 E5.68114
G1 X67.870 Y95.220 E6.35659
G1 X67.330 Y95.150 E6.38341
G1 X66.790 Y95.040 E6.41056
G1 X66.270 Y94.880 E6.43737
G1 X65.770 Y94.680 E6.46390
G1 X65.280 Y94.440 E6.49078
G1 X64.810 Y94.160 E6.51773
G1 X64.370 Y93.840 E6.54454
G1 X63.960 Y93.480 E6.57142
G1 X63.400 Y92.890 E6.61149
G1 X62.920 Y92.230 E6.65170
G1 X55.350 Y79.090 E7.39881
G1 X55.130 Y78.570 E7.42662
G1 X54.890 Y77.750 E7.46872
G1 X54.760 Y76.910 E7.51059
G1 X54.760 Y60.720 E8.30822
G1 X54.820 Y60.200 E8.33401
G1 X54.930 Y59.680 E8.36019
G1 X55.070 Y59.180 E8.38577
G1 X55.260 Y58.690 E8.41167
G1 X55.480 Y58.220 E8.43723
G1 X55.890 Y57.550 E8.47593
G1 X56.040 Y57.340 E8.48865
G1 X56.131 Y57.227 E8.49580
G1 F3000.000 E6.89580
G92 E0
G1 X73.474 Y86.913 F15000.000
G1 F3000.000 E1.60000
G1 X73.967 Y87.000
G1 X75.615 Y87.290 F720.000 E1.68249
G1 X77.715 Y86.078 E1.80193
G1 X78.544 Y83.800 E1.92136
G1 X77.715 Y81.522 E2.04080
G1 X75.615 Y80.310 E2.16024
G1 X73.228 Y80.731 E2.27967
G1 X71.670 Y82.588 E2.39911
G1 X71.670 Y85.012 E2.51856
G1 X72.505 Y86.008 E2.58257
G1 X72.987 Y86.582
G1 X73.740 Y86.452 F15000.000
G1 X74.233 Y86.539 F3000.000
G1 X75.523 Y86.766 F624.000 E2.64713
G1 X77.307 Y85.736 E2.74863
G1 X78.012 Y83.800 E2.85014
G1 X77.307 Y81.864 E2.95164
G1 X75.523 Y80.834 E3.05315
G1 X73.494 Y81.191 E3.15465
G1 X72.170 Y82.770 E3.25616
G1 X72.170 Y84.830 E3.35767
G1 X73.092 Y85.930 E3.42839
G1 X73.414 Y86.313
G1 X73.228 Y86.869 F3000.000 E1.82839
G92 E0
G1 X68.578 Y88.033 F15000.000
G1 F3000.000 E1.60000
G1 X68.328 Y87.600
G1 X61.750 Y76.207 F720.000 E2.24817
G1 X61.750 Y61.750 E2.96040
G1 X88.250 Y61.750 E4.26597
G1 X88.250 Y76.207 E4.97820
G1 X87.884 Y76.840 E5.01424
G1 X81.297 Y88.250 E5.66332
G1 X69.828 Y88.250 E6.22834
G1 X69.078 Y88.250
G1 X68.290 Y88.533 F15000.000
G1 X68.040 Y88.100 F3000.000
G1 X61.250 Y76.341 F576.000 E6.89733
G1 X61.250 Y61.250 E7.64080
G1 X88.750 Y61.250 E8.99563
G1 X88.750 Y76.341 E9.73910
G1 X88.452 Y76.857 E9.76848
G1 X81.585 Y88.750 E10.44504
G1 X69.040 Y88.750 E11.06314
G1 X68.540 Y88.750
G1 X69.133 Y87.892 F15000.000
G1 X68.850 Y87.608 F3000.000
G1 X68.850 Y87.608 F2880.000
G1 X69.847 Y87.892 E11.11463
G1 X67.875 Y85.919 E11.25319
G1 X66.900 Y84.230 E11.35008
G1 X70.561 Y87.892 E11.60730
G1 X71.275 Y87.892 E11.64277
G1 X65.925 Y82.541 E12.01866
G1 X64.950 Y80.853 E12.11554
G1 X71.989 Y87.892 E12.61008
G1 X72.703 Y87.892 E12.64555
G1 X63.975 Y79.164 E13.25876
G1 X62.999 Y77.475 E13.35564
G1 X73.295 Y87.770 E14.07897
G1 F3000.000 E12.47897
G92 E0
G1 X76.327 Y87.233 F15000.000
G1 F3000.000 E1.60000
G1 X76.681 Y87.587
G1 X76.986 Y87.892 F1152.000 E1.62141
G1 X77.699 Y87.892 E1.65687
G1 X76.780 Y86.972 E1.72146
G1 X77.233 Y86.711 E1.74743
G1 X78.413 Y87.892 E1.83039
G1 X79.127 Y87.892 E1.86584
G1 X77.685 Y86.449 E1.96716
G1 X78.047 Y86.097 F15000.000
G1 X78.400 Y86.451 F3000.000
G1 X79.841 Y87.892 F1152.000 E2.06837
G1 X80.555 Y87.892 E2.10383
G1 X78.237 Y85.574 E2.26665
G1 X78.428 Y85.051 E2.29431
G1 X81.193 Y87.816 E2.48860
G1 X81.454 Y87.363 E2.51456
G1 X78.618 Y84.527 E2.71381
G1 X78.809 Y84.004 E2.74148
G1 X81.716 Y86.911 E2.94571
G1 X81.977 Y86.458 E2.97167
G1 X78.796 Y83.277 E3.19517
G1 X78.387 Y82.155 E3.25451
G1 X82.238 Y86.006 E3.52507
G1 X82.500 Y85.553 E3.55103
G1 X62.108 Y65.162 E4.98366
G1 X62.108 Y65.876 E5.01911
G1 X76.584 Y80.351 E6.03613
G1 X75.506 Y79.988 E6.09263
G1 X62.108 Y66.590 E7.03393
G1 X62.109 Y67.304 E7.06939
G1 X74.900 Y80.095 E7.96806
G1 X74.293 Y80.202 E7.99867
G1 X62.108 Y68.017 E8.85471
G1 X62.108 Y68.731 E8.89017
G1 X73.686 Y80.309 E9.70357
G1 X73.090 Y80.427 E9.73373
G1 X62.109 Y69.445 E10.50528
G1 X62.108 Y70.159 E10.54074
G1 X72.765 Y80.815 E11.28942
G1 X72.439 Y81.203 E11.31459
G1 X62.108 Y70.873 E12.04038
G1 X62.108 Y71.587 E12.07584
G1 X72.113 Y81.591 E12.77875
G1 X71.787 Y81.980 E12.80392
G1 X62.108 Y72.301 E13.48394
G1 X62.109 Y73.014 E13.51940
G1 X71.462 Y82.368 E14.17654
G1 X71.311 Y82.931 F15000.000
G1 X70.958 Y82.577 F3000.000
G1 X62.108 Y73.728 F1152.000 E14.79826
G1 X62.108 Y74.442 E14.83373
G1 X71.311 Y83.645 E15.48028
G1 X71.311 Y84.359 E15.51574
G1 X62.109 Y75.156 E16.16229
G1 X62.108 Y75.870 E16.19776
G1 X71.311 Y85.072 E16.84431
G1 F3000.000 E15.24431
G92 E0
G1 X82.761 Y85.101 F15000.000
G1 F3000.000 E1.60000
G1 X82.407 Y84.747
G1 X62.108 Y64.448 F1152.000 E3.02615
G1 X62.109 Y63.734 E3.06161
G1 X83.022 Y84.648 E4.53095
G1 X83.283 Y84.196 E4.55690
G1 X62.108 Y63.021 E6.04460
G1 X62.108 Y62.307 E6.08007
G1 X83.545 Y83.743 E7.58613
G1 X83.806 Y83.290 E7.61209
G1 X62.624 Y62.108 E9.10028
G1 X63.338 Y62.109 E9.13574
G1 X84.067 Y82.838 E10.59213
G1 X84.329 Y82.385 E10.61810
G1 X64.052 Y62.108 E12.04270
G1 X64.766 Y62.109 E12.07816
G1 X84.590 Y81.933 E13.47096
G1 X84.851 Y81.480 E13.49692
G1 X65.479 Y62.108 E14.85794
G1 X66.193 Y62.108 E14.89340
G1 X85.112 Y81.028 E16.22261
G1 X85.374 Y80.575 E16.24857
G1 X66.907 Y62.109 E17.54599
G1 X67.621 Y62.108 E17.58145
G1 X85.635 Y80.123 E18.84707
G1 X85.896 Y79.670 E18.87304
G1 X68.335 Y62.108 E20.10686
G1 X69.049 Y62.109 E20.14233
G1 X86.158 Y79.217 E21.34435
G1 X86.419 Y78.765 E21.37032
G1 X69.762 Y62.108 E22.54056
G1 X70.476 Y62.109 E22.57602
G1 X86.680 Y78.312 E23.71446
G1 X86.941 Y77.860 E23.74042
G1 X71.190 Y62.108 E24.84707
G1 X71.904 Y62.108 E24.88253
G1 X87.203 Y77.407 E25.95738
G1 X87.464 Y76.955 E25.98334
G1 X72.618 Y62.109 E27.02639
G1 X73.332 Y62.108 E27.06186
G1 X87.725 Y76.502 E28.07311
G1 X87.892 Y75.954 E28.10155
G1 X74.046 Y62.108 E29.07433
G1 X74.759 Y62.108 E29.10979
G1 X87.892 Y75.241 E30.03242
G1 X87.892 Y74.527 E30.06789
G1 X75.473 Y62.108 E30.94037
G1 X76.187 Y62.109 E30.97583
G1 X87.891 Y73.813 E31.79816
G1 X87.892 Y73.099 E31.83362
G1 X76.901 Y62.108 E32.60580
G1 X77.615 Y62.108 E32.64126
G1 X87.892 Y72.385 E33.36328
G1 X87.892 Y71.671 E33.39874
G1 X78.329 Y62.109 E34.07061
G1 X79.042 Y62.108 E34.10607
G1 X87.892 Y70.958 E34.72779
G1 X87.892 Y70.244 E34.76326
G1 X79.756 Y62.108 E35.33482
G1 X80.470 Y62.108 E35.37028
G1 X87.892 Y69.530 E35.89169
G1 X87.892 Y68.816 E35.92716
G1 X81.184 Y62.108 E36.39842
G1 X81.898 Y62.109 E36.43388
G1 X87.891 Y68.102 E36.85498
G1 X87.892 Y67.388 E36.89044
G1 X82.612 Y62.108 E37.26140
G1 X83.325 Y62.108 E37.29687
G1 X87.892 Y66.675 E37.61767
G1 X87.892 Y65.961 E37.65312
G1 X84.039 Y62.109 E37.92377
G1 X84.753 Y62.108 E37.95924
G1 X87.892 Y65.247 E38.17973
G1 X87.892 Y64.533 E38.21520
G1 X85.467 Y62.108 E38.38554
G1 X86.181 Y62.108 E38.42100
G1 X87.892 Y63.819 E38.54119
G1 X87.892 Y63.105 E38.57666
G1 X86.895 Y62.108 E38.64670
G1 X87.608 Y62.109 E38.68216
G1 X87.892 Y62.392 E38.70205
M106 S255
M104 S185 ; set temperature
G1 F3000.000 E37.10205
G92 E0
G1 Z0.600 F15000.000
G1 X78.459 Y83.565
G1 F3000.000 E1.60000
G1 X78.288 Y83.095
G1 X77.715 Y81.522 F1800.000 E1.68249
G1 X75.615 Y80.310 E1.80193
G1 X73.228 Y80.731 E1.92136
G1 X71.670 Y82.588 E2.04080
G1 X71.670 Y85.012 E2.16025
G1 X73.228 Y86.869 E2.27969
G1 X75.615 Y87.290 E2.39912
G1 X77.715 Y86.078 E2.51856
G1 X78.159 Y84.857 E2.58257
G1 X78.416 Y84.152
G1 X78.002 Y83.827 F15000.000
G1 X78.012 Y83.800 F3000.000
G1 X77.307 Y81.864 F1560.000 E2.68408
G1 X77.092 Y81.740 E2.69630
G1 X75.523 Y80.834 E2.78559
G1 X73.494 Y81.191 E2.88709
G1 X72.170 Y82.770 E2.98860
G1 X72.170 Y84.830 E3.09011
G1 X73.494 Y86.409 E3.19161
G1 X75.523 Y86.766 E3.29312
G1 X77.092 Y85.860 E3.38240
G1 X77.307 Y85.736 E3.39463
G1 X77.703 Y84.650 E3.45159
G1 X77.874 Y84.180
G1 X78.544 Y83.800 F3000.000 E1.85159
G92 E0
G1 X81.047 Y88.250 F15000.000
G1 F3000.000 E1.60000
G1 X80.547 Y88.250
G1 X68.703 Y88.250 F1800.000 E2.18349
G1 X61.750 Y76.207 E2.86861
G1 X61.750 Y61.750 E3.58085
G1 X88.250 Y61.750 E4.88641
G1 X88.250 Y76.207 E5.59864
G1 X81.859 Y87.276 E6.22834
G1 X81.484 Y87.925
G1 X81.335 Y88.750 F15000.000
G1 X80.835 Y88.750 F3000.000
G1 X68.415 Y88.750 F1440.000 E6.84028
G1 X61.250 Y76.341 E7.54622
G1 X61.250 Y61.250 E8.28969
G1 X88.750 Y61.250 E9.64452
G1 X88.750 Y76.341 E10.38798
G1 X81.898 Y88.209 E11.06314
G1 X81.648 Y88.642
G1 X81.150 Y87.608 F15000.000
G1 X80.867 Y87.892 F3000.000
G1 X80.867 Y87.892 F2880.000
G1 X80.153 Y87.892 E11.09859
G1 X82.125 Y85.919 E11.23715
G1 X83.100 Y84.230 E11.33404
G1 X79.439 Y87.892 E11.59127
G1 X78.725 Y87.892 E11.62673
G1 X84.075 Y82.541 E12.00262
G1 X85.050 Y80.852 E12.09951
G1 X78.011 Y87.892 E12.59406
G1 X77.297 Y87.892 E12.62952
G1 X86.025 Y79.163 E13.24274
G1 X87.001 Y77.474 E13.33963
G1 X78.020 Y86.455 E13.97061
G1 X78.104 Y86.371 F15000.000
G1 X77.751 Y86.724 F3000.000
G1 X76.583 Y87.892 F2880.000 E14.05262
G1 X76.415 Y87.346 E14.08098
G1 X75.870 Y87.892 E14.11931
G1 X74.232 Y87.388 F15000.000
G1 X73.879 Y87.741 F3000.000
G1 X73.728 Y87.892 F2880.000 E14.12988
G1 X73.625 Y87.281 E14.16066
G1 X73.014 Y87.892 E14.20358
G1 X72.301 Y87.892 E14.23904
G1 X73.058 Y87.134 E14.29224
G1 X72.732 Y86.746 E14.31742
G1 X71.587 Y87.892 E14.39789
G1 X70.873 Y87.892 E14.43336
G1 X72.406 Y86.358 E14.54111
G1 X72.081 Y85.970 E14.56628
G1 X70.159 Y87.892 E14.70129
G1 X69.445 Y87.892 E14.73676
G1 X71.755 Y85.582 E14.89905
G1 X71.429 Y85.194 E14.92421
G1 X68.807 Y87.816 E15.10847
G1 X68.546 Y87.363 E15.13443
G1 X71.311 Y84.598 E15.32873
G1 X71.311 Y83.884 E15.36420
G1 X68.284 Y86.911 E15.57687
G1 X68.023 Y86.458 E15.60283
G1 X71.311 Y83.170 E15.83385
G1 X71.311 Y82.456 E15.86931
G1 X67.762 Y86.006 E16.11869
G1 X67.500 Y85.553 E16.14466
G1 X87.892 Y65.162 E17.57729
G1 X87.892 Y64.448 E17.61274
G1 X67.239 Y85.101 E19.06373
G1 X66.978 Y84.648 E19.08969
G1 X87.892 Y63.734 E20.55904
G1 X87.892 Y63.021 E20.59450
G1 X66.717 Y84.196 E22.08220
G1 X66.455 Y83.743 E22.10816
G1 X87.892 Y62.307 E23.61422
G1 X87.376 Y62.108 E23.64166
G1 X66.194 Y83.290 E25.12985
G1 X65.933 Y82.838 E25.15581
G1 X86.662 Y62.108 E26.61221
G1 X85.948 Y62.108 E26.64767
G1 X65.671 Y82.385 E28.07227
G1 X65.410 Y81.933 E28.09823
G1 X85.234 Y62.109 E29.49104
G1 X84.521 Y62.108 E29.52650
G1 X65.149 Y81.480 E30.88751
G1 X64.888 Y81.028 E30.91347
G1 X83.807 Y62.108 E32.24269
G1 X83.093 Y62.109 E32.27815
G1 X64.626 Y80.575 E33.57557
G1 X64.365 Y80.123 E33.60153
G1 X82.379 Y62.108 E34.86715
G1 X81.665 Y62.108 E34.90262
G1 X64.104 Y79.670 E36.13645
G1 X63.842 Y79.217 E36.16240
G1 X80.951 Y62.108 E37.36444
G1 X80.238 Y62.108 E37.39990
G1 X63.581 Y78.765 E38.57014
G1 X63.320 Y78.312 E38.59610
G1 X79.524 Y62.109 E39.73454
G1 X78.810 Y62.108 E39.77000
G1 X63.059 Y77.860 E40.87665
G1 X62.797 Y77.407 E40.90261
G1 X78.096 Y62.108 E41.97746
G1 X77.382 Y62.109 E42.01292
G1 X62.536 Y76.955 E43.05598
G1 X62.275 Y76.502 E43.08194
G1 X76.668 Y62.108 E44.09320
G1 X75.954 Y62.108 E44.12867
G1 X62.108 Y75.954 E45.10145
G1 X62.108 Y75.241 E45.13691
G1 X75.241 Y62.108 E46.05954
G1 X74.527 Y62.108 E46.09501
G1 X62.108 Y74.527 E46.96749
G1 X62.109 Y73.813 E47.00295
G1 X73.813 Y62.109 E47.82527
G1 X73.099 Y62.108 E47.86074
G1 X62.108 Y73.099 E48.63291
G1 X62.108 Y72.385 E48.66838
G1 X72.385 Y62.108 E49.39040
G1 X71.671 Y62.108 E49.42586
G1 X62.108 Y71.671 E50.09773
G1 X62.108 Y70.958 E50.13320
G1 X70.958 Y62.108 E50.75492
G1 X70.244 Y62.108 E50.79038
G1 X62.108 Y70.244 E51.36194
G1 X62.108 Y69.530 E51.39740
G1 X69.530 Y62.108 E51.91882
G1 X68.816 Y62.108 E51.95428
G1 X62.108 Y68.816 E52.42554
G1 X62.109 Y68.102 E52.46101
G1 X68.102 Y62.109 E52.88211
G1 X67.388 Y62.108 E52.91757
G1 X62.108 Y67.388 E53.28853
G1 X62.108 Y66.675 E53.32399
G1 X66.675 Y62.108 E53.64479
G1 X65.961 Y62.108 E53.68025
G1 X62.108 Y65.961 E53.95091
G1 X62.108 Y65.247 E53.98637
G1 X65.247 Y62.108 E54.20687
G1 X64.533 Y62.108 E54.24233
G1 X62.108 Y64.533 E54.41267
G1 X62.108 Y63.819 E54.44813
G1 X63.819 Y62.108 E54.56833
G1 X63.105 Y62.108 E54.60379
G1 X62.108 Y63.105 E54.67383
G1 X62.109 Y62.392 E54.70929
G1 X62.392 Y62.109 E54.72918
G1 F3000.000 E53.12918
G92 E0
G1 X73.471 Y80.297 F15000.000
G1 F3000.000 E1.60000
G1 X73.824 Y79.943
G1 X87.892 Y65.876 F2880.000 E2.58833
G1 X87.892 Y66.590 E2.62379
G1 X74.337 Y80.144 E3.57607
G1 X75.204 Y79.991 E3.61979
G1 X87.892 Y67.304 E4.51117
G1 X87.892 Y68.017 E4.54664
G1 X75.830 Y80.079 E5.39407
G1 X76.282 Y80.341 E5.42003
G1 X87.892 Y68.731 E6.23567
G1 X87.892 Y69.445 E6.27113
G1 X76.735 Y80.602 E7.05497
G1 X77.187 Y80.863 E7.08093
G1 X87.892 Y70.159 E7.83297
G1 X87.892 Y70.873 E7.86843
G1 X77.640 Y81.124 E8.58868
G1 X78.028 Y81.450 F15000.000
G1 X78.381 Y81.097 F3000.000
G1 X87.892 Y71.587 F2880.000 E9.25684
G1 X87.892 Y72.301 E9.29230
G1 X78.218 Y81.974 E9.97191
G1 X78.409 Y82.497 E9.99958
G1 X87.892 Y73.014 E10.66580
G1 X87.892 Y73.728 E10.70127
G1 X78.599 Y83.020 E11.35411
G1 X78.790 Y83.544 E11.38178
G1 X87.892 Y74.442 E12.02124
G1 X87.892 Y75.156 E12.05670
G1 X78.837 Y84.211 E12.69288
G1 X78.428 Y85.333 E12.75222
G1 X87.892 Y75.870 E13.41710
G1 F3000.000 E11.81710
G92 E0
G1 Z0.900 F15000.000
G1 X75.369 Y80.353
G1 F3000.000 E1.60000
G1 X74.877 Y80.440
G1 X73.228 Y80.731 F1800.000 E1.68249
G1 X71.670 Y82.588 E1.80192
G1 X71.670 Y85.012 E1.92136
G1 X73.228 Y86.869 E2.04079
G1 X74.935 Y87.170 E2.12619
G1 X75.615 Y87.290 E2.16023
G1 X77.715 Y86.078 E2.27966
G1 X78.843 Y82.979 E2.44215
G1 X78.245 Y82.979 E2.47160
G1 X77.715 Y81.522 E2.54798
G1 X76.590 Y80.872 E2.61199
G1 X75.940 Y80.497
G1 X75.277 Y80.877 F15000.000
G1 X74.784 Y80.964 F3000.000
G1 X73.494 Y81.192 F1560.000 E2.67654
G1 X72.170 Y82.770 E2.77804
G1 X72.170 Y84.830 E2.87955
G1 X73.494 Y86.408 E2.98105
G1 X75.523 Y86.766 E3.08256
G1 X77.307 Y85.736 E3.18406
G1 X78.129 Y83.479 E3.30240
G1 X77.895 Y83.479 E3.31391
G1 X77.307 Y81.864 E3.39858
G1 X76.064 Y81.146 E3.46929
G1 X75.631 Y80.896
G1 X75.615 Y80.310 F3000.000 E1.86929
G92 E0
G1 X81.047 Y88.250 F15000.000
G1 F3000.000 E1.60000
G1 X80.547 Y88.250
G1 X68.703 Y88.250 F1800.000 E2.18349
G1 X61.750 Y76.207 E2.86861
G1 X61.750 Y61.750 E3.58085
G1 X88.250 Y61.750 E4.88641
G1 X88.250 Y76.207 E5.59864
G1 X88.206 Y76.283 E5.60297
G1 X81.859 Y87.276 E6.22834
G1 X81.484 Y87.925
G1 X81.335 Y88.750 F15000.000
G1 X80.835 Y88.750 F3000.000
G1 X68.415 Y88.750 F1440.000 E6.84028
G1 X61.250 Y76.341 E7.54622
G1 X61.250 Y61.250 E8.28969
