; generated by Slic3r 0.9.2-dev on 2012-09-17 at 10:54:57

; layer_height = 0.25
; perimeters = 2
; solid_layers = 3
; fill_density = 0.25
; perimeter_speed = 40
; infill_speed = 48
; travel_speed = 250
; scale = 1
; nozzle_diameter = 0.3
; filament_diameter = 1.71
; extrusion_multiplier = 0.85
; single wall width = 0.30mm
; first layer single wall width = 0.30mm

M107
M190 S105 ; wait for bed temperature to be reached
M104 S240 ; set temperature
G28 X0 Y0
G1 X80 Y80 F12000
G28 Z0
G1 Z0.25 F200
G1 X15 Y20 F12000
M109 S240 ; wait for temperature to be reached
G90 ; use absolute coordinates
G21 ; set units to millimeters
M83 ; use relative distances for extrusion
G1 Z0.250 F15000.000
G1 X61.690 Y61.690
G1 F2700.000 E1.20000
G1 X61.870 Y61.500
G1 X61.870 Y61.500 F2400.000
G1 X62.480 Y61.010 E0.02172
G1 X63.140 Y60.600 E0.02157
G1 X63.610 Y60.370 E0.01452
G1 X64.090 Y60.180 E0.01433
G1 X64.590 Y60.030 E0.01449
G1 X64.850 Y59.970 E0.00741
G1 X65.620 Y59.860 E0.02159
G1 X66.140 Y59.840 E0.01445
G1 X94.360 Y59.860 E0.78335
G1 X95.130 Y59.970 E0.02159
G1 X95.640 Y60.100 E0.01461
G1 X96.130 Y60.270 E0.01440
G1 X96.610 Y60.480 E0.01454
G1 X96.840 Y60.600 E0.00720
G1 X97.500 Y61.010 E0.02157
G1 X98.110 Y61.500 E0.02172
G1 X98.290 Y61.690 E0.00727
G1 X98.480 Y61.870 E0.00727
G1 X98.970 Y62.480 E0.02172
G1 X99.380 Y63.140 E0.02157
G1 X99.610 Y63.610 E0.01452
G1 X99.800 Y64.090 E0.01433
G1 X99.950 Y64.590 E0.01449
G1 X100.010 Y64.850 E0.00741
G1 X100.120 Y65.620 E0.02159
G1 X100.120 Y81.910 E0.45219
G1 X100.090 Y82.180 E0.00754
G1 X99.930 Y82.990 E0.02292
G1 X99.660 Y83.770 E0.02291
G1 X99.430 Y84.270 E0.01528
G1 X91.960 Y97.210 E0.41475
G1 X91.660 Y97.650 E0.01478
G1 X91.500 Y97.850 E0.00711
G1 X91.140 Y98.250 E0.01494
G1 X90.760 Y98.610 E0.01453
G1 X90.130 Y99.090 E0.02199
G1 X89.680 Y99.360 E0.01457
G1 X89.200 Y99.600 E0.01490
G1 X88.710 Y99.790 E0.01459
G1 X88.210 Y99.940 E0.01449
G1 X87.690 Y100.050 E0.01475
G1 X87.170 Y100.120 E0.01456
G1 X86.640 Y100.140 E0.01472
G1 X72.820 Y100.120 E0.38362
G1 X72.300 Y100.050 E0.01456
G1 X71.780 Y99.940 E0.01475
G1 X71.280 Y99.790 E0.01449
G1 X70.790 Y99.600 E0.01459
G1 X70.090 Y99.230 E0.02198
G1 X69.860 Y99.090 E0.00747
G1 X69.230 Y98.610 E0.02199
G1 X68.850 Y98.250 E0.01453
G1 X68.670 Y98.060 E0.00727
G1 X68.330 Y97.650 E0.01479
G1 X68.030 Y97.220 E0.01455
G1 X60.550 Y84.270 E0.41513
G1 X60.220 Y83.520 E0.02275
G1 X60.050 Y82.990 E0.01545
G1 X59.890 Y82.180 E0.02292
G1 X59.860 Y81.910 E0.00754
G1 X59.860 Y65.620 E0.45219
G1 X59.970 Y64.850 E0.02159
G1 X60.100 Y64.340 E0.01461
G1 X60.270 Y63.850 E0.01440
G1 X60.480 Y63.370 E0.01454
G1 X60.600 Y63.140 E0.00720
G1 X61.010 Y62.480 E0.02157
G1 X61.500 Y61.870 E0.02172
G1 X61.636 Y61.742 E0.00518
G1 F2700.000 E-1.20000
G1 X78.566 Y91.566 F15000.000
G1 F2700.000 E1.20000
G1 X78.861 Y91.618
G1 X80.549 Y91.915 F960.000 E0.04758
G1 X82.423 Y90.833 E0.06007
G1 X83.163 Y88.800 E0.06007
G1 X82.423 Y86.767 E0.06007
G1 X80.549 Y85.685 E0.06007
G1 X78.418 Y86.060 E0.06007
G1 X77.027 Y87.718 E0.06007
G1 X77.027 Y89.882 E0.06007
G1 X78.177 Y91.252 E0.04966
G1 X78.274 Y91.367
G1 X78.726 Y91.289 F15000.000
G1 X79.021 Y91.341 F2700.000
G1 X80.494 Y91.601 F600.000 E0.04151
G1 X82.179 Y90.628 E0.05400
G1 X82.844 Y88.800 E0.05400
G1 X82.179 Y86.972 E0.05400
G1 X80.494 Y85.999 E0.05400
G1 X78.578 Y86.337 E0.05400
G1 X77.327 Y87.827 E0.05400
G1 X77.327 Y89.773 E0.05401
G1 X78.510 Y91.183 E0.05109
G1 X78.530 Y91.206
G1 X78.418 Y91.540 F2700.000 E-1.20000
G1 X73.455 Y93.420 F15000.000
G1 F2700.000 E1.20000
G1 X73.305 Y93.160
G1 X66.361 Y81.132 F960.000 E0.38553
G1 X66.450 Y81.132 E0.00248
G1 X66.450 Y66.450 E0.40756
G1 X93.550 Y66.450 E0.75226
G1 X93.550 Y81.287 E0.41186
G1 X86.470 Y93.550 E0.39306
G1 X73.905 Y93.550 E0.34879
G1 X73.755 Y93.550
G1 X73.282 Y93.720 F15000.000
G1 X73.132 Y93.460 F2700.000
G1 X66.150 Y81.367 F720.000 E0.38761
G1 X66.150 Y66.150 E0.42242
G1 X93.850 Y66.150 E0.76891
G1 X93.850 Y81.367 E0.42242
G1 X86.643 Y93.850 E0.40010
G1 X73.462 Y93.850 E0.36590
G1 X73.432 Y93.850
G1 X73.877 Y92.949 F15000.000
G1 X73.727 Y92.689 F2700.000
G1 X67.051 Y81.126 F960.000 E0.37186
G1 X67.051 Y67.051 E0.39200
G1 X92.949 Y67.051 E0.72128
G1 X92.949 Y81.126 E0.39200
G1 X86.123 Y92.949 E0.38022
G1 X73.922 Y92.949 E0.33981
G1 X74.051 Y92.648 F15000.000
G1 X73.901 Y92.388 F2700.000
G1 X67.352 Y81.045 F960.000 E0.36477
G1 X67.352 Y67.352 E0.38137
G1 X92.648 Y67.352 E0.70451
G1 X92.648 Y81.045 E0.38137
G1 X85.949 Y92.648 E0.37313
G1 X81.085 Y92.648 E0.13546
G1 X83.159 Y91.450 E0.06669
G1 X84.124 Y88.800 E0.07856
G1 X83.159 Y86.150 E0.07856
G1 X80.716 Y84.739 E0.07856
G1 X77.938 Y85.229 E0.07856
G1 X76.125 Y87.390 E0.07856
G1 X76.125 Y90.210 E0.07856
G1 X77.938 Y92.371 E0.07856
G1 X79.507 Y92.648 E0.04437
G1 X74.096 Y92.648 E0.15071
G1 X74.225 Y92.347 F15000.000
G1 X74.075 Y92.087 F2700.000
G1 X67.653 Y80.965 F960.000 E0.35768
G1 X67.653 Y67.653 E0.37073
G1 X92.347 Y67.653 E0.68773
G1 X92.347 Y80.965 E0.37073
G1 X85.775 Y92.347 E0.36604
G1 X82.209 Y92.347 E0.09932
G1 X83.404 Y91.656 E0.03844
G1 X84.444 Y88.800 E0.08466
G1 X83.404 Y85.944 E0.08466
G1 X80.772 Y84.424 E0.08466
G1 X77.778 Y84.951 E0.08467
G1 X75.824 Y87.280 E0.08466
G1 X75.824 Y90.320 E0.08467
G1 X77.525 Y92.347 E0.07368
G1 X74.270 Y92.347 E0.09065
G1 X74.399 Y92.045 F15000.000
G1 X74.249 Y91.786 F2700.000
G1 X67.955 Y80.884 F960.000 E0.35059
G1 X67.955 Y67.955 E0.36010
G1 X92.045 Y67.955 E0.67096
G1 X92.045 Y80.884 E0.36010
G1 X85.601 Y92.045 E0.35895
G1 X83.333 Y92.045 E0.06318
G1 X83.650 Y91.862 E0.01019
G1 X84.764 Y88.800 E0.09077
G1 X83.650 Y85.738 E0.09077
G1 X80.827 Y84.108 E0.09077
G1 X77.618 Y84.674 E0.09077
G1 X75.523 Y87.170 E0.09077
G1 X75.523 Y90.430 E0.09077
G1 X76.879 Y92.045 E0.05875
G1 X74.444 Y92.045 E0.06782
G1 X74.572 Y91.744 F15000.000
G1 X74.422 Y91.485 F2700.000
G1 X68.256 Y80.803 F960.000 E0.34351
G1 X68.256 Y68.256 E0.34947
G1 X91.744 Y68.256 E0.65419
G1 X91.744 Y80.803 E0.34947
G1 X85.427 Y91.744 E0.35186
G1 X84.013 Y91.744 E0.03939
G1 X85.085 Y88.800 E0.08727
G1 X83.895 Y85.532 E0.09687
G1 X80.883 Y83.792 E0.09687
G1 X77.458 Y84.396 E0.09688
G1 X75.222 Y87.061 E0.09688
G1 X75.222 Y90.539 E0.09688
G1 X76.233 Y91.744 E0.04381
G1 X74.617 Y91.744 E0.04499
G1 X74.746 Y91.443 F15000.000
G1 X74.596 Y91.183 F2700.000
G1 X68.557 Y80.723 F960.000 E0.33642
G1 X68.557 Y68.557 E0.33883
G1 X91.443 Y68.557 E0.63741
G1 X91.443 Y80.723 E0.33883
G1 X85.254 Y91.443 E0.34477
G1 X84.443 Y91.443 E0.02257
G1 X85.405 Y88.800 E0.07834
G1 X84.141 Y85.326 E0.10298
G1 X80.939 Y83.477 E0.10298
G1 X77.297 Y84.119 E0.10298
G1 X74.921 Y86.951 E0.10298
G1 X74.921 Y90.649 E0.10298
G1 X75.587 Y91.443 E0.02888
G1 X74.791 Y91.443 E0.02216
G1 X74.619 Y90.621 F15000.000
G1 X74.469 Y90.361 F2700.000
G1 X68.858 Y80.642 F960.000 E0.31257
G1 X68.858 Y68.858 E0.32820
G1 X91.142 Y68.858 E0.62064
G1 X91.142 Y80.642 E0.32820
G1 X85.080 Y91.142 E0.33768
G1 X84.873 Y91.142 E0.00575
G1 X85.726 Y88.800 E0.06942
G1 X84.386 Y85.120 E0.10908
G1 X80.994 Y83.161 E0.10908
G1 X77.137 Y83.841 E0.10909
G1 X74.619 Y86.842 E0.10909
G1 X74.619 Y90.576 E0.10401
G1 F2700.000 E-1.20000
G1 X74.017 Y88.373 F15000.000
G1 F2700.000 E1.20000
G1 X73.867 Y88.114
G1 X69.460 Y80.481 F960.000 E0.24548
G1 X69.460 Y69.460 E0.30693
G1 X90.540 Y69.460 E0.58709
G1 X90.540 Y80.481 E0.30693
G1 X86.123 Y88.130 E0.24602
G1 X84.877 Y84.708 E0.10145
G1 X81.106 Y82.530 E0.12129
G1 X76.817 Y83.286 E0.12130
G1 X74.017 Y86.622 E0.12130
G1 X74.017 Y88.328 E0.04752
G1 X73.716 Y87.250 F15000.000
G1 X73.566 Y86.990 F2700.000
G1 X69.761 Y80.400 F960.000 E0.21193
G1 X69.761 Y69.761 E0.29629
G1 X90.239 Y69.761 E0.57032
G1 X90.239 Y80.400 E0.29629
G1 X86.185 Y87.421 E0.22579
G1 X85.123 Y84.502 E0.08652
G1 X81.161 Y82.214 E0.12740
G1 X76.656 Y83.009 E0.12740
G1 X73.716 Y86.513 E0.12740
G1 X73.716 Y87.205 E0.01927
G1 F2700.000 E-1.20000
G1 X73.693 Y84.198 F15000.000
G1 F2700.000 E1.20000
G1 X73.543 Y83.938
G1 X71.267 Y79.996 F960.000 E0.12677
G1 X71.267 Y71.267 E0.24312
G1 X88.733 Y71.267 E0.48645
G1 X88.733 Y79.996 E0.24312
G1 X86.496 Y83.871 E0.12462
G1 X86.350 Y83.472 E0.01185
G1 X81.440 Y80.636 E0.15792
G1 X75.855 Y81.621 E0.15793
G1 X73.722 Y84.164 E0.09244
G1 X73.739 Y83.675 F15000.000
G1 X73.589 Y83.415 F2700.000
G1 X71.568 Y79.916 F960.000 E0.11254
G1 X71.568 Y71.568 E0.23249
G1 X88.432 Y71.568 E0.46967
G1 X88.432 Y79.916 E0.23249
G1 X86.522 Y83.223 E0.10637
G1 X81.495 Y80.321 E0.16167
G1 X75.695 Y81.343 E0.16403
G1 X73.768 Y83.641 E0.08352
G1 X73.784 Y83.152 F15000.000
G1 X73.634 Y82.892 F2700.000
G1 X71.869 Y79.835 F960.000 E0.09832
G1 X71.869 Y71.869 E0.22185
G1 X88.131 Y71.869 E0.45290
G1 X88.131 Y79.835 E0.22185
G1 X86.412 Y82.812 E0.09574
G1 X81.551 Y80.005 E0.15633
G1 X75.535 Y81.066 E0.17014
G1 X73.813 Y83.118 E0.07459
G1 X73.830 Y82.629 F15000.000
G1 X73.680 Y82.369 F2700.000
G1 X72.170 Y79.754 F960.000 E0.08409
G1 X72.170 Y72.170 E0.21122
G1 X87.830 Y72.170 E0.43612
G1 X87.830 Y79.754 E0.21122
G1 X86.302 Y82.401 E0.08510
G1 X81.607 Y79.690 E0.15100
G1 X75.375 Y80.788 E0.17625
G1 X73.859 Y82.594 E0.06567
G1 X73.876 Y82.106 F15000.000
G1 X73.726 Y81.846 F2700.000
G1 X72.472 Y79.674 F960.000 E0.06987
G1 X72.472 Y72.472 E0.20059
G1 X87.528 Y72.472 E0.41935
G1 X87.528 Y79.674 E0.20058
G1 X86.192 Y81.989 E0.07447
G1 X81.662 Y79.374 E0.14566
G1 X75.214 Y80.511 E0.18235
G1 X73.905 Y82.071 E0.05674
G1 X73.922 Y81.583 F15000.000
G1 X73.772 Y81.323 F2700.000
G1 X72.773 Y79.593 F960.000 E0.05564
G1 X72.773 Y72.773 E0.18995
G1 X87.227 Y72.773 E0.40258
G1 X87.227 Y79.593 E0.18995
G1 X86.081 Y81.578 E0.06383
G1 X81.718 Y79.058 E0.14033
G1 X75.054 Y80.233 E0.18846
G1 X73.951 Y81.548 E0.04782
G1 X73.967 Y81.060 F15000.000
G1 X73.817 Y80.800 F2700.000
G1 X73.074 Y79.512 F960.000 E0.04142
G1 X73.074 Y73.074 E0.17932
G1 X86.926 Y73.074 E0.38580
G1 X86.926 Y79.512 E0.17932
G1 X85.971 Y81.166 E0.05320
G1 X81.774 Y78.743 E0.13499
G1 X74.894 Y79.956 E0.19456
G1 X73.996 Y81.025 E0.03889
G1 F2700.000 E-1.20000
G1 X76.085 Y76.688 F15000.000
G1 F2700.000 E1.20000
G1 X76.085 Y76.388
G1 X76.085 Y76.085 F960.000 E0.00843
G1 X79.503 Y76.085 E0.09520
G1 X76.130 Y76.680 E0.09542
G1 F2700.000 E-1.20000
G1 X83.193 Y76.085 F15000.000
G1 F2700.000 E1.20000
G1 X83.493 Y76.085
G1 X83.915 Y76.085 F960.000 E0.01174
G1 X83.915 Y76.502 E0.01160
G1 X83.232 Y76.108 E0.02195
G1 X84.216 Y76.978 F15000.000
G1 X84.216 Y76.678 F2700.000
G1 X84.216 Y75.784 F960.000 E0.02491
G1 X75.784 Y75.784 E0.23484
G1 X75.784 Y77.047 E0.03517
G1 X82.274 Y75.902 E0.18355
G1 X84.216 Y77.023 E0.06244
G1 X84.517 Y77.500 F15000.000
G1 X84.517 Y77.200 F2700.000
G1 X84.517 Y75.483 F960.000 E0.04782
G1 X75.483 Y75.483 E0.25161
G1 X75.483 Y77.406 E0.05355
G1 X82.219 Y76.218 E0.19049
G1 X84.517 Y77.545 E0.07391
G1 X84.818 Y78.022 F15000.000
G1 X84.818 Y77.722 F2700.000
G1 X84.818 Y75.182 F960.000 E0.07074
G1 X75.182 Y75.182 E0.26838
G1 X75.182 Y77.765 E0.07193
G1 X82.163 Y76.534 E0.19744
G1 X84.818 Y78.067 E0.08539
G1 X85.119 Y78.543 F15000.000
G1 X85.119 Y78.243 F2700.000
G1 X85.119 Y74.881 F960.000 E0.09365
G1 X74.881 Y74.881 E0.28516
G1 X74.881 Y78.123 E0.09031
G1 X82.108 Y76.849 E0.20438
G1 X85.119 Y78.588 E0.09686
G1 X85.420 Y79.065 F15000.000
G1 X85.420 Y78.765 F2700.000
G1 X85.420 Y74.580 F960.000 E0.11656
G1 X74.580 Y74.580 E0.30193
G1 X74.580 Y78.482 E0.10870
G1 X82.052 Y77.165 E0.21132
G1 X85.420 Y79.110 E0.10832
G1 X85.553 Y79.482 F15000.000
G1 X85.703 Y79.222 F2700.000
G1 X85.722 Y79.189 F960.000 E0.00105
G1 X85.722 Y74.278 E0.13678
G1 X74.278 Y74.278 E0.31871
G1 X74.278 Y78.841 E0.12708
G1 X81.996 Y77.480 E0.21826
G1 X85.530 Y79.521 E0.11366
G1 X85.663 Y79.893 F15000.000
G1 X85.813 Y79.634 F2700.000
G1 X86.023 Y79.270 F960.000 E0.01169
G1 X86.023 Y73.977 E0.14741
G1 X73.977 Y73.977 E0.33548
G1 X73.977 Y79.270 E0.14741
G1 X74.105 Y79.491 E0.00710
G1 X74.413 Y79.123 E0.01337
G1 X81.941 Y77.796 E0.21288
G1 X85.640 Y79.932 E0.11899
G1 X85.773 Y80.305 F15000.000
G1 X85.923 Y80.045 F2700.000
G1 X86.324 Y79.351 F960.000 E0.02232
G1 X86.324 Y73.676 E0.15805
G1 X73.676 Y73.676 E0.35225
G1 X73.676 Y79.351 E0.15805
G1 X74.059 Y80.014 E0.02132
G1 X74.573 Y79.401 E0.02229
G1 X81.885 Y78.112 E0.20677
G1 X85.751 Y80.344 E0.12432
G1 X85.883 Y80.716 F15000.000
G1 X86.033 Y80.456 F2700.000
G1 X86.625 Y79.432 F960.000 E0.03296
G1 X86.625 Y73.375 E0.16868
G1 X73.375 Y73.375 E0.36903
G1 X73.375 Y79.432 E0.16868
G1 X74.013 Y80.537 E0.03555
G1 X74.734 Y79.678 E0.03122
G1 X81.829 Y78.427 E0.20067
G1 X85.861 Y80.755 E0.12966
G1 F2700.000 E-1.20000
G1 X86.456 Y84.542 F15000.000
G1 F2700.000 E1.20000
G1 X86.606 Y84.283
G1 X89.034 Y80.077 F960.000 E0.13525
G1 X89.034 Y70.966 E0.25376
G1 X70.966 Y70.966 E0.50322
G1 X70.966 Y80.077 E0.25376
G1 X73.647 Y84.721 E0.14935
G1 X76.016 Y81.898 E0.10262
G1 X81.384 Y80.952 E0.15182
G1 X86.105 Y83.678 E0.15182
G1 X86.434 Y84.581 E0.02678
G1 X86.394 Y85.252 F15000.000
G1 X86.544 Y84.992 F2700.000
G1 X89.335 Y80.158 F960.000 E0.15548
G1 X89.335 Y70.665 E0.26439
G1 X70.665 Y70.665 E0.51999
G1 X70.665 Y80.158 E0.26439
G1 X73.601 Y85.244 E0.16357
G1 X76.176 Y82.176 E0.11155
G1 X81.328 Y81.268 E0.14572
G1 X85.859 Y83.884 E0.14571
G1 X86.371 Y85.291 E0.04172
G1 X86.332 Y85.962 F15000.000
G1 X86.482 Y85.702 F2700.000
G1 X89.636 Y80.238 F960.000 E0.17571
G1 X89.636 Y70.364 E0.27502
G1 X70.364 Y70.364 E0.53677
G1 X70.364 Y80.238 E0.27503
G1 X73.556 Y85.767 E0.17780
G1 X76.336 Y82.454 E0.12047
G1 X81.273 Y81.583 E0.13961
G1 X85.614 Y84.090 E0.13961
G1 X86.309 Y86.001 E0.05665
G1 X86.270 Y86.672 F15000.000
G1 X86.420 Y86.412 F2700.000
G1 X89.938 Y80.319 F960.000 E0.19595
G1 X89.938 Y70.062 E0.28566
G1 X70.062 Y70.062 E0.55354
G1 X70.062 Y80.319 E0.28566
G1 X73.510 Y86.290 E0.19202
G1 X76.496 Y82.731 E0.12940
G1 X81.217 Y81.899 E0.13351
G1 X85.368 Y84.296 E0.13350
G1 X86.247 Y86.711 E0.07158
G1 F2700.000 E-1.20000
G1 X86.004 Y88.939 F15000.000
G1 F2700.000 E1.20000
G1 X86.154 Y88.679
G1 X90.841 Y80.561 F960.000 E0.26106
G1 X90.841 Y69.159 E0.31756
G1 X69.159 Y69.159 E0.60386
G1 X69.159 Y80.561 E0.31756
G1 X74.318 Y89.497 E0.28738
G1 X74.318 Y86.732 E0.07702
G1 X76.977 Y83.564 E0.11519
G1 X81.050 Y82.846 E0.11519
G1 X84.632 Y84.914 E0.11519
G1 X86.046 Y88.800 E0.11519
G1 X85.982 Y88.978 E0.00526
G1 F2700.000 E-1.20000
G1 X80.660 Y85.055 F15000.000
G1 F2700.000 E1.20000
G1 X80.920 Y85.205
G1 X82.913 Y86.355 F960.000 E0.06410
G1 X83.803 Y88.800 E0.07245
G1 X82.913 Y91.245 E0.07245
G1 X80.660 Y92.545 E0.07245
G1 X78.098 Y92.094 E0.07245
G1 X76.426 Y90.101 E0.07245
G1 X76.426 Y87.499 E0.07246
G1 X78.098 Y85.506 E0.07245
G1 X80.616 Y85.063 E0.07120
G1 F2700.000 E-1.20000
G1 X78.303 Y91.824 F15000.000
G1 F2700.000 E1.20000
G1 X78.598 Y91.876
G1 X80.605 Y92.230 F960.000 E0.05674
G1 X82.668 Y91.039 E0.06635
G1 X83.483 Y88.800 E0.06635
G1 X82.668 Y86.561 E0.06635
G1 X80.605 Y85.370 E0.06635
G1 X78.259 Y85.784 E0.06635
G1 X76.727 Y87.609 E0.06635
G1 X76.727 Y89.991 E0.06635
G1 X78.259 Y91.816 E0.06635
G1 F2700.000 E-1.20000
G1 X93.250 Y81.207 F15000.000
G1 F2700.000 E1.20000
G1 X93.100 Y81.467
G1 X86.297 Y93.250 F960.000 E0.37895
G1 X73.703 Y93.250 E0.35075
G1 X66.750 Y81.207 E0.38731
G1 X66.750 Y66.750 E0.40264
G1 X93.250 Y66.750 E0.73806
G1 X93.250 Y81.162 E0.40138
G1 F2700.000 E-1.20000
G1 Z0.500 F15000.000
G1 X83.112 Y88.659
G1 F2700.000 E1.20000
G1 X83.009 Y88.377
G1 X82.423 Y86.767 F2400.000 E0.04757
G1 X80.549 Y85.685 E0.06007
G1 X78.418 Y86.060 E0.06007
G1 X77.027 Y87.718 E0.06007
G1 X77.027 Y89.882 E0.06007
G1 X78.418 Y91.540 E0.06007
G1 X80.549 Y91.915 E0.06007
G1 X82.423 Y90.833 E0.06007
G1 X83.035 Y89.152 E0.04966
G1 X83.086 Y89.011
G1 X82.793 Y88.659 F15000.000
G1 X82.690 Y88.377 F2700.000
G1 X82.179 Y86.972 F1500.000 E0.04151
G1 X80.494 Y85.999 E0.05400
G1 X78.578 Y86.337 E0.05400
G1 X77.327 Y87.827 E0.05400
G1 X77.327 Y89.773 E0.05401
G1 X78.578 Y91.263 E0.05400
G1 X80.494 Y91.601 E0.05400
G1 X82.179 Y90.628 E0.05400
G1 X82.808 Y88.899 E0.05109
G1 X82.818 Y88.870
G1 X83.163 Y88.800 F2700.000 E-1.20000
G1 X86.320 Y93.550 F15000.000
G1 F2700.000 E1.20000
G1 X86.020 Y93.550
