; generated by Slic3r 0.9.2-dev on 2012-09-17 at 13:53:12

; layer_height = 0.3
; perimeters = 2
; solid_layers = 3
; fill_density = 0.25
; perimeter_speed = 30
; infill_speed = 48
; travel_speed = 250
; scale = 1
; nozzle_diameter = 0.5
; filament_diameter = 1.75
; extrusion_multiplier = 0.79
; single wall width = 0.50mm
; first layer single wall width = 0.50mm

M107
M190 S57 ; wait for bed temperature to be reached
M104 S200 ; set temperature
G28 X0 Y0
G1 X75 Y75 F12000
G28 Z0
G1 Z0.3 F200
G1 X15 Y20 F12000
M109 S200 ; wait for temperature to be reached
G90 ; use absolute coordinates
G21 ; set units to millimeters
G92 E0
M82 ; use absolute distances for extrusion
G1 Z0.300 F15000.000
G1 X13.040 Y46.540
G1 F3000.000 E1.60000
G1 X13.270 Y46.320
G1 X13.270 Y46.320 F1800.000
G1 X13.770 Y45.920 E1.63155
G1 X15.810 Y44.550 E1.75261
G1 X16.300 Y44.280 E1.78017
G1 X16.820 Y44.050 E1.80819
G1 X17.360 Y43.870 E1.83623
G1 X17.910 Y43.730 E1.86419
G1 X19.970 Y43.330 E1.96757
G1 X20.480 Y43.270 E1.99287
G1 X20.990 Y43.250 E2.01802
G1 X129.240 Y43.250 E7.35113
G1 X129.750 Y43.290 E7.37633
G1 X132.350 Y43.790 E7.50677
G1 X132.900 Y43.950 E7.53499
G1 X133.430 Y44.160 E7.56308
G1 X133.940 Y44.410 E7.59106
G1 X134.180 Y44.550 E7.60475
G1 X136.220 Y45.920 E7.72581
G1 X136.720 Y46.320 E7.75736
G1 X137.170 Y46.770 E7.78871
G1 X137.570 Y47.270 E7.82026
G1 X138.940 Y49.310 E7.94132
G1 X139.210 Y49.810 E7.96932
G1 X139.440 Y50.330 E7.99733
G1 X139.540 Y50.600 E8.01151
G1 X139.700 Y51.150 E8.03973
G1 X140.200 Y53.770 E8.17114
G1 X140.240 Y54.270 E8.19585
G1 X140.220 Y88.410 E9.87781
G1 X140.090 Y89.250 E9.91969
G1 X139.850 Y90.060 E9.96131
G1 X139.750 Y90.330 E9.97550
G1 X139.510 Y90.840 E10.00327
G1 X132.070 Y103.730 E10.73650
G1 X131.760 Y104.180 E10.76343
G1 X131.230 Y104.800 E10.80361
G1 X130.830 Y105.170 E10.83045
G1 X130.400 Y105.510 E10.85746
G1 X129.950 Y105.810 E10.88411
G1 X129.710 Y105.950 E10.89779
G1 X129.220 Y106.190 E10.92468
G1 X128.720 Y106.390 E10.95121
G1 X128.200 Y106.550 E10.97801
G1 X127.660 Y106.660 E11.00516
G1 X127.120 Y106.730 E11.03199
G1 X126.580 Y106.750 E11.05861
G1 X22.870 Y106.730 E16.16805
G1 X22.330 Y106.660 E16.19487
G1 X21.790 Y106.550 E16.22202
G1 X21.270 Y106.390 E16.24883
G1 X20.770 Y106.190 E16.27536
G1 X20.280 Y105.950 E16.30224
G1 X19.590 Y105.510 E16.34256
G1 X19.160 Y105.170 E16.36956
G1 X18.960 Y104.990 E16.38282
G1 X18.580 Y104.600 E16.40965
G1 X18.230 Y104.180 E16.43658
G1 X17.920 Y103.730 E16.46350
G1 X10.350 Y90.590 E17.21061
G1 X10.130 Y90.060 E17.23888
G1 X10.040 Y89.800 E17.25244
G1 X9.890 Y89.250 E17.28052
G1 X9.760 Y88.410 E17.32240
G1 X9.760 Y54.000 E19.01766
G1 X9.820 Y53.490 E19.04296
G1 X10.390 Y50.780 E19.17939
G1 X10.490 Y50.480 E19.19497
G1 X10.740 Y49.890 E19.22654
G1 X10.880 Y49.610 E19.24197
G1 X11.040 Y49.330 E19.25785
G1 X12.420 Y47.270 E19.38001
G1 X12.820 Y46.770 E19.41156
G1 X12.954 Y46.630 E19.42108
G1 F3000.000 E17.82108
G92 E0
G1 X116.830 Y96.704 F15000.000
G1 F3000.000 E1.60000
G1 X117.152 Y97.087
G1 X118.228 Y98.369 F720.000 E1.68248
G1 X120.615 Y98.790 E1.80189
G1 X122.715 Y97.578 E1.92137
G1 X123.544 Y95.300 E2.04080
G1 X122.715 Y93.022 E2.16023
G1 X120.615 Y91.810 E2.27971
G1 X118.228 Y92.231 E2.39912
G1 X116.670 Y94.088 E2.51855
G1 X116.670 Y95.387 E2.58257
G1 X116.670 Y96.137
G1 X117.330 Y96.522 F15000.000
G1 X117.652 Y96.905 F3000.000
G1 X118.494 Y97.909 F624.000 E2.64712
G1 X120.522 Y98.266 E2.74860
G1 X122.308 Y97.236 E2.85014
G1 X123.012 Y95.300 E2.95164
G1 X122.308 Y93.364 E3.05314
G1 X120.522 Y92.334 E3.15468
G1 X118.494 Y92.691 E3.25616
G1 X117.170 Y94.270 E3.35766
G1 X117.170 Y95.705 E3.42838
G1 X117.170 Y96.205
G1 X116.670 Y96.512 F3000.000 E1.82838
G92 E0
G1 X126.442 Y72.717 F15000.000
G1 F3000.000 E1.60000
G1 X126.692 Y73.150
G1 X127.659 Y74.823 F720.000 E1.69522
G1 X130.341 Y74.823 E1.82739
G1 X131.683 Y72.500 E1.95956
G1 X130.341 Y70.177 E2.09173
G1 X127.659 Y70.177 E2.22390
G1 X126.880 Y71.526 E2.30065
G1 X126.505 Y72.175
G1 X127.020 Y72.717 F15000.000
G1 X127.270 Y73.150 F3000.000
G1 X127.947 Y74.323 F624.000 E2.36742
G1 X130.053 Y74.323 E2.47115
G1 X131.105 Y72.500 E2.57488
G1 X130.053 Y70.677 E2.67860
G1 X127.947 Y70.677 E2.78233
G1 X127.207 Y71.959 E2.85526
G1 X126.957 Y72.392
G1 X126.317 Y72.500 F3000.000 E1.25526
G92 E0
G1 X127.909 Y56.823 F15000.000
G1 F3000.000 E1.60000
G1 X128.409 Y56.823
G1 X130.341 Y56.823 F720.000 E1.69522
G1 X131.683 Y54.500 E1.82739
G1 X130.341 Y52.177 E1.95956
G1 X127.659 Y52.177 E2.09173
G1 X126.317 Y54.500 E2.22390
G1 X127.096 Y55.849 E2.30064
G1 X127.471 Y56.499
G1 X128.197 Y56.323 F15000.000
G1 X128.697 Y56.323 F3000.000
G1 X130.053 Y56.323 F624.000 E2.36742
G1 X131.105 Y54.500 E2.47114
G1 X130.053 Y52.677 E2.57487
G1 X127.947 Y52.677 E2.67859
G1 X126.895 Y54.500 E2.78232
G1 X127.635 Y55.782 E2.85525
G1 X127.885 Y56.215
G1 X127.659 Y56.823 F3000.000 E1.25525
G92 E0
G1 X19.909 Y56.823 F15000.000
G1 F3000.000 E1.60000
G1 X20.409 Y56.823
G1 X22.341 Y56.823 F720.000 E1.69522
G1 X23.683 Y54.500 E1.82739
G1 X22.341 Y52.177 E1.95956
G1 X19.659 Y52.177 E2.09173
G1 X18.317 Y54.500 E2.22390
G1 X19.096 Y55.849 E2.30064
G1 X19.471 Y56.499
G1 X20.197 Y56.323 F15000.000
G1 X20.697 Y56.323 F3000.000
G1 X22.053 Y56.323 F624.000 E2.36742
G1 X23.105 Y54.500 E2.47114
G1 X22.053 Y52.677 E2.57487
G1 X19.947 Y52.677 E2.67859
G1 X18.895 Y54.500 E2.78232
G1 X19.635 Y55.782 E2.85525
G1 X19.885 Y56.215
G1 X19.659 Y56.823 F3000.000 E1.25525
G92 E0
G1 X19.909 Y74.823 F15000.000
G1 F3000.000 E1.60000
G1 X20.409 Y74.823
G1 X22.341 Y74.823 F720.000 E1.69522
G1 X23.683 Y72.500 E1.82739
G1 X22.341 Y70.177 E1.95956
G1 X19.659 Y70.177 E2.09173
G1 X18.317 Y72.500 E2.22390
G1 X19.096 Y73.849 E2.30065
G1 X19.471 Y74.499
G1 X20.197 Y74.323 F15000.000
G1 X20.697 Y74.323 F3000.000
G1 X22.053 Y74.323 F624.000 E2.36742
G1 X23.105 Y72.500 E2.47115
G1 X22.053 Y70.677 E2.57488
G1 X19.947 Y70.677 E2.67860
G1 X18.895 Y72.500 E2.78233
G1 X19.635 Y73.782 E2.85526
G1 X19.885 Y74.215
G1 X19.659 Y74.823 F3000.000 E1.25526
G92 E0
G1 X26.830 Y96.704 F15000.000
G1 F3000.000 E1.60000
G1 X27.152 Y97.087
G1 X28.228 Y98.369 F720.000 E1.68249
G1 X30.615 Y98.790 E1.80193
G1 X32.715 Y97.578 E1.92136
G1 X33.544 Y95.300 E2.04080
G1 X32.715 Y93.022 E2.16024
G1 X30.615 Y91.810 E2.27967
G1 X28.228 Y92.231 E2.39911
G1 X26.670 Y94.088 E2.51855
G1 X26.670 Y95.387 E2.58257
G1 X26.670 Y96.137
G1 X27.330 Y96.522 F15000.000
G1 X27.652 Y96.905 F3000.000
G1 X28.494 Y97.909 F624.000 E2.64712
G1 X30.523 Y98.266 E2.74863
G1 X32.307 Y97.236 E2.85014
G1 X33.012 Y95.300 E2.95164
G1 X32.307 Y93.364 E3.05315
G1 X30.523 Y92.334 E3.15465
G1 X28.494 Y92.691 E3.25616
G1 X27.170 Y94.270 E3.35767
G1 X27.170 Y95.705 E3.42839
G1 X27.170 Y96.205
G1 X26.670 Y96.512 F3000.000 E1.82839
G92 E0
G1 X23.578 Y99.533 F15000.000
G1 F3000.000 E1.60000
G1 X23.328 Y99.100
G1 X16.750 Y87.707 F720.000 E2.24817
G1 X16.750 Y54.574 E3.88051
G1 X17.087 Y52.879 E3.96564
G1 X18.005 Y51.505 E4.04705
G1 X19.379 Y50.587 E4.12847
G1 X21.000 Y50.265 E4.20988
G1 X22.621 Y50.587 E4.29130
G1 X23.456 Y51.145 E4.34078
G1 X23.995 Y51.505 E4.37270
G1 X24.612 Y52.429 E4.42747
G1 X26.653 Y54.695 E4.57768
G1 X38.873 Y63.574 E5.32186
G1 X52.672 Y69.718 E6.06605
G1 X67.447 Y72.858 E6.81023
G1 X82.553 Y72.858 E7.55441
G1 X97.328 Y69.718 E8.29859
G1 X111.127 Y63.574 E9.04278
G1 X123.348 Y54.695 E9.78696
G1 X125.388 Y52.429 E9.93718
G1 X126.005 Y51.505 E9.99193
G1 X126.387 Y51.250 E10.01456
G1 X127.380 Y50.587 E10.07335
G1 X129.000 Y50.265 E10.15474
G1 X130.620 Y50.587 E10.23614
G1 X131.995 Y51.505 E10.31758
G1 X132.913 Y52.879 E10.39897
G1 X133.250 Y54.574 E10.48411
G1 X133.250 Y87.707 E12.11647
G1 X126.297 Y99.750 E12.80157
G1 X24.828 Y99.750 E17.80059
G1 X24.078 Y99.750
G1 X23.290 Y100.033 F15000.000
G1 X23.040 Y99.600 F3000.000
G1 X16.250 Y87.841 F576.000 E18.46958
G1 X16.250 Y54.525 E20.11095
G1 X16.616 Y52.684 E20.20340
G1 X17.645 Y51.145 E20.29461
G1 X19.184 Y50.116 E20.38583
G1 X21.000 Y49.755 E20.47704
G1 X22.816 Y50.116 E20.56826
G1 X23.786 Y50.764 E20.62572
G1 X24.355 Y51.145 E20.65946
G1 X25.008 Y52.122 E20.71735
G1 X26.989 Y54.322 E20.86320
G1 X39.124 Y63.139 E21.60220
G1 X52.828 Y69.240 E22.34121
G1 X67.500 Y72.358 E23.08021
G1 X82.500 Y72.358 E23.81922
G1 X97.172 Y69.240 E24.55822
G1 X110.876 Y63.139 E25.29723
G1 X123.011 Y54.322 E26.03624
G1 X124.992 Y52.122 E26.18208
G1 X125.644 Y51.145 E26.23995
G1 X126.235 Y50.750 E26.27496
G1 X127.185 Y50.116 E26.33118
G1 X129.000 Y49.755 E26.42237
G1 X130.815 Y50.116 E26.51357
G1 X132.356 Y51.145 E26.60482
G1 X133.384 Y52.684 E26.69601
G1 X133.750 Y54.525 E26.78846
G1 X133.750 Y87.841 E28.42985
G1 X126.586 Y100.250 E29.13577
G1 X24.040 Y100.250 E34.18787
G1 X23.540 Y100.250
G1 X24.134 Y99.391 F15000.000
G1 X23.850 Y99.108 F3000.000
G1 X23.850 Y99.108 F2880.000
G1 X24.841 Y99.391 E34.23868
G1 X22.883 Y97.433 E34.37524
G1 X21.917 Y95.758 E34.47061
G1 X25.550 Y99.391 E34.72399
G1 X26.257 Y99.391 E34.75886
G1 X20.949 Y94.084 E35.12901
G1 X19.983 Y92.409 E35.22439
G1 X26.965 Y99.391 E35.71137
G1 X27.672 Y99.391 E35.74624
G1 X19.015 Y90.734 E36.34999
G1 X18.048 Y89.059 E36.44539
G1 X28.283 Y99.294 E37.15918
G1 F3000.000 E35.55918
G92 E0
G1 X31.286 Y98.757 F15000.000
G1 F3000.000 E1.60000
G1 X31.640 Y99.111
G1 X31.921 Y99.391 F1152.000 E1.61958
G1 X32.628 Y99.391 E1.65445
G1 X31.735 Y98.498 E1.71673
G1 X32.184 Y98.239 E1.74231
G1 X33.336 Y99.391 E1.82269
G1 X34.043 Y99.391 E1.85756
G1 X32.632 Y97.980 E1.95599
G1 X33.023 Y97.663 F15000.000
G1 X33.377 Y98.016 F3000.000
G1 X34.752 Y99.391 F1152.000 E2.05191
G1 X35.459 Y99.391 E2.08678
G1 X33.212 Y97.144 E2.24350
G1 X33.401 Y96.625 E2.27075
G1 X36.168 Y99.391 E2.46367
G1 X36.875 Y99.392 E2.49857
G1 X33.589 Y96.106 E2.72773
G1 X33.779 Y95.587 E2.75498
G1 X37.583 Y99.391 E3.02029
G1 X38.292 Y99.391 E3.05523
G1 X33.864 Y94.964 E3.36399
G1 X33.459 Y93.851 E3.42241
G1 X38.999 Y99.391 E3.80879
G1 X39.707 Y99.391 E3.84373
G1 X33.054 Y92.738 E4.30773
G1 X32.964 Y92.648 F15000.000
G1 X32.610 Y92.294 F3000.000
G1 X17.109 Y76.793 F1152.000 E5.38881
G1 X17.108 Y76.085 E5.42370
G1 X40.414 Y99.391 E7.04909
G1 X41.123 Y99.391 E7.08403
G1 X17.109 Y75.377 E8.75881
G1 X17.108 Y74.670 E8.79371
G1 X41.830 Y99.391 E10.51783
G1 X42.539 Y99.391 E10.55277
G1 X17.109 Y73.962 E12.32628
G1 X17.108 Y73.254 E12.36117
G1 X43.246 Y99.391 E14.18403
G1 X43.954 Y99.391 E14.21897
G1 X19.744 Y75.182 E15.90738
G1 X20.453 Y75.181 E15.94231
G1 X44.663 Y99.391 E17.63074
G1 X45.370 Y99.391 E17.66561
G1 X21.160 Y75.182 E19.35402
G1 X21.868 Y75.182 E19.38894
G1 X46.078 Y99.391 E21.07737
G1 X46.785 Y99.391 E21.11224
G1 X22.520 Y75.126 E22.80450
G1 X22.780 Y74.677 E22.83008
G1 X47.494 Y99.391 E24.55367
G1 X48.201 Y99.391 E24.58854
G1 X23.039 Y74.229 E26.34340
G1 X23.298 Y73.780 E26.36897
G1 X48.910 Y99.391 E28.15515
G1 X49.617 Y99.391 E28.19002
G1 X23.557 Y73.331 E30.00747
G1 X23.816 Y72.882 E30.03305
G1 X50.325 Y99.391 E31.88182
G1 X51.033 Y99.392 E31.91672
G1 X24.075 Y72.434 E33.79681
G1 X23.313 Y70.964 E33.87846
G1 X51.741 Y99.391 E35.86103
G1 X52.449 Y99.391 E35.89597
G1 X17.109 Y64.051 E38.36066
G1 X17.108 Y63.343 E38.39555
G1 X53.156 Y99.391 E40.90958
G1 X53.865 Y99.391 E40.94452
G1 X17.109 Y62.635 E43.50795
G1 X17.108 Y61.928 E43.54283
G1 X54.572 Y99.391 E46.15560
G1 X55.281 Y99.391 E46.19054
G1 X17.109 Y61.219 E48.85270
G1 X17.108 Y60.512 E48.88758
G1 X55.988 Y99.391 E51.59908
G1 X56.696 Y99.391 E51.63402
G1 X17.109 Y59.804 E54.39491
G1 X17.108 Y59.096 E54.42980
G1 X57.404 Y99.392 E57.24008
G1 X58.112 Y99.391 E57.27498
G1 X17.108 Y58.388 E60.13460
G1 X17.109 Y57.680 E60.16953
G1 X58.820 Y99.391 E63.07854
G1 X59.528 Y99.391 E63.11341
G1 X17.108 Y56.972 E66.07176
G1 X17.109 Y56.264 E66.10669
G1 X60.236 Y99.391 E69.11443
G1 X60.943 Y99.391 E69.14930
G1 X17.108 Y55.557 E72.20639
G1 X17.109 Y54.848 E72.24131
G1 X19.221 Y56.960 E72.38860
G1 X19.442 Y57.182 F15000.000
G1 X19.795 Y57.535 F3000.000
G1 X61.652 Y99.391 F1152.000 E75.30771
G1 X62.359 Y99.391 E75.34258
G1 X20.149 Y57.182 E78.28631
G1 X20.857 Y57.182 E78.32123
G1 X63.067 Y99.391 E81.26499
G1 X63.774 Y99.391 E81.29986
G1 X21.565 Y57.182 E84.24359
G1 X22.273 Y57.182 E84.27851
G1 X64.483 Y99.391 E87.22226
G1 X65.191 Y99.391 E87.25720
G1 X22.669 Y56.869 E90.22275
G1 X22.928 Y56.421 E90.24828
G1 X65.899 Y99.391 E93.24510
G1 X66.607 Y99.391 E93.28004
G1 X23.187 Y55.972 E96.30818
G1 X23.446 Y55.523 E96.33371
G1 X67.314 Y99.391 E99.39312
G1 X68.023 Y99.391 E99.42806
G1 X23.705 Y55.074 E102.51879
G1 X23.964 Y54.626 E102.54432
G1 X68.730 Y99.391 E105.66632
G1 X69.438 Y99.391 E105.70126
G1 X23.727 Y53.680 E108.88920
G1 X24.514 Y53.052 F15000.000
G1 X24.161 Y52.698 F3000.000
G1 X22.569 Y51.107 F1152.000 E109.00019
G1 X22.572 Y51.818 E109.03527
G1 X21.518 Y50.765 E109.10878
G1 X20.709 Y50.663 E109.14899
G1 X21.865 Y51.818 E109.22958
G1 X21.157 Y51.818 E109.26451
G1 X20.119 Y50.780 E109.33691
G1 X19.529 Y50.897 E109.36657
G1 X20.449 Y51.818 E109.43079
G1 X19.741 Y51.818 E109.46571
G1 X19.077 Y51.154 E109.51202
G1 X18.653 Y51.437 E109.53716
G1 X19.337 Y52.121 E109.58484
G1 X19.077 Y52.570 E109.61041
G1 X18.228 Y51.721 E109.66961
G1 X17.944 Y52.144 E109.69473
G1 X18.819 Y53.019 E109.75573
G1 X18.559 Y53.468 E109.78131
G1 X17.660 Y52.569 E109.84401
G1 X17.400 Y53.017 E109.86957
G1 X18.300 Y53.917 E109.93234
G1 X18.041 Y54.365 E109.95787
G1 X17.283 Y53.607 E110.01077
G1 X17.165 Y54.198 E110.04048
G1 X18.253 Y55.286 E110.11638
G1 F3000.000 E108.51638
G92 E0
G1 X22.760 Y52.006 F15000.000
G1 F3000.000 E1.60000
G1 X23.113 Y52.359
G1 X70.145 Y99.391 F1152.000 E4.88007
G1 X70.854 Y99.391 E4.91501
G1 X26.961 Y55.499 E7.97615
G1 F3000.000 E6.37615
G92 E0
G1 X29.549 Y57.380 F15000.000
G1 F3000.000 E1.60000
G1 X29.903 Y57.733
G1 X71.562 Y99.392 F1152.000 E4.50534
G1 X72.270 Y99.391 E4.54025
G1 X32.138 Y59.260 E7.33905
G1 F3000.000 E5.73905
G92 E0
G1 X34.727 Y61.141 F15000.000
G1 F3000.000 E1.60000
G1 X35.081 Y61.494
G1 X72.978 Y99.391 F1152.000 E4.24300
G1 X73.685 Y99.391 E4.27787
G1 X37.315 Y63.022 E6.81434
G1 X39.182 Y64.180 E6.92269
G1 X74.394 Y99.391 E9.37837
G1 X75.101 Y99.391 E9.41324
G1 X40.458 Y64.749 E11.82927
G1 X41.734 Y65.316 E11.89816
G1 X75.809 Y99.391 E14.27459
G1 X76.516 Y99.391 E14.30947
G1 X43.009 Y65.885 E16.64628
G1 X44.286 Y66.452 E16.71517
G1 X77.225 Y99.391 E19.01238
G1 X77.933 Y99.392 E19.04728
G1 X45.561 Y67.021 E21.30489
G1 X46.838 Y67.589 E21.37378
G1 X78.641 Y99.391 E23.59175
G1 X79.349 Y99.391 E23.62669
G1 X48.114 Y68.156 E25.80505
G1 X49.390 Y68.725 E25.87392
G1 X80.056 Y99.391 E28.01264
G1 X80.765 Y99.391 E28.04758
G1 X50.666 Y69.293 E30.14669
G1 X51.942 Y69.861 E30.21556
G1 X81.472 Y99.391 E32.27503
G1 X82.180 Y99.391 E32.30997
G1 X52.969 Y70.180 E34.34720
G1 X53.868 Y70.372 E34.39251
G1 X82.887 Y99.391 E36.41638
G1 X83.596 Y99.391 E36.45132
G1 X54.767 Y70.563 E38.46186
G1 X55.666 Y70.754 E38.50718
G1 X84.303 Y99.391 E40.50436
G1 X85.012 Y99.391 E40.53930
G1 X56.565 Y70.945 E42.52322
G1 X57.463 Y71.136 E42.56854
G1 X85.719 Y99.392 E44.53914
G1 X86.427 Y99.391 E44.57405
G1 X58.363 Y71.327 E46.53128
G1 X59.262 Y71.518 E46.57663
G1 X87.136 Y99.391 E48.52055
G1 X87.843 Y99.391 E48.55542
G1 X60.161 Y71.710 E50.48598
G1 X61.060 Y71.900 E50.53128
G1 X88.551 Y99.391 E52.44858
G1 X89.259 Y99.391 E52.48345
G1 X61.959 Y72.091 E54.38738
G1 X62.858 Y72.282 E54.43272
G1 X89.967 Y99.391 E56.32333
G1 X90.674 Y99.391 E56.35820
G1 X63.757 Y72.474 E58.23545
G1 X64.655 Y72.664 E58.28076
G1 X91.383 Y99.391 E60.14474
G1 X92.090 Y99.392 E60.17965
G1 X65.554 Y72.856 E62.03032
G1 X66.454 Y73.047 E62.07566
G1 X92.798 Y99.391 E63.91297
G1 X93.507 Y99.391 E63.94791
G1 X67.332 Y73.217 E65.77338
G1 X68.040 Y73.217 E65.80828
G1 X94.214 Y99.391 E67.63370
G1 X94.922 Y99.391 E67.66864
G1 X68.747 Y73.217 E69.49411
G1 X69.455 Y73.217 E69.52902
G1 X95.630 Y99.391 E71.35444
G1 X96.338 Y99.391 E71.38938
G1 X70.163 Y73.217 E73.21485
G1 X70.871 Y73.217 E73.24976
G1 X97.045 Y99.391 E75.07518
G1 X97.754 Y99.391 E75.11012
G1 X71.579 Y73.217 E76.93559
G1 X72.287 Y73.217 E76.97049
G1 X98.462 Y99.392 E78.79596
G1 X99.169 Y99.391 E78.83087
